BT2020_to_BT601_PAL.cube
TITLE "BT2020_to_BT601_PAL"
LUT_3D_SIZE 5
# BT2020 SDR to BT601 PAL SDR by Francesco Bucciantini
0.00000000 0.00000000 0.00000000
0.35321409 0.00000000 0.00000000
0.67687146 0.00000000 0.00000000
1.00052884 0.00000000 0.00000000
1.32418621 0.00000000 0.00000000
0.00000000 0.27825480 0.00000000
0.26375990 0.25425221 0.00000000
0.63473993 0.18901210 0.00000000
0.97352018 0.00881696 0.00000000
1.30461346 0.00000000 0.00000000
0.00000000 0.54826253 0.00000000
0.00000000 0.53619710 0.00000000
0.52339338 0.50708087 0.00000000
0.90744910 0.45406793 0.00000000
1.25789155 0.36474990 0.00000000
0.00000000 0.81827026 0.00000000
0.00000000 0.81043995 0.00000000
0.24075474 0.79195766 0.00000000
0.78302686 0.75990954 0.00000000
1.17490785 0.71115498 0.00000000
0.00000000 1.08827799 0.00000000
0.00000000 1.08257860 0.00000000
0.00000000 1.06923142 0.00000000
0.55285062 1.04645144 0.00000000
1.04266034 1.01273820 0.00000000
0.00000000 0.00000000 0.26726392
0.34295381 0.00000000 0.26490040
0.67161903 0.00000000 0.25934621
0.99710650 0.00000000 0.24980127
1.32169159 0.00000000 0.23550910
0.00000000 0.27452334 0.25268938
0.25020468 0.25020468 0.25020468
0.62911346 0.18379597 0.24435816
0.96999183 0.00000000 0.23428469
1.30207617 0.00000000 0.21913277
0.00000000 0.54634169 0.21567231
0.00000000 0.53423142 0.21282235
0.51649883 0.50499874 0.20608798
0.90363445 0.45173822 0.19438384
1.25524684 0.36185700 0.17650391
0.00000000 0.81701712 0.13756658
0.00000000 0.80917359 0.13350736
0.22601427 0.79065907 0.12374426
0.77854101 0.75855138 0.10610603
1.17205056 0.70969607 0.07675214
0.00000000 1.08736412 0.00000000
0.00000000 1.08165934 0.00000000
0.00000000 1.06829929 0.00000000
0.54633930 1.04549658 0.00000000
1.03939222 1.01174780 0.00000000
0.00000000 0.00000000 0.52940528
0.31796352 0.00000000 0.52818682
0.65926772 0.00000000 0.52535016
0.98911986 0.00000000 0.52056398
1.31588618 0.00000000 0.51361132
0.00000000 0.26569029 0.52200025
0.21599070 0.24059102 0.52076397
0.61585748 0.17122348 0.51788552
0.96175478 0.00000000 0.51302783
1.29617080 0.00000000 0.50596905
0.00000000 0.54186041 0.50439950
0.00000000 0.52964432 0.50311889
0.50013645 0.50013645 0.50013645
0.89471980 0.44628903 0.49510066
1.24908969 0.35506182 0.48777711
0.00000000 0.81410315 0.47342900
0.00000000 0.80622872 0.47206299
0.18822048 0.78763884 0.46887992
0.76802953 0.75539181 0.46349979
1.16539450 0.70630060 0.45566255
0.00000000 1.08524165 0.42499327
0.00000000 1.07952430 0.42347090
0.00000000 1.06613429 0.41991969
0.53092254 1.04327863 0.41390498
1.03176942 1.00944702 0.40511448
0.00000000 0.00000000 0.79154665
0.27142485 0.00000000 0.79075146
0.63801335 0.00000000 0.78890417
0.97558164 0.00000000 0.78579992
1.30609802 0.00000000 0.78131907
0.00000000 0.25028149 0.78672980
0.14534440 0.22370027 0.78592932
0.59295838 0.14839655 0.78406969
0.94778221 0.00000000 0.78094458
1.28621199 0.00000000 0.77643332
0.00000000 0.53426854 0.77543508
0.00000000 0.52186926 0.77462193
0.47143888 0.49188370 0.77273277
0.87956737 0.43701107 0.76955771
1.23870052 0.34339479 0.76497364
0.00000000 0.80919747 0.75610962
0.00000000 0.80127051 0.75527392
0.10559045 0.78255247 0.75333221
0.75006823 0.75006823 0.75006823
1.15415055 0.70057464 0.74535443
0.00000000 1.08167667 0.72738797
0.00000000 1.07593810 0.72651660
0.00000000 1.06249747 0.72449168
0.50401698 1.03955236 0.72108680
1.01886080 1.00558074 0.71616726
0.00000000 0.00000000 1.05368801
0.18819240 0.00000000 1.05310804
0.60611388 0.00000000 1.05176177
0.95576920 0.00000000 1.04950284
1.29189556 0.00000000 1.04624968
0.00000000 0.22657944 1.05017906
0.00000000 0.19736226 1.04959691
0.55835726 0.11019638 1.04824561
0.92731068 0.00000000 1.04597820
1.27175702 0.00000000 1.04271276
0.00000000 0.52316859 1.04199142
0.00000000 0.51049219 1.04140417
0.42684197 0.47978096 1.04004097
0.85729440 0.42333478 1.03775354
1.22360776 0.32595240 1.03445910
0.00000000 0.80209616 1.02811629
0.00000000 0.79409203 1.02752019
0.00000000 0.77518553 1.02613640
0.72343404 0.74235188 1.02381429
1.13778617 0.69226390 1.02046963
0.00000000 1.07653453 1.00781974
0.00000000 1.07076510 1.00721023
0.00000000 1.05725085 1.00579529
0.46259632 1.03417555 1.00342069
1.00000000 1.00000000 1.00000000
