BT2020_to_BT601_PAL.cube
TITLE "BT2020_to_BT601_PAL"
LUT_3D_SIZE 9
# BT2020 SDR to BT601 PAL SDR by Francesco Bucciantini
0.00000000 0.00000000 0.00000000
0.19138540 0.00000000 0.00000000
0.35321409 0.00000000 0.00000000
0.51504277 0.00000000 0.00000000
0.67687146 0.00000000 0.00000000
0.83870015 0.00000000 0.00000000
1.00052884 0.00000000 0.00000000
1.16235752 0.00000000 0.00000000
1.32418621 0.00000000 0.00000000
0.00000000 0.14325094 0.00000000
0.13394316 0.12783788 0.00000000
0.32249660 0.09865568 0.00000000
0.49435552 0.04409563 0.00000000
0.66146085 0.00000000 0.00000000
0.82652645 0.00000000 0.00000000
0.99053166 0.00000000 0.00000000
1.15391729 0.00000000 0.00000000
1.31691074 0.00000000 0.00000000
0.00000000 0.27825480 0.00000000
0.00000000 0.26950863 0.00000000
0.26375990 0.25425221 0.00000000
0.45755454 0.22879620 0.00000000
0.63473993 0.18901210 0.00000000
0.80567240 0.12461168 0.00000000
0.97352018 0.00881696 0.00000000
1.13961341 0.00000000 0.00000000
1.30461346 0.00000000 0.00000000
0.00000000 0.41325867 0.00000000
0.00000000 0.40728339 0.00000000
0.13702206 0.39707079 0.00000000
0.39357664 0.38066654 0.00000000
0.59067029 0.35679689 0.00000000
0.77203935 0.32350608 0.00000000
0.94640431 0.27733084 0.00000000
1.11697112 0.21076011 0.00000000
1.28523394 0.09823682 0.00000000
0.00000000 0.54826253 0.00000000
0.00000000 0.54378617 0.00000000
0.00000000 0.53619710 0.00000000
0.28322728 0.52417631 0.00000000
0.52339338 0.50708087 0.00000000
0.72276042 0.48409296 0.00000000
0.90744910 0.45406793 0.00000000
1.08480278 0.41526394 0.00000000
1.25789155 0.36474990 0.00000000
0.00000000 0.68326640 0.00000000
0.00000000 0.67972044 0.00000000
0.00000000 0.67373272 0.00000000
0.00965606 0.66431173 0.00000000
0.42046470 0.65105260 0.00000000
0.65321012 0.63349521 0.00000000
0.85424089 0.61106911 0.00000000
1.04161236 0.58302196 0.00000000
1.22155553 0.54830472 0.00000000
0.00000000 0.81827026 0.00000000
0.00000000 0.81535373 0.00000000
0.00000000 0.81043995 0.00000000
0.00000000 0.80273733 0.00000000
0.24075474 0.79195766 0.00000000
0.55458088 0.77779753 0.00000000
0.78302686 0.75990954 0.00000000
0.98532880 0.73787287 0.00000000
1.17490785 0.71115498 0.00000000
0.00000000 0.95327413 0.00000000
0.00000000 0.95080945 0.00000000
0.00000000 0.94666269 0.00000000
0.00000000 0.94017715 0.00000000
0.00000000 0.93113153 0.00000000
0.40489805 0.91930533 0.00000000
0.68721640 0.90446016 0.00000000
0.91284360 0.88632387 0.00000000
1.11614881 0.86457308 0.00000000
0.00000000 1.08827799 0.00000000
0.00000000 1.08615210 0.00000000
0.00000000 1.08257860 0.00000000
0.00000000 1.07699791 0.00000000
0.00000000 1.06923142 0.00000000
0.06727791 1.05910824 0.00000000
0.55285062 1.04645144 0.00000000
0.81902780 1.03106785 0.00000000
1.04266034 1.01273820 0.00000000
0.00000000 0.00000000 0.13619323
0.18479685 0.00000000 0.13467552
0.34941348 0.00000000 0.13210446
0.51243440 0.00000000 0.12803735
0.67491377 0.00000000 0.12226529
0.83714792 0.00000000 0.11452788
0.99925147 0.00000000 0.10446882
1.16127770 0.00000000 0.09156102
1.32325462 0.00000000 0.07484685
0.00000000 0.14085481 0.12683432
0.12523879 0.12523879 0.12523879
0.31835113 0.09557232 0.12253310
0.49163501 0.04068207 0.11824557
0.65945442 0.00000000 0.11214391
0.82494918 0.00000000 0.10393075
0.98923993 0.00000000 0.09318685
1.15282856 0.00000000 0.07903637
1.31597329 0.00000000 0.06222272
0.00000000 0.27686569 0.10998646
0.00000000 0.26807895 0.10823090
0.25876784 0.25274634 0.10524710
0.45461131 0.22714541 0.10050062
0.63264355 0.18707648 0.09370407
0.80405049 0.12196608 0.08446852
0.97220333 0.00540340 0.07224927
1.13850928 0.00000000 0.05787822
1.30366596 0.00000000 0.04106457
0.00000000 0.41230394 0.07964101
0.00000000 0.40631485 0.07755119
0.12846212 0.39607777 0.07404864
0.39015619 0.37963176 0.06860459
0.58840846 0.35569531 0.06108065
0.77034042 0.32229718 0.05136501
0.94504554 0.27593754 0.03936297
1.11584179 0.20899036 0.02499192
1.28427018 0.09514531 0.00817827
0.00000000 0.54754555 0.03419056
0.00000000 0.54306307 0.03210074
0.00000000 0.53546341 0.02859819
0.27854857 0.52342527 0.02315414
0.52082792 0.50630382 0.01563020
0.72093584 0.48327825 0.00591456
0.90602567 0.45319874 0.00000000
1.08363578 0.41431378 0.00000000
1.25690399 0.36367144 0.00000000
0.00000000 0.68269774 0.00000000
0.00000000 0.67914861 0.00000000
0.00000000 0.67315547 0.00000000
0.00000000 0.66372575 0.00000000
0.41726090 0.65045393 0.00000000
0.65117668 0.63287893 0.00000000
0.85271959 0.61042894 0.00000000
1.04039106 0.58234943 0.00000000
1.22053462 0.54758779 0.00000000
0.00000000 0.81780222 0.00000000
0.00000000 0.81488386 0.00000000
0.00000000 0.80996697 0.00000000
0.00000000 0.80225941 0.00000000
0.23533924 0.79147266 0.00000000
0.55216486 0.77730293 0.00000000
0.78135381 0.75940231 0.00000000
0.98402948 0.73734926 0.00000000
1.17384102 0.71061017 0.00000000
0.00000000 0.95287843 0.00000000
0.00000000 0.95041261 0.00000000
0.00000000 0.94626393 0.00000000
0.00000000 0.93977534 0.00000000
0.00000000 0.93072540 0.00000000
0.40157199 0.91889343 0.00000000
0.68529024 0.90404080 0.00000000
0.91142945 0.88589505 0.00000000
1.11501854 0.86413239 0.00000000
0.00000000 1.08793659 0.00000000
0.00000000 1.08580995 0.00000000
0.00000000 1.08223518 0.00000000
0.00000000 1.07665250 0.00000000
0.00000000 1.06888320 0.00000000
0.05565630 1.05875629 0.00000000
0.55042673 1.04609474 0.00000000
0.81743474 1.03070519 0.00000000
1.04144041 1.01236823 0.00000000
0.00000000 0.00000000 0.26726392
0.17331440 0.00000000 0.26638288
0.34295381 0.00000000 0.26490040
0.50803200 0.00000000 0.26258141
0.67161903 0.00000000 0.25934621
0.83453929 0.00000000 0.25511504
0.99710650 0.00000000 0.24980127
1.15946537 0.00000000 0.24330551
1.32169159 0.00000000 0.23550910
0.00000000 0.13677194 0.26190167
0.10964381 0.12079815 0.26100456
0.31128814 0.09026624 0.25949485
0.48704076 0.03496092 0.25713274
0.65607701 0.00000000 0.25383631
0.82229827 0.00000000 0.24952314
0.98707077 0.00000000 0.24410315
1.15100124 0.00000000 0.23747243
1.31440041 0.00000000 0.22950608
0.00000000 0.27452334 0.25268938
0.00000000 0.26566740 0.25176338
0.25020468 0.25020468 0.25020468
0.44963510 0.22435554 0.24776494
0.62911346 0.18379597 0.24435816
0.80132415 0.11744307 0.23989691
0.96999183 0.00000000 0.23428469
1.13665604 0.00000000 0.22740891
1.30207617 0.00000000 0.21913277
0.00000000 0.41069892 0.23775463
0.00000000 0.40468646 0.23677804
0.11315873 0.39440797 0.23513343
0.38435699 0.37789130 0.23255739
0.58459709 0.35384172 0.22895637
0.76748385 0.32026150 0.22423365
0.94276336 0.27358806 0.21828046
1.11394613 0.20599605 0.21096753
1.28265307 0.08982451 0.20213457
0.00000000 0.54634169 0.21567231
0.00000000 0.54184891 0.21461101
0.00000000 0.53423142 0.21282235
0.27054404 0.52216402 0.21001705
0.51649883 0.50499874 0.20608798
0.71786666 0.48190965 0.20092099
0.90363445 0.45173822 0.19438384
1.08167672 0.41271646 0.18631422
1.25524684 0.36185700 0.17650391
0.00000000 0.68174353 0.18399434
0.00000000 0.67818907 0.18278542
0.00000000 0.67218681 0.18074491
0.00000000 0.66274241 0.17753673
0.41183613 0.64944923 0.17302650
0.64775343 0.63184462 0.16706363
0.85016320 0.60935442 0.15946408
1.03834056 0.58122044 0.14998895
1.21882141 0.54638404 0.13831133
0.00000000 0.81701712 0.13756658
0.00000000 0.81409570 0.13605971
0.00000000 0.80917359 0.13350736
0.00000000 0.80145771 0.12947082
0.22601427 0.79065907 0.12374426
0.54809085 0.77647321 0.11607209
0.77854101 0.75855138 0.10610603
0.98184753 0.73647079 0.09333342
1.17205056 0.70969607 0.07675214
0.00000000 0.95221482 0.06140255
0.00000000 0.94974710 0.05931273
0.00000000 0.94559518 0.05581018
0.00000000 0.93910148 0.05036613
0.00000000 0.93004429 0.04284219
0.39593610 0.91820262 0.03312655
0.68204894 0.90333746 0.02112451
0.90905390 0.88517583 0.00675346
1.11312131 0.86339324 0.00000000
0.00000000 1.08736412 0.00000000
0.00000000 1.08523622 0.00000000
0.00000000 1.08165934 0.00000000
0.00000000 1.07607330 0.00000000
0.00000000 1.06829929 0.00000000
0.03617839 1.05816613 0.00000000
0.54633930 1.04549658 0.00000000
0.81475715 1.03009706 0.00000000
1.03939222 1.01174780 0.00000000
0.00000000 0.00000000 0.39833460
0.15418930 0.00000000 0.39772884
0.33267794 0.00000000 0.39671155
0.50111076 0.00000000 0.39512528
0.66646353 0.00000000 0.39292269
0.83046691 0.00000000 0.39006053
0.99376234 0.00000000 0.38649629
1.15664209 0.00000000 0.38218600
1.31925797 0.00000000 0.37708244
0.00000000 0.13024857 0.39466149
0.08208974 0.11366974 0.39405021
0.30000520 0.08163779 0.39302361
0.47981118 0.02606848 0.39142275
0.65079050 0.00000000 0.38919971
0.81815932 0.00000000 0.38631068
0.98368867 0.00000000 0.38271247
1.14815452 0.00000000 0.37836035
1.31195141 0.00000000 0.37320614
0.00000000 0.27084656 0.38842929
0.00000000 0.26187992 0.38780843
0.23636064 0.24620864 0.38676568
0.44178912 0.21995987 0.38513949
0.62358470 0.17860267 0.38288095
0.79706643 0.11017419 0.37994523
0.96654334 0.00000000 0.37628800
1.13376878 0.00000000 0.37186312
1.29960077 0.00000000 0.36662077
0.00000000 0.40819188 0.37854444
0.00000000 0.40214259 0.37790781
0.08625345 0.39179880 0.37683848
0.37517056 0.37517056 0.37517056
0.57862094 0.35094212 0.37285354
0.76302087 0.31707322 0.36984085
0.93920397 0.26989986 0.36608620
1.11099247 0.20126930 0.36154111
1.28013499 0.08092224 0.35615293
0.00000000 0.54446506 0.36445661
0.00000000 0.53995614 0.36379621
0.00000000 0.53231069 0.36268680
0.25766393 0.52019743 0.36095592
0.50969524 0.50296336 0.35855058
0.71306802 0.47977456 0.35542152
0.89990386 0.44945867 0.35151935
1.07862382 0.41022156 0.34679192
1.25266620 0.35901934 0.34118200
0.00000000 0.68025756 0.34545154
0.00000000 0.67669477 0.34475641
0.00000000 0.67067825 0.34358837
0.00000000 0.66121091 0.34176536
0.40326176 0.64788434 0.33923060
0.64239424 0.63023343 0.33593072
0.84617297 0.60768032 0.33181154
1.03514445 0.57946109 0.32681507
1.21615312 0.54450756 0.32087686
0.00000000 0.81579520 0.32050657
0.00000000 0.81286899 0.31976049
0.00000000 0.80793873 0.31850640
0.00000000 0.80020990 0.31654797
0.21083394 0.78939268 0.31382261
0.54169561 0.77518166 0.31027049
0.77414705 0.75722671 0.30582973
0.97844538 0.73510313 0.30043283
1.16926150 0.70827275 0.29400328
0.00000000 0.95118235 0.28801922
0.00000000 0.94871166 0.28719572
0.00000000 0.94455470 0.28581070
0.00000000 0.93805303 0.28364577
0.00000000 0.92898454 0.28062886
0.38701708 0.91712776 0.27668923
0.67697807 0.90224306 0.27175166
0.90534791 0.88405666 0.26573166
1.11016519 0.86224299 0.25853058
0.00000000 1.08647366 0.24517405
0.00000000 1.08434380 0.24422321
0.00000000 1.08076361 0.24262233
0.00000000 1.07517236 0.24011571
0.00000000 1.06739100 0.23661370
0.00590370 1.05724811 0.23202439
0.53992259 1.04456611 0.22624541
0.81057620 1.02915104 0.21915624
1.03619974 1.01078263 0.21060899
0.00000000 0.00000000 0.52940528
0.12440917 0.00000000 0.52895029
0.31796352 0.00000000 0.52818682
0.49138154 0.00000000 0.52699788
0.65926772 0.00000000 0.52535016
0.82480251 0.00000000 0.52321457
0.98911986 0.00000000 0.52056398
1.15272737 0.00000000 0.51737185
1.31588618 0.00000000 0.51361132
0.00000000 0.12084065 0.52665062
0.04000197 0.10330827 0.52619318
0.28373752 0.06910004 0.52542558
0.46963400 0.01377870 0.52423021
0.64340842 0.00000000 0.52257351
0.81240123 0.00000000 0.52042621
0.97899309 0.00000000 0.51776096
1.14420710 0.00000000 0.51455098
1.30855820 0.00000000 0.51076917
0.00000000 0.26569029 0.52200025
0.00000000 0.25656406 0.52153862
0.21599070 0.24059102 0.52076397
0.43071087 0.21376007 0.51955757
0.61585748 0.17122348 0.51788552
0.79114104 0.09958820 0.51571818
0.96175478 0.00000000 0.51302783
1.12976478 0.00000000 0.50978731
1.29617080 0.00000000 0.50596905
0.00000000 0.40470189 0.51468645
0.00000000 0.39860063 0.51421808
0.04424255 0.38816465 0.51343209
0.36210437 0.37137867 0.51220798
0.57025399 0.34689672 0.51051125
0.75680593 0.31261708 0.50831169
0.93426003 0.26472716 0.50558098
1.10689582 0.19458296 0.50229132
1.27664559 0.06863246 0.49841438
0.00000000 0.54186041 0.50439950
0.00000000 0.53732890 0.50392134
0.00000000 0.52964432 0.50311889
0.23886606 0.51746686 0.50186905
0.50013645 0.50013645 0.50013645
0.70637846 0.47680783 0.49789005
0.89471980 0.44628903 0.49510066
1.07438858 0.40674869 0.49173949
1.24908969 0.35506182 0.48777711
0.00000000 0.67819815 0.49079015
0.00000000 0.67462376 0.49029846
0.00000000 0.66858738 0.48947325
0.00000000 0.65908807 0.48818780
0.39110838 0.64571497 0.48640558
0.63490869 0.62799949 0.48409433
0.84062417 0.60535862 0.48122363
1.03070907 0.57702036 0.47776329
1.21245450 0.54190311 0.47368233
0.00000000 0.81410315 0.47342900
0.00000000 0.81117029 0.47291900
0.00000000 0.80622872 0.47206299
0.00000000 0.79848186 0.47072936
0.18822048 0.78763884 0.46887992
0.53272647 0.77339283 0.46648079
0.76802953 0.75539181 0.46349979
0.97372171 0.73320843 0.45990479
1.16539450 0.70630060 0.45566255
0.00000000 0.94975339 0.45175477
0.00000000 0.94727857 0.45122011
0.00000000 0.94311462 0.45032259
0.00000000 0.93660189 0.44892399
0.00000000 0.92751772 0.44698385
0.37435080 0.91563995 0.44446601
0.66990248 0.90072813 0.44133583
0.90019837 0.88250735 0.43755839
1.10606510 0.86065052 0.43309724
0.00000000 1.08524165 0.42499327
0.00000000 1.08310908 0.42442501
0.00000000 1.07952430 0.42347090
0.00000000 1.07392583 0.42198368
0.00000000 1.06613429 0.41991969
0.00000000 1.05597788 0.41723953
0.53092254 1.04327863 0.41390498
0.80475897 1.02784200 0.40987705
1.03176942 1.00944702 0.40511448
0.00000000 0.00000000 0.66047596
0.07648690 0.00000000 0.66011507
0.29796812 0.00000000 0.65950974
0.47852060 0.00000000 0.65856769
0.64985047 0.00000000 0.65726338
0.81742468 0.00000000 0.65557504
0.98308897 0.00000000 0.65348299
1.14765006 0.00000000 0.65096862
1.31151760 0.00000000 0.64801374
0.00000000 0.10791084 0.65829268
0.00000000 0.08888298 0.65793052
0.26138985 0.05323028 0.65732305
0.45615337 0.00000000 0.65637767
0.63374113 0.00000000 0.65506872
0.80489939 0.00000000 0.65337436
0.97289245 0.00000000 0.65127481
1.13908703 0.00000000 0.64875135
1.30416172 0.00000000 0.64578571
0.00000000 0.25889720 0.65461614
0.00000000 0.24955254 0.65425181
0.18702631 0.23316449 0.65364071
0.41597238 0.20552493 0.65268967
0.60572571 0.16131395 0.65137285
0.78341752 0.08480252 0.64966826
0.95553197 0.00000000 0.64755596
1.12457071 0.00000000 0.64501707
1.29172639 0.00000000 0.64203314
0.00000000 0.40015107 0.64885773
0.00000000 0.39398082 0.64848997
0.00000000 0.38342228 0.64787310
0.34453112 0.36642623 0.64691306
0.55925687 0.34160560 0.64558375
0.74869805 0.30677415 0.64386290
0.92783284 0.25791161 0.64173034
1.10158052 0.18566331 0.63916693
1.27212368 0.05276271 0.63615395
0.00000000 0.53847776 0.64080897
0.00000000 0.53391661 0.64043631
0.00000000 0.52618067 0.63981121
0.21251518 0.51391887 0.63883833
0.48751037 0.49646177 0.63749118
0.69763847 0.47294904 0.63574714
0.88797634 0.44216246 0.63358566
1.06889183 0.40222060 0.63098724
1.24445412 0.34988825 0.62793275
0.00000000 0.67552894 0.63025456
0.00000000 0.67193941 0.62987529
0.00000000 0.66587710 0.62923909
0.00000000 0.65633606 0.62824890
0.37484763 0.64290219 0.62687768
0.62510234 0.62510234 0.62510234
0.83339921 0.60234671 0.62290183
1.02495000 0.57385263 0.62025613
1.20765953 0.53852074 0.61714559
0.00000000 0.81191253 0.61695285
0.00000000 0.80897102 0.61656494
0.00000000 0.80401472 0.61591424
0.00000000 0.79624442 0.61490141
0.15532426 0.78536782 0.61349872
0.52090914 0.77107627 0.61168243
0.76005107 0.75301527 0.60943085
0.96758418 0.73075398 0.60672328
1.16037956 0.70374520 0.60353931
0.00000000 0.94790465 0.60061711
0.00000000 0.94542447 0.60021810
0.00000000 0.94125144 0.59954874
0.00000000 0.93472436 0.59850678
0.00000000 0.92561981 0.59706360
0.35735495 0.91371480 0.59519461
0.66064635 0.89876774 0.59287725
0.89350041 0.88050229 0.59008994
1.10074530 0.85858938 0.58681129
0.00000000 1.08364844 0.58089253
0.00000000 1.08151235 0.58047932
0.00000000 1.07792162 0.57978609
0.00000000 1.07231378 0.57870687
0.00000000 1.06450904 0.57721187
0.00000000 1.05433512 0.57527538
0.51906296 1.04161348 0.57287375
0.79717880 1.02614888 0.56998420
1.02601698 1.00771944 0.56658404
0.00000000 0.00000000 0.79154665
0.00974285 0.00000000 0.79124959
0.27142485 0.00000000 0.79075146
0.46213294 0.00000000 0.78997653
0.63801335 0.00000000 0.78890417
0.80820916 0.00000000 0.78751709
0.97558164 0.00000000 0.78579992
1.14134278 0.00000000 0.78373844
1.30609802 0.00000000 0.78131907
0.00000000 0.09042856 0.78975037
0.00000000 0.06921810 0.78945258
0.23119602 0.03362587 0.78895321
0.43892684 0.00000000 0.78817636
0.62157924 0.00000000 0.78710134
0.79552575 0.00000000 0.78571081
0.96529705 0.00000000 0.78398934
1.13272609 0.00000000 0.78192268
1.29870725 0.00000000 0.77949720
0.00000000 0.25028149 0.78672980
0.00000000 0.24064552 0.78643077
0.14534440 0.22370027 0.78592932
0.39702132 0.19495992 0.78514921
0.59295838 0.14839655 0.78406969
0.77376082 0.06498812 0.78267331
0.94778221 0.00000000 0.78094458
1.11811688 0.00000000 0.77886914
1.28621199 0.00000000 0.77643332
0.00000000 0.39445832 0.78200975
0.00000000 0.38819972 0.78170876
0.00000000 0.37748404 0.78120402
0.32157168 0.36021795 0.78041879
0.54535373 0.33496011 0.77933215
0.73854936 0.29941107 0.77792654
0.91982461 0.24926601 0.77618634
1.09497440 0.17414935 0.77409707
1.26651232 0.03315830 0.77164491
0.00000000 0.53426854 0.77543508
0.00000000 0.52967000 0.77513132
0.00000000 0.52186926 0.77462193
0.17562416 0.50950096 0.77382945
0.47143888 0.49188370 0.77273277
0.68667715 0.46813776 0.77131412
0.87956737 0.43701107 0.76955771
1.06205755 0.39655693 0.76744888
1.23870052 0.34339479 0.76497364
0.00000000 0.67221597 0.76685478
0.00000000 0.66860750 0.76654734
0.00000000 0.66251272 0.76603176
0.00000000 0.65291940 0.76522965
0.35376666 0.63940937 0.76411959
0.61275947 0.62150372 0.76268359
0.82437840 0.59860404 0.76090560
1.01778545 0.56991409 0.75877074
1.20170630 0.53431187 0.75626475
0.00000000 0.80919747 0.75610962
0.00000000 0.80624516 0.75579744
0.00000000 0.80127051 0.75527392
0.00000000 0.79347097 0.75445944
0.10559045 0.78255247 0.75333221
0.50591942 0.76820409 0.75187392
0.75006823 0.75006823 0.75006823
0.95994218 0.72770962 0.74789992
1.15415055 0.70057464 0.74535443
0.00000000 0.94561531 0.74302237
0.00000000 0.94312847 0.74270425
0.00000000 0.93894416 0.74217076
0.00000000 0.93239920 0.74134072
0.00000000 0.92326932 0.74019191
0.33522698 0.91133040 0.73870562
0.64901809 0.89633950 0.73686508
0.88514915 0.87801843 0.73465472
1.09413352 0.85603567 0.73205954
0.00000000 1.08167667 0.72738797
0.00000000 1.07953621 0.72706248
0.00000000 1.07593810 0.72651660
0.00000000 1.07031862 0.72566726
0.00000000 1.06249747 0.72449168
0.00000000 1.05230181 0.72297060
0.50401698 1.03955236 0.72108680
0.78770520 1.02405301 0.71882419
1.01886080 1.00558074 0.71616726
0.00000000 0.00000000 0.92261733
0.00000000 0.00000000 0.92236618
0.23621245 0.00000000 0.92194509
0.44170649 0.00000000 0.92129016
0.62352672 0.00000000 0.92038417
0.79702186 0.00000000 0.91921280
0.96650728 0.00000000 0.91776350
1.13373860 0.00000000 0.91602480
1.29957490 0.00000000 0.91398595
0.00000000 0.06698040 0.92109906
0.00000000 0.04574409 0.92084745
0.18987931 0.01015186 0.92042559
0.41736905 0.00000000 0.91976947
0.60667838 0.00000000 0.91886182
0.78414151 0.00000000 0.91768831
0.95611437 0.00000000 0.91623635
1.12505639 0.00000000 0.91449445
1.29214172 0.00000000 0.91245183
0.00000000 0.23961060 0.91854821
0.00000000 0.22958976 0.91829583
0.07934360 0.21190151 0.91787268
0.37309560 0.18166474 0.91721454
0.57728168 0.13175327 0.91630410
0.76202343 0.04151410 0.91512697
0.93840951 0.00000000 0.91367052
1.11033370 0.00000000 0.91192321
1.27957362 0.00000000 0.90987422
0.00000000 0.38753450 0.91456781
0.00000000 0.38116528 0.91431422
0.00000000 0.37025248 0.91388904
0.29188588 0.35264659 0.91322773
0.52820822 0.32683554 0.91231290
0.72619619 0.29036975 0.91113008
0.91013329 0.23855574 0.90966657
1.08700508 0.15953025 0.90791077
1.25975608 0.00968428 0.90585177
0.00000000 0.52918305 0.90903506
0.00000000 0.52453860 0.90877977
0.00000000 0.51665821 0.90835172
0.12133038 0.50415890 0.90768597
0.45143558 0.48634431 0.90676497
0.67330124 0.46231037 0.90557417
0.86938095 0.43076214 0.90410074
1.05380905 0.38966950 0.90233300
1.23177121 0.33546301 0.90025995
0.00000000 0.66822606 0.90183525
0.00000000 0.66459451 0.90157771
0.00000000 0.65846021 0.90114589
0.00000000 0.64880323 0.90047427
0.32682890 0.63520038 0.89954513
0.59762720 0.61716568 0.89834378
0.81343329 0.59409008 0.89685727
1.00913214 0.56516053 0.89507377
1.19453389 0.52922681 0.89298215
0.00000000 0.80593339 0.89285274
0.00000000 0.80296801 0.89259235
0.00000000 0.79797112 0.89215574
0.00000000 0.79013616 0.89147665
0.02741655 0.77916690 0.89053719
0.48735116 0.76474963 0.88932244
0.73792290 0.74652295 0.88781930
0.95070216 0.72404622 0.88601577
1.14664189 0.69675792 0.88390057
0.00000000 0.94286600 0.88196468
0.00000000 0.94037111 0.88170075
0.00000000 0.93617317 0.88125820
0.00000000 0.92960665 0.88056987
0.00000000 0.92044616 0.87961759
0.30676892 0.90846628 0.87838623
0.63479717 0.89342240 0.87686247
0.87503411 0.87503411 0.87503411
1.08615728 0.85296688 0.87288965
0.00000000 1.07931039 0.86903549
0.00000000 1.07716467 0.86876725
0.00000000 1.07355765 0.86831746
0.00000000 1.06792416 0.86761785
0.00000000 1.06008324 0.86664993
0.00000000 1.04986136 0.86539830
0.48537455 1.03707839 0.86384938
0.77619633 1.02153714 0.86199071
1.01021774 1.00301322 0.85981054
0.00000000 0.00000000 1.05368801
0.00000000 0.00000000 1.05347132
0.18819240 0.00000000 1.05310804
0.41654174 0.00000000 1.05254310
0.60611388 0.00000000 1.05176177
0.78371246 0.00000000 1.05075188
0.95576920 0.00000000 1.04950284
1.12476854 0.00000000 1.04800507
1.29189556 0.00000000 1.04624968
0.00000000 0.03951659 1.05237828
0.00000000 0.01828027 1.05216129
0.12974486 0.00000000 1.05179749
0.39066076 0.00000000 1.05123177
0.58874148 0.00000000 1.05044935
0.77059038 0.00000000 1.04943805
0.94524538 0.00000000 1.04818726
1.11600786 0.00000000 1.04668739
1.28441189 0.00000000 1.04492953
0.00000000 0.22657944 1.05017906
0.00000000 0.21604828 1.04996156
0.00000000 0.19736226 1.04959691
0.34307184 0.16506031 1.04902986
0.55835726 0.11019638 1.04824561
0.74803790 0.01405029 1.04723194
0.92731068 0.00000000 1.04597820
1.10114921 0.00000000 1.04447478
1.27175702 0.00000000 1.04271276
0.00000000 0.37927783 1.04675054
0.00000000 0.37277191 1.04653224
0.00000000 0.36161499 1.04616627
0.25321290 0.34358659 1.04559714
0.50739159 0.31708280 1.04481001
0.71145021 0.27945475 1.04379261
0.89864837 0.22547256 1.04253425
1.07759736 0.14102804 1.04102528
1.25179900 0.00000000 1.03925672
0.00000000 0.52316859 1.04199142
0.00000000 0.51846874 1.04177201
0.00000000 0.51049219 1.04140417
0.03305112 0.49783452 1.04083213
0.42684197 0.47978096 1.04004097
0.65728332 0.45539725 1.03901836
0.85729440 0.42333478 1.03775354
1.04406607 0.38145773 1.03623679
1.22360776 0.32595240 1.03445910
0.00000000 0.66352555 1.03580986
0.00000000 0.65986648 1.03558899
0.00000000 0.65368501 1.03521869
0.00000000 0.64395200 1.03464284
0.29239761 0.63023825 1.03384639
0.57939656 0.61204919 1.03281693
0.80042063 0.58876285 1.03154363
0.99890203 0.55954570 1.03001668
1.18608022 0.52321286 1.02822699
0.00000000 0.80209616 1.02811629
0.00000000 0.79911529 1.02789358
0.00000000 0.79409203 1.02752019
0.00000000 0.78621504 1.02693952
0.00000000 0.77518553 1.02613640
0.46467096 0.76068646 1.02509830
0.72343404 0.74235188 1.02381429
0.93976384 0.71973472 1.02227446
1.13778617 0.69226390 1.02046963
0.00000000 0.93963811 1.01881885
0.00000000 0.93713371 1.01859387
0.00000000 0.93291966 1.01821667
0.00000000 0.92632764 1.01763008
0.00000000 0.91713097 1.01681877
0.27001957 0.90510268 1.01577006
0.61771938 0.88999613 1.01447288
0.86303444 0.87152831 1.01291723
1.07674126 0.84936108 1.01109378
0.00000000 1.07653453 1.00781974
0.00000000 1.07438261 1.00759202
0.00000000 1.07076510 1.00721023
0.00000000 1.06511507 1.00661650
0.00000000 1.05725085 1.00579529
0.00000000 1.04699805 1.00473376
0.46259632 1.03417555 1.00342069
0.76249204 1.01858487 1.00184593
1.00000000 1.00000000 1.00000000
