BT2020_HLG_to_BT601_PAL.cube
TITLE "BT2020_HLG_to_BT601_PAL"
LUT_3D_SIZE 33
# BT2020 HLG to BT601 PAL by Francesco Bucciantini
0.00000000 0.00000000 0.00000000
0.00987670 0.00000000 0.00000000
0.03950678 0.00000000 0.00000000
0.08894746 0.00000000 0.00000000
0.14449010 0.00000000 0.00000000
0.19864619 0.00000000 0.00000000
0.25172235 0.00000000 0.00000000
0.30391697 0.00000000 0.00000000
0.35536860 0.00000000 0.00000000
0.40617934 0.00000000 0.00000000
0.45616362 0.00000000 0.00000000
0.50125164 0.00000000 0.00000000
0.54094803 0.00000000 0.00000000
0.57619897 0.00000000 0.00000000
0.60773032 0.00000000 0.00000000
0.63611018 0.00000000 0.00000000
0.66179091 0.00000000 0.00000000
0.68642118 0.00000000 0.00000000
0.71124317 0.00000000 0.00000000
0.73603205 0.00000000 0.00000000
0.76056865 0.00000000 0.00000000
0.78464367 0.00000000 0.00000000
0.80806060 0.00000000 0.00000000
0.83063753 0.00000000 0.00000000
0.85220794 0.00000000 0.00000000
0.87262074 0.00000000 0.00000000
0.89173967 0.00000000 0.00000000
0.90944233 0.00000000 0.00000000
0.92561901 0.00000000 0.00000000
0.94017134 0.00000000 0.00000000
0.95301097 0.00000000 0.00000000
0.96405826 0.00000000 0.00000000
0.97324110 0.00000000 0.00000000
0.00000000 0.00705866 0.00000000
0.00666756 0.00628263 0.00000000
0.03629765 0.00395456 0.00000000
0.08586317 0.00007443 0.00000000
0.14225244 0.00000000 0.00000000
0.19689912 0.00000000 0.00000000
0.25029434 0.00000000 0.00000000
0.30271248 0.00000000 0.00000000
0.35432910 0.00000000 0.00000000
0.40526642 0.00000000 0.00000000
0.45537951 0.00000000 0.00000000
0.50062720 0.00000000 0.00000000
0.54044186 0.00000000 0.00000000
0.57578252 0.00000000 0.00000000
0.60738332 0.00000000 0.00000000
0.63581789 0.00000000 0.00000000
0.66154235 0.00000000 0.00000000
0.68620990 0.00000000 0.00000000
0.71106521 0.00000000 0.00000000
0.73588350 0.00000000 0.00000000
0.76044574 0.00000000 0.00000000
0.78454285 0.00000000 0.00000000
0.80797863 0.00000000 0.00000000
0.83057147 0.00000000 0.00000000
0.85215520 0.00000000 0.00000000
0.87257904 0.00000000 0.00000000
0.89170706 0.00000000 0.00000000
0.90941713 0.00000000 0.00000000
0.92559982 0.00000000 0.00000000
0.94015698 0.00000000 0.00000000
0.95300045 0.00000000 0.00000000
0.96405079 0.00000000 0.00000000
0.97323600 0.00000000 0.00000000
0.00000000 0.02823464 0.00000000
0.00000000 0.02745862 0.00000000
0.02667023 0.02513054 0.00000000
0.07605371 0.02125041 0.00000000
0.13538206 0.01581823 0.00000000
0.19158066 0.00883400 0.00000000
0.24596687 0.00029771 0.00000000
0.29907225 0.00000000 0.00000000
0.35119297 0.00000000 0.00000000
0.40251549 0.00000000 0.00000000
0.45300885 0.00000000 0.00000000
0.49874172 0.00000000 0.00000000
0.53891499 0.00000000 0.00000000
0.57452726 0.00000000 0.00000000
0.60633805 0.00000000 0.00000000
0.63493784 0.00000000 0.00000000
0.66079431 0.00000000 0.00000000
0.68557424 0.00000000 0.00000000
0.71052999 0.00000000 0.00000000
0.73543686 0.00000000 0.00000000
0.76007628 0.00000000 0.00000000
0.78423989 0.00000000 0.00000000
0.80773234 0.00000000 0.00000000
0.83037303 0.00000000 0.00000000
0.85199678 0.00000000 0.00000000
0.87245382 0.00000000 0.00000000
0.89160914 0.00000000 0.00000000
0.90934150 0.00000000 0.00000000
0.92554222 0.00000000 0.00000000
0.94011387 0.00000000 0.00000000
0.95296889 0.00000000 0.00000000
0.96402834 0.00000000 0.00000000
0.97322068 0.00000000 0.00000000
0.00000000 0.06352794 0.00000000
0.00000000 0.06275192 0.00000000
0.01062455 0.06042384 0.00000000
0.06000803 0.05654371 0.00000000
0.12334984 0.05111153 0.00000000
0.18244206 0.04412730 0.00000000
0.23860316 0.03559102 0.00000000
0.29291309 0.02550268 0.00000000
0.34590592 0.01386229 0.00000000
0.39788915 0.00066986 0.00000000
0.44899538 0.00000000 0.00000000
0.49555800 0.00000000 0.00000000
0.53634193 0.00000000 0.00000000
0.57241519 0.00000000 0.00000000
0.60458147 0.00000000 0.00000000
0.63346040 0.00000000 0.00000000
0.65953950 0.00000000 0.00000000
0.68450873 0.00000000 0.00000000
0.70963342 0.00000000 0.00000000
0.73468913 0.00000000 0.00000000
0.75945810 0.00000000 0.00000000
0.78373320 0.00000000 0.00000000
0.80732062 0.00000000 0.00000000
0.83004143 0.00000000 0.00000000
0.85173215 0.00000000 0.00000000
0.87224470 0.00000000 0.00000000
0.89144565 0.00000000 0.00000000
0.90921524 0.00000000 0.00000000
0.92544610 0.00000000 0.00000000
0.94004194 0.00000000 0.00000000
0.95291623 0.00000000 0.00000000
0.96399089 0.00000000 0.00000000
0.97319514 0.00000000 0.00000000
0.00000000 0.11032981 0.00000000
0.00000000 0.10968133 0.00000000
0.00000000 0.10772093 0.00000000
0.03754406 0.10440213 0.00000000
0.10502864 0.09964144 0.00000000
0.16900276 0.09330764 0.00000000
0.22795144 0.08520200 0.00000000
0.28408608 0.07491330 0.00000000
0.33837239 0.06327292 0.00000000
0.39132243 0.05008048 0.00000000
0.44324083 0.03533599 0.00000000
0.49101157 0.01903945 0.00000000
0.53267879 0.00119086 0.00000000
0.56941549 0.00000000 0.00000000
0.60209136 0.00000000 0.00000000
0.63136919 0.00000000 0.00000000
0.65776562 0.00000000 0.00000000
0.68300409 0.00000000 0.00000000
0.70836861 0.00000000 0.00000000
0.73363524 0.00000000 0.00000000
0.75858751 0.00000000 0.00000000
0.78302016 0.00000000 0.00000000
0.80674160 0.00000000 0.00000000
0.82957534 0.00000000 0.00000000
0.85136038 0.00000000 0.00000000
0.87195104 0.00000000 0.00000000
0.89121616 0.00000000 0.00000000
0.90903806 0.00000000 0.00000000
0.92531123 0.00000000 0.00000000
0.93994104 0.00000000 0.00000000
0.95284237 0.00000000 0.00000000
0.96393838 0.00000000 0.00000000
0.97315931 0.00000000 0.00000000
0.00000000 0.15688810 0.00000000
0.00000000 0.15638111 0.00000000
0.00000000 0.15485269 0.00000000
0.00866183 0.15228004 0.00000000
0.07779870 0.14862329 0.00000000
0.15040786 0.14382247 0.00000000
0.21359931 0.13779247 0.00000000
0.27235807 0.13041486 0.00000000
0.32844692 0.12152460 0.00000000
0.38271817 0.11088761 0.00000000
0.43565099 0.09816014 0.00000000
0.48500670 0.08280923 0.00000000
0.52786098 0.06471880 0.00000000
0.56548312 0.04531816 0.00000000
0.59883545 0.02436546 0.00000000
0.62864050 0.00186071 0.00000000
0.65545491 0.00000000 0.00000000
0.68104699 0.00000000 0.00000000
0.70672570 0.00000000 0.00000000
0.73226798 0.00000000 0.00000000
0.75745930 0.00000000 0.00000000
0.78209701 0.00000000 0.00000000
0.80599262 0.00000000 0.00000000
0.82897289 0.00000000 0.00000000
0.85088016 0.00000000 0.00000000
0.87157193 0.00000000 0.00000000
0.89092004 0.00000000 0.00000000
0.90880954 0.00000000 0.00000000
0.92513735 0.00000000 0.00000000
0.93981098 0.00000000 0.00000000
0.95274719 0.00000000 0.00000000
0.96387072 0.00000000 0.00000000
0.97311316 0.00000000 0.00000000
0.00000000 0.20251798 0.00000000
0.00000000 0.20210327 0.00000000
0.00000000 0.20085494 0.00000000
0.00000000 0.19876015 0.00000000
0.04249819 0.19579682 0.00000000
0.12507985 0.19193249 0.00000000
0.19488219 0.18712249 0.00000000
0.25737839 0.18130736 0.00000000
0.31591948 0.17440884 0.00000000
0.37193979 0.16632396 0.00000000
0.42618946 0.15691596 0.00000000
0.47740999 0.14599974 0.00000000
0.52179971 0.13331766 0.00000000
0.56055679 0.11849598 0.00000000
0.59477012 0.10095980 0.00000000
0.62524255 0.07950598 0.00000000
0.65258370 0.05544918 0.00000000
0.67861973 0.02831456 0.00000000
0.70469161 0.00000000 0.00000000
0.73057782 0.00000000 0.00000000
0.75606659 0.00000000 0.00000000
0.78095886 0.00000000 0.00000000
0.80507020 0.00000000 0.00000000
0.82823165 0.00000000 0.00000000
0.85028980 0.00000000 0.00000000
0.87110621 0.00000000 0.00000000
0.89055650 0.00000000 0.00000000
0.90852912 0.00000000 0.00000000
0.92492408 0.00000000 0.00000000
0.93965153 0.00000000 0.00000000
0.95263053 0.00000000 0.00000000
0.96378780 0.00000000 0.00000000
0.97305661 0.00000000 0.00000000
0.00000000 0.24738998 0.00000000
0.00000000 0.24704003 0.00000000
0.00000000 0.24598759 0.00000000
0.00000000 0.24422473 0.00000000
0.00077940 0.24173798 0.00000000
0.08968725 0.23850776 0.00000000
0.17068725 0.23450766 0.00000000
0.23861783 0.22970333 0.00000000
0.30049092 0.22405099 0.00000000
0.35879964 0.21749525 0.00000000
0.41473187 0.20996608 0.00000000
0.46804084 0.20137453 0.00000000
0.51437677 0.19160624 0.00000000
0.55455594 0.18051180 0.00000000
0.58983867 0.16789125 0.00000000
0.62113432 0.15346839 0.00000000
0.64912161 0.13684474 0.00000000
0.67569977 0.11618362 0.00000000
0.70224978 0.08786959 0.00000000
0.72855273 0.04927522 0.00000000
0.75440074 0.00344044 0.00000000
0.77959955 0.00000000 0.00000000
0.80397001 0.00000000 0.00000000
0.82734859 0.00000000 0.00000000
0.84958720 0.00000000 0.00000000
0.87055243 0.00000000 0.00000000
0.89012453 0.00000000 0.00000000
0.90819615 0.00000000 0.00000000
0.92467096 0.00000000 0.00000000
0.93946236 0.00000000 0.00000000
0.95249218 0.00000000 0.00000000
0.96368950 0.00000000 0.00000000
0.97298957 0.00000000 0.00000000
0.00000000 0.29162324 0.00000000
0.00000000 0.29132114 0.00000000
0.00000000 0.29041312 0.00000000
0.00000000 0.28889398 0.00000000
0.00000000 0.28675489 0.00000000
0.04153260 0.28398314 0.00000000
0.13897023 0.28056179 0.00000000
0.21524967 0.27646914 0.00000000
0.28173090 0.27167804 0.00000000
0.34304078 0.26615497 0.00000000
0.40111083 0.25985874 0.00000000
0.45665705 0.25273884 0.00000000
0.50543701 0.24473309 0.00000000
0.54737658 0.23576438 0.00000000
0.58396881 0.22573611 0.00000000
0.61626402 0.21452536 0.00000000
0.64503065 0.20197269 0.00000000
0.67225905 0.18699847 0.00000000
0.69937978 0.16780942 0.00000000
0.72617796 0.14248870 0.00000000
0.75245120 0.10728493 0.00000000
0.77801161 0.05473380 0.00000000
0.80268680 0.00000000 0.00000000
0.82632005 0.00000000 0.00000000
0.84876982 0.00000000 0.00000000
0.86990884 0.00000000 0.00000000
0.88962296 0.00000000 0.00000000
0.90780981 0.00000000 0.00000000
0.92437746 0.00000000 0.00000000
0.93924313 0.00000000 0.00000000
0.95233191 0.00000000 0.00000000
0.96357565 0.00000000 0.00000000
0.97291195 0.00000000 0.00000000
0.00000000 0.33530552 0.00000000
0.00000000 0.33504016 0.00000000
0.00000000 0.33424288 0.00000000
0.00000000 0.33291008 0.00000000
0.00000000 0.33103567 0.00000000
0.00000000 0.32861095 0.00000000
0.09522310 0.32562439 0.00000000
0.18589140 0.32206138 0.00000000
0.25900149 0.31790387 0.00000000
0.32430695 0.31312991 0.00000000
0.38510386 0.30771303 0.00000000
0.44293318 0.30162149 0.00000000
0.49477747 0.29481721 0.00000000
0.53888534 0.28725443 0.00000000
0.57706924 0.27887792 0.00000000
0.61056707 0.26962051 0.00000000
0.64026386 0.25939967 0.00000000
0.66826322 0.24742600 0.00000000
0.69605672 0.23247081 0.00000000
0.72343568 0.21350719 0.00000000
0.75020532 0.18890477 0.00000000
0.77618612 0.15575257 0.00000000
0.80121433 0.10762534 0.00000000
0.82514169 0.03229924 0.00000000
0.84783467 0.00000000 0.00000000
0.86917340 0.00000000 0.00000000
0.88905038 0.00000000 0.00000000
0.90736916 0.00000000 0.00000000
0.92404295 0.00000000 0.00000000
0.93899341 0.00000000 0.00000000
0.95214943 0.00000000 0.00000000
0.96344607 0.00000000 0.00000000
0.97282361 0.00000000 0.00000000
0.00000000 0.37850408 0.00000000
0.00000000 0.37826778 0.00000000
0.00000000 0.37755800 0.00000000
0.00000000 0.37637216 0.00000000
0.00000000 0.37470588 0.00000000
0.00000000 0.37255293 0.00000000
0.03464731 0.36990513 0.00000000
0.14793898 0.36675216 0.00000000
0.23130611 0.36308139 0.00000000
0.30209133 0.35887762 0.00000000
0.36641153 0.35412275 0.00000000
0.42673807 0.34879541 0.00000000
0.48213128 0.34287038 0.00000000
0.52891108 0.33631799 0.00000000
0.56902498 0.32910326 0.00000000
0.60396331 0.32118481 0.00000000
0.63476363 0.31251346 0.00000000
0.66367055 0.30245663 0.00000000
0.69225067 0.29006254 0.00000000
0.72030460 0.27464144 0.00000000
0.74764807 0.25519510 0.00000000
0.77411257 0.23018170 0.00000000
0.79954530 0.19696900 0.00000000
0.82380847 0.15022250 0.00000000
0.84677830 0.07420825 0.00000000
0.86834375 0.00000000 0.00000000
0.88840520 0.00000000 0.00000000
0.90687311 0.00000000 0.00000000
0.92366669 0.00000000 0.00000000
0.93871271 0.00000000 0.00000000
0.95194442 0.00000000 0.00000000
0.96330055 0.00000000 0.00000000
0.97272443 0.00000000 0.00000000
0.00000000 0.42127206 0.00000000
0.00000000 0.42105929 0.00000000
0.00000000 0.42042032 0.00000000
0.00000000 0.41935324 0.00000000
0.00000000 0.41785481 0.00000000
0.00000000 0.41592041 0.00000000
0.00000000 0.41354401 0.00000000
0.09525193 0.41071807 0.00000000
0.19695083 0.40743338 0.00000000
0.27564216 0.40367897 0.00000000
0.34462176 0.39944190 0.00000000
0.40809643 0.39470700 0.00000000
0.46714353 0.38945666 0.00000000
0.51723289 0.38367039 0.00000000
0.55969085 0.37732446 0.00000000
0.59635323 0.37039131 0.00000000
0.62845943 0.36283887 0.00000000
0.65843054 0.35413484 0.00000000
0.68792578 0.34349456 0.00000000
0.71675947 0.33039978 0.00000000
0.74476178 0.31413810 0.00000000
0.77177867 0.29368785 0.00000000
0.79767121 0.26749218 0.00000000
0.82231455 0.23294937 0.00000000
0.84559671 0.18498667 0.00000000
0.86741717 0.11007116 0.00000000
0.88768558 0.00000000 0.00000000
0.90632044 0.00000000 0.00000000
0.92324786 0.00000000 0.00000000
0.93840049 0.00000000 0.00000000
0.95171653 0.00000000 0.00000000
0.96313885 0.00000000 0.00000000
0.97261426 0.00000000 0.00000000
0.00000000 0.46306262 0.00000000
0.00000000 0.46287964 0.00000000
0.00000000 0.46232969 0.00000000
0.00000000 0.46140976 0.00000000
0.00000000 0.46011478 0.00000000
0.00000000 0.45843753 0.00000000
0.00000000 0.45636850 0.00000000
0.02184231 0.45389578 0.00000000
0.15262034 0.45100479 0.00000000
0.24377155 0.44767803 0.00000000
0.31914778 0.44389476 0.00000000
0.38666786 0.43963813 0.00000000
0.44933386 0.43492345 0.00000000
0.50356232 0.42974039 0.00000000
0.54888232 0.42407204 0.00000000
0.58761293 0.41789896 0.00000000
0.62126483 0.41119894 0.00000000
0.65248213 0.40351028 0.00000000
0.68303922 0.39416169 0.00000000
0.71277042 0.38273745 0.00000000
0.74152576 0.36868435 0.00000000
0.76917015 0.35124355 0.00000000
0.79558226 0.32933009 0.00000000
0.82065325 0.30129781 0.00000000
0.84428535 0.26441463 0.00000000
0.86639058 0.21341800 0.00000000
0.88688945 0.13466030 0.00000000
0.90570975 0.00000000 0.00000000
0.92278554 0.00000000 0.00000000
0.93805613 0.00000000 0.00000000
0.95146535 0.00000000 0.00000000
0.96296072 0.00000000 0.00000000
0.97249291 0.00000000 0.00000000
0.00000000 0.50083027 0.00000000
0.00000000 0.50067913 0.00000000
0.00000000 0.50022498 0.00000000
0.00000000 0.49946571 0.00000000
0.00000000 0.49839770 0.00000000
0.00000000 0.49701587 0.00000000
0.00000000 0.49531352 0.00000000
0.00000000 0.49328230 0.00000000
0.08977685 0.49091202 0.00000000
0.20440965 0.48819056 0.00000000
0.28911185 0.48510363 0.00000000
0.36198199 0.48163453 0.00000000
0.42828699 0.47776389 0.00000000
0.48751677 0.47346929 0.00000000
0.53636231 0.46872486 0.00000000
0.57758699 0.46350070 0.00000000
0.61307344 0.45776229 0.00000000
0.64575133 0.45108855 0.00000000
0.67753979 0.44284484 0.00000000
0.70830221 0.43269092 0.00000000
0.73791584 0.42027909 0.00000000
0.76627050 0.40500716 0.00000000
0.79326723 0.38604697 0.00000000
0.81881693 0.36221245 0.00000000
0.84283907 0.33169957 0.00000000
0.86526052 0.29150264 0.00000000
0.88601448 0.23579234 0.00000000
0.90503950 0.14921010 0.00000000
0.92227869 0.00000000 0.00000000
0.93767896 0.00000000 0.00000000
0.95119042 0.00000000 0.00000000
0.96276584 0.00000000 0.00000000
0.97236020 0.00000000 0.00000000
0.00000000 0.53474220 0.00000000
0.00000000 0.53461577 0.00000000
0.00000000 0.53423596 0.00000000
0.00000000 0.53360121 0.00000000
0.00000000 0.53270892 0.00000000
0.00000000 0.53155539 0.00000000
0.00000000 0.53013580 0.00000000
0.00000000 0.52844410 0.00000000
0.00311760 0.52647301 0.00000000
0.15330439 0.52421387 0.00000000
0.25310286 0.52165650 0.00000000
0.33336475 0.51878914 0.00000000
0.40425420 0.51559819 0.00000000
0.46857773 0.51206806 0.00000000
0.52182173 0.50818090 0.00000000
0.56607853 0.50391632 0.00000000
0.60375338 0.49925099 0.00000000
0.63814807 0.49385058 0.00000000
0.67136618 0.48721786 0.00000000
0.70331318 0.47901528 0.00000000
0.73390378 0.46878236 0.00000000
0.76306063 0.45587257 0.00000000
0.79071323 0.43935418 0.00000000
0.81679694 0.41850747 0.00000000
0.84125206 0.39225661 0.00000000
0.86402309 0.35856354 0.00000000
0.88505806 0.31398736 0.00000000
0.90430794 0.25169485 0.00000000
0.92172616 0.15263168 0.00000000
0.93726821 0.00000000 0.00000000
0.95089126 0.00000000 0.00000000
0.96255392 0.00000000 0.00000000
0.97221592 0.00000000 0.00000000
0.00000000 0.56538197 0.00000000
0.00000000 0.56527505 0.00000000
0.00000000 0.56495391 0.00000000
0.00000000 0.56441740 0.00000000
0.00000000 0.56366358 0.00000000
0.00000000 0.56268971 0.00000000
0.00000000 0.56149223 0.00000000
0.00000000 0.56006669 0.00000000
0.00000000 0.55840773 0.00000000
0.07795644 0.55650900 0.00000000
0.20858471 0.55436310 0.00000000
0.29979491 0.55196149 0.00000000
0.37677185 0.54929436 0.00000000
0.44602308 0.54635054 0.00000000
0.50485004 0.54311731 0.00000000
0.55283481 0.53958028 0.00000000
0.59313965 0.53572310 0.00000000
0.62956201 0.53127430 0.00000000
0.66444458 0.52583425 0.00000000
0.69775400 0.51914358 0.00000000
0.72945662 0.51085499 0.00000000
0.75951850 0.50049209 0.00000000
0.78790555 0.48738151 0.00000000
0.81458344 0.47053462 0.00000000
0.83951775 0.44842710 0.00000000
0.86267393 0.41924741 0.00000000
0.88401731 0.38156194 0.00000000
0.90351317 0.33133487 0.00000000
0.92112670 0.26010001 0.00000000
0.93682305 0.14154009 0.00000000
0.95056732 0.00000000 0.00000000
0.96232458 0.00000000 0.00000000
0.97205985 0.00000000 0.00000000
0.00000000 0.59321478 0.00000000
0.00000000 0.59312351 0.00000000
0.00000000 0.59284938 0.00000000
0.00000000 0.59239155 0.00000000
0.00000000 0.59174853 0.00000000
0.00000000 0.59091826 0.00000000
0.00000000 0.58989806 0.00000000
0.00000000 0.58868459 0.00000000
0.00000000 0.58727382 0.00000000
0.00000000 0.58566100 0.00000000
0.15003143 0.58384064 0.00000000
0.25959506 0.58180637 0.00000000
0.34506816 0.57955096 0.00000000
0.41949331 0.57706619 0.00000000
0.48488874 0.57434279 0.00000000
0.53752586 0.57137027 0.00000000
0.58102330 0.56813687 0.00000000
0.61985674 0.56441816 0.00000000
0.65668568 0.55988654 0.00000000
0.69156600 0.55433703 0.00000000
0.72453571 0.54749919 0.00000000
0.75561864 0.53900875 0.00000000
0.78482733 0.52836239 0.00000000
0.81216531 0.51484221 0.00000000
0.83762880 0.49738212 0.00000000
0.86120817 0.47431393 0.00000000
0.88288901 0.44283657 0.00000000
0.90265306 0.40017015 0.00000000
0.92047890 0.34267322 0.00000000
0.93634257 0.25919797 0.00000000
0.95021801 0.10746725 0.00000000
0.96207745 0.00000000 0.00000000
0.97189174 0.00000000 0.00000000
0.00000000 0.62001605 0.00000000
0.00000000 0.61993813 0.00000000
0.00000000 0.61970416 0.00000000
0.00000000 0.61931348 0.00000000
0.00000000 0.61876497 0.00000000
0.00000000 0.61805708 0.00000000
0.00000000 0.61718778 0.00000000
0.00000000 0.61615454 0.00000000
0.00000000 0.61495435 0.00000000
0.00000000 0.61358365 0.00000000
0.05391927 0.61203831 0.00000000
0.20634242 0.61031361 0.00000000
0.30561192 0.60840418 0.00000000
0.38739678 0.60630394 0.00000000
0.45964823 0.60400607 0.00000000
0.51859544 0.60150290 0.00000000
0.56627301 0.59878588 0.00000000
0.60818352 0.59566864 0.00000000
0.64744643 0.59188101 0.00000000
0.68425845 0.58725929 0.00000000
0.71876470 0.58159019 0.00000000
0.75107151 0.57459078 0.00000000
0.78125561 0.56587750 0.00000000
0.80937088 0.55491608 0.00000000
0.83545332 0.54093686 0.00000000
0.85952488 0.52278245 0.00000000
0.88159635 0.49861164 0.00000000
0.90166961 0.46526267 0.00000000
0.91973942 0.41748490 0.00000000
0.93579482 0.35124679 0.00000000
0.94982020 0.25207199 0.00000000
0.96179622 0.04302765 0.00000000
0.97170051 0.00000000 0.00000000
0.00000000 0.64714488 0.00000000
0.00000000 0.64707894 0.00000000
0.00000000 0.64688096 0.00000000
0.00000000 0.64655045 0.00000000
0.00000000 0.64608657 0.00000000
0.00000000 0.64548817 0.00000000
0.00000000 0.64475373 0.00000000
0.00000000 0.64388137 0.00000000
0.00000000 0.64286885 0.00000000
0.00000000 0.64171354 0.00000000
0.00000000 0.64041240 0.00000000
0.12222144 0.63896193 0.00000000
0.25140966 0.63735821 0.00000000
0.34542372 0.63559679 0.00000000
0.42518688 0.63367271 0.00000000
0.49327846 0.63158043 0.00000000
0.54696087 0.62931376 0.00000000
0.59314184 0.62671886 0.00000000
0.63569394 0.62357408 0.00000000
0.67506069 0.61974902 0.00000000
0.71156362 0.61507568 0.00000000
0.74543805 0.60933422 0.00000000
0.77685675 0.60223158 0.00000000
0.80594623 0.59336793 0.00000000
0.83279812 0.58218219 0.00000000
0.85747741 0.56785841 0.00000000
0.88002846 0.54915480 0.00000000
0.90047957 0.52406472 0.00000000
0.91884633 0.48906710 0.00000000
0.93513432 0.43722213 0.00000000
0.94934109 0.36120397 0.00000000
0.96145782 0.24334771 0.00000000
0.97147054 0.00000000 0.00000000
0.00000000 0.67437258 0.00000000
0.00000000 0.67431724 0.00000000
0.00000000 0.67415111 0.00000000
0.00000000 0.67387382 0.00000000
0.00000000 0.67348477 0.00000000
0.00000000 0.67298308 0.00000000
0.00000000 0.67236765 0.00000000
0.00000000 0.67163711 0.00000000
0.00000000 0.67078979 0.00000000
0.00000000 0.66982379 0.00000000
0.00000000 0.66873686 0.00000000
0.00000000 0.66752649 0.00000000
0.16908416 0.66618980 0.00000000
0.28804932 0.66472359 0.00000000
0.37954544 0.66312427 0.00000000
0.45811635 0.66138788 0.00000000
0.52095642 0.65951001 0.00000000
0.57333490 0.65736435 0.00000000
0.62048753 0.65476997 0.00000000
0.66332523 0.65162325 0.00000000
0.70247882 0.64779199 0.00000000
0.73839581 0.64310532 0.00000000
0.77139895 0.63733876 0.00000000
0.80172329 0.63019159 0.00000000
0.82954062 0.62125117 0.00000000
0.85497604 0.60993425 0.00000000
0.87811967 0.59538518 0.00000000
0.89903493 0.57628697 0.00000000
0.91776472 0.55047974 0.00000000
0.93433591 0.51409494 0.00000000
0.94876282 0.45923432 0.00000000
0.96104983 0.37272914 0.00000000
0.97119345 0.23258935 0.00000000
0.00000000 0.70147558 0.00000000
0.00000000 0.70142952 0.00000000
0.00000000 0.70129124 0.00000000
0.00000000 0.70106047 0.00000000
0.00000000 0.70073678 0.00000000
0.00000000 0.70031953 0.00000000
0.00000000 0.69980792 0.00000000
0.00000000 0.69920094 0.00000000
0.00000000 0.69849740 0.00000000
0.00000000 0.69769590 0.00000000
0.00000000 0.69679483 0.00000000
0.00000000 0.69579237 0.00000000
0.00616040 0.69468646 0.00000000
0.20196527 0.69347480 0.00000000
0.31706296 0.69215484 0.00000000
0.40792618 0.69072374 0.00000000
0.48447790 0.68917839 0.00000000
0.54644994 0.68741567 0.00000000
0.60035238 0.68528863 0.00000000
0.64808031 0.68271508 0.00000000
0.69085314 0.67959113 0.00000000
0.72949112 0.67578393 0.00000000
0.76456388 0.67112118 0.00000000
0.79647588 0.66537565 0.00000000
0.82551861 0.65824157 0.00000000
0.85190374 0.64929707 0.00000000
0.87578524 0.63794187 0.00000000
0.89727439 0.62328797 0.00000000
0.91645038 0.60395420 0.00000000
0.93336796 0.57764370 0.00000000
0.94806302 0.54016226 0.00000000
0.96055675 0.48269046 0.00000000
0.97085883 0.38602103 0.00000000
0.00000000 0.72823988 0.00000000
0.00000000 0.72820184 0.00000000
0.00000000 0.72808764 0.00000000
0.00000000 0.72789709 0.00000000
0.00000000 0.72762988 0.00000000
0.00000000 0.72728556 0.00000000
0.00000000 0.72686352 0.00000000
0.00000000 0.72636307 0.00000000
0.00000000 0.72578333 0.00000000
0.00000000 0.72512331 0.00000000
0.00000000 0.72438186 0.00000000
0.00000000 0.72355766 0.00000000
0.00000000 0.72264926 0.00000000
0.02734336 0.72165502 0.00000000
0.22297175 0.72057313 0.00000000
0.33826257 0.71940160 0.00000000
0.43009426 0.71813822 0.00000000
0.50828759 0.71669930 0.00000000
0.57280908 0.71496602 0.00000000
0.62778595 0.71287340 0.00000000
0.67569251 0.71033989 0.00000000
0.71806287 0.70726218 0.00000000
0.75590151 0.70350780 0.00000000
0.78989212 0.69890444 0.00000000
0.82051301 0.69322404 0.00000000
0.84810514 0.68615839 0.00000000
0.87291434 0.67728005 0.00000000
0.89511866 0.66597699 0.00000000
0.91484669 0.65133682 0.00000000
0.93219027 0.63192639 0.00000000
0.94721347 0.60533143 0.00000000
