BT2020_to_BT601_PAL.cube
TITLE "BT2020_to_BT601_PAL"
LUT_3D_SIZE 33
# BT2020 SDR to BT601 PAL SDR by Francesco Bucciantini
0.00000000 0.00000000 0.00000000
0.05550418 0.00000000 0.00000000
0.10871225 0.00000000 0.00000000
0.15092823 0.00000000 0.00000000
0.19138540 0.00000000 0.00000000
0.23184257 0.00000000 0.00000000
0.27229974 0.00000000 0.00000000
0.31275691 0.00000000 0.00000000
0.35321409 0.00000000 0.00000000
0.39367126 0.00000000 0.00000000
0.43412843 0.00000000 0.00000000
0.47458560 0.00000000 0.00000000
0.51504277 0.00000000 0.00000000
0.55549995 0.00000000 0.00000000
0.59595712 0.00000000 0.00000000
0.63641429 0.00000000 0.00000000
0.67687146 0.00000000 0.00000000
0.71732863 0.00000000 0.00000000
0.75778580 0.00000000 0.00000000
0.79824298 0.00000000 0.00000000
0.83870015 0.00000000 0.00000000
0.87915732 0.00000000 0.00000000
0.91961449 0.00000000 0.00000000
0.96007166 0.00000000 0.00000000
1.00052884 0.00000000 0.00000000
1.04098601 0.00000000 0.00000000
1.08144318 0.00000000 0.00000000
1.12190035 0.00000000 0.00000000
1.16235752 0.00000000 0.00000000
1.20281470 0.00000000 0.00000000
1.24327187 0.00000000 0.00000000
1.28372904 0.00000000 0.00000000
1.32418621 0.00000000 0.00000000
0.00000000 0.03710360 0.00000000
0.03400978 0.03206062 0.00000000
0.08953974 0.02701763 0.00000000
0.13594626 0.02188831 0.00000000
0.17904917 0.01586729 0.00000000
0.22139529 0.00872699 0.00000000
0.26326707 0.00043443 0.00000000
0.30482161 0.00000000 0.00000000
0.34615357 0.00000000 0.00000000
0.38732344 0.00000000 0.00000000
0.42837169 0.00000000 0.00000000
0.46932644 0.00000000 0.00000000
0.51020781 0.00000000 0.00000000
0.55103058 0.00000000 0.00000000
0.59180585 0.00000000 0.00000000
0.63254209 0.00000000 0.00000000
0.67324591 0.00000000 0.00000000
0.71392251 0.00000000 0.00000000
0.75457605 0.00000000 0.00000000
0.79520990 0.00000000 0.00000000
0.83582680 0.00000000 0.00000000
0.87642901 0.00000000 0.00000000
0.91701841 0.00000000 0.00000000
0.95759659 0.00000000 0.00000000
0.99816489 0.00000000 0.00000000
1.03872442 0.00000000 0.00000000
1.07927616 0.00000000 0.00000000
1.11982094 0.00000000 0.00000000
1.16035948 0.00000000 0.00000000
1.20089241 0.00000000 0.00000000
1.24142027 0.00000000 0.00000000
1.28194353 0.00000000 0.00000000
1.32246263 0.00000000 0.00000000
0.00000000 0.07420720 0.00000000
0.01251539 0.06916422 0.00000000
0.06801956 0.06412124 0.00000000
0.11969430 0.05899191 0.00000000
0.16600470 0.05297089 0.00000000
0.21051407 0.04583060 0.00000000
0.25395036 0.03753803 0.00000000
0.29669099 0.02806323 0.00000000
0.33895346 0.01737866 0.00000000
0.38087270 0.00545884 0.00000000
0.42253711 0.00000000 0.00000000
0.46400712 0.00000000 0.00000000
0.50532549 0.00000000 0.00000000
0.54652334 0.00000000 0.00000000
0.58762386 0.00000000 0.00000000
0.62864467 0.00000000 0.00000000
0.66959943 0.00000000 0.00000000
0.71049886 0.00000000 0.00000000
0.75135148 0.00000000 0.00000000
0.79216420 0.00000000 0.00000000
0.83294261 0.00000000 0.00000000
0.87369133 0.00000000 0.00000000
0.91441420 0.00000000 0.00000000
0.95511442 0.00000000 0.00000000
0.99579469 0.00000000 0.00000000
1.03645732 0.00000000 0.00000000
1.07710425 0.00000000 0.00000000
1.11773718 0.00000000 0.00000000
1.15835755 0.00000000 0.00000000
1.19896664 0.00000000 0.00000000
1.23956553 0.00000000 0.00000000
1.28015520 0.00000000 0.00000000
1.32073648 0.00000000 0.00000000
0.00000000 0.10949997 0.00000000
0.00000000 0.10521969 0.00000000
0.04615717 0.10082685 0.00000000
0.10148897 0.09623429 0.00000000
0.15187799 0.09066898 0.00000000
0.19894462 0.08379883 0.00000000
0.24415521 0.07527687 0.00000000
0.28820616 0.06580207 0.00000000
0.33147855 0.05511750 0.00000000
0.37420094 0.04319768 0.00000000
0.41651963 0.03001883 0.00000000
0.45853296 0.01555866 0.00000000
0.50030962 0.00000000 0.00000000
0.54189913 0.00000000 0.00000000
0.58333809 0.00000000 0.00000000
0.62465418 0.00000000 0.00000000
0.66586871 0.00000000 0.00000000
0.70699834 0.00000000 0.00000000
0.74805630 0.00000000 0.00000000
0.78905324 0.00000000 0.00000000
0.82999780 0.00000000 0.00000000
0.87089709 0.00000000 0.00000000
0.91175698 0.00000000 0.00000000
0.95258240 0.00000000 0.00000000
0.99337747 0.00000000 0.00000000
1.03414572 0.00000000 0.00000000
1.07489012 0.00000000 0.00000000
1.11561326 0.00000000 0.00000000
1.15631735 0.00000000 0.00000000
1.19700431 0.00000000 0.00000000
1.23767581 0.00000000 0.00000000
1.27833333 0.00000000 0.00000000
1.31897815 0.00000000 0.00000000
0.00000000 0.14325094 0.00000000
0.00000000 0.13970067 0.00000000
0.02049416 0.13608466 0.00000000
0.07694860 0.13233564 0.00000000
0.13394316 0.12783788 0.00000000
0.18462143 0.12235854 0.00000000
0.23220248 0.11577931 0.00000000
0.27794692 0.10794698 0.00000000
0.32249660 0.09865568 0.00000000
0.36621963 0.08761619 0.00000000
0.40934467 0.07431830 0.00000000
0.45202214 0.05985813 0.00000000
0.49435552 0.04409563 0.00000000
0.53641845 0.02701092 0.00000000
0.57826492 0.00858509 0.00000000
0.61993539 0.00000000 0.00000000
0.66146085 0.00000000 0.00000000
0.70286542 0.00000000 0.00000000
0.74416817 0.00000000 0.00000000
0.78538439 0.00000000 0.00000000
0.82652645 0.00000000 0.00000000
0.86760449 0.00000000 0.00000000
0.90862689 0.00000000 0.00000000
0.94960066 0.00000000 0.00000000
0.99053166 0.00000000 0.00000000
1.03142488 0.00000000 0.00000000
1.07228455 0.00000000 0.00000000
1.11311431 0.00000000 0.00000000
1.15391729 0.00000000 0.00000000
1.19469620 0.00000000 0.00000000
1.23545341 0.00000000 0.00000000
1.27619098 0.00000000 0.00000000
1.31691074 0.00000000 0.00000000
0.00000000 0.17700190 0.00000000
0.00000000 0.17398171 0.00000000
0.00000000 0.17092011 0.00000000
0.04651497 0.16776193 0.00000000
0.11020053 0.16399541 0.00000000
0.16639734 0.15944146 0.00000000
0.21730631 0.15402636 0.00000000
0.26531994 0.14766051 0.00000000
0.31153205 0.14023200 0.00000000
0.35653220 0.13159710 0.00000000
0.40067215 0.12156525 0.00000000
0.44417702 0.10987386 0.00000000
0.48719855 0.09614288 0.00000000
0.52984313 0.07954542 0.00000000
0.57218781 0.06111959 0.00000000
0.61428986 0.04133465 0.00000000
0.65619278 0.02017339 0.00000000
0.69793022 0.00000000 0.00000000
0.73952867 0.00000000 0.00000000
0.78100926 0.00000000 0.00000000
0.82238905 0.00000000 0.00000000
0.86368195 0.00000000 0.00000000
0.90489946 0.00000000 0.00000000
0.94605115 0.00000000 0.00000000
0.98714502 0.00000000 0.00000000
1.02818785 0.00000000 0.00000000
1.06918541 0.00000000 0.00000000
1.11014263 0.00000000 0.00000000
1.15106376 0.00000000 0.00000000
1.19195248 0.00000000 0.00000000
1.23281199 0.00000000 0.00000000
1.27364509 0.00000000 0.00000000
1.31445422 0.00000000 0.00000000
0.00000000 0.21075287 0.00000000
0.00000000 0.20813387 0.00000000
0.00000000 0.20548730 0.00000000
0.01117011 0.20276625 0.00000000
0.07743877 0.19953341 0.00000000
0.14309799 0.19564326 0.00000000
0.19885153 0.19104504 0.00000000
0.24994881 0.18567975 0.00000000
0.29833107 0.17947717 0.00000000
0.34495556 0.17235196 0.00000000
0.39036335 0.16419811 0.00000000
0.43488844 0.15488068 0.00000000
0.47875021 0.14422315 0.00000000
0.52209966 0.13198651 0.00000000
0.56504451 0.11783285 0.00000000
0.60766397 0.10125607 0.00000000
0.65001763 0.08143373 0.00000000
0.69215130 0.05863159 0.00000000
0.73410079 0.03466890 0.00000000
0.77589450 0.00928236 0.00000000
0.81755529 0.00000000 0.00000000
0.85910175 0.00000000 0.00000000
0.90054918 0.00000000 0.00000000
0.94191025 0.00000000 0.00000000
0.98319558 0.00000000 0.00000000
1.02441412 0.00000000 0.00000000
1.06557348 0.00000000 0.00000000
1.10668015 0.00000000 0.00000000
1.14773973 0.00000000 0.00000000
1.18875703 0.00000000 0.00000000
1.22973626 0.00000000 0.00000000
1.27068108 0.00000000 0.00000000
1.31159471 0.00000000 0.00000000
0.00000000 0.24450383 0.00000000
0.00000000 0.24219830 0.00000000
0.00000000 0.23987356 0.00000000
0.00000000 0.23748885 0.00000000
0.03705492 0.23466295 0.00000000
0.11257044 0.23127335 0.00000000
0.17588805 0.22728261 0.00000000
0.23130571 0.22264863 0.00000000
0.28255964 0.21732309 0.00000000
0.33125969 0.21124950 0.00000000
0.37825011 0.20436061 0.00000000
0.42402783 0.19657501 0.00000000
0.46890877 0.18779219 0.00000000
0.51310524 0.17788550 0.00000000
0.55676611 0.16669118 0.00000000
0.59999928 0.15399104 0.00000000
0.64288508 0.13948293 0.00000000
0.68548471 0.12272683 0.00000000
0.72784568 0.10303603 0.00000000
0.77000544 0.07899292 0.00000000
0.81199398 0.05216784 0.00000000
0.85383560 0.02389006 0.00000000
0.89555019 0.00000000 0.00000000
0.93715422 0.00000000 0.00000000
0.97866141 0.00000000 0.00000000
1.02008334 0.00000000 0.00000000
1.06142978 0.00000000 0.00000000
1.10270911 0.00000000 0.00000000
1.14392849 0.00000000 0.00000000
1.18509411 0.00000000 0.00000000
1.22621135 0.00000000 0.00000000
1.26728489 0.00000000 0.00000000
1.30831883 0.00000000 0.00000000
0.00000000 0.27825480 0.00000000
0.00000000 0.27620039 0.00000000
0.00000000 0.27413214 0.00000000
0.00000000 0.27201400 0.00000000
0.00000000 0.26950863 0.00000000
0.07010239 0.26651028 0.00000000
0.14679603 0.26298989 0.00000000
0.20860563 0.25891570 0.00000000
0.26375990 0.25425221 0.00000000
0.31514620 0.24895915 0.00000000
0.36412296 0.24299005 0.00000000
0.41144005 0.23629056 0.00000000
0.45755454 0.22879620 0.00000000
0.50276460 0.22042923 0.00000000
0.54727476 0.21109441 0.00000000
0.59123081 0.20067273 0.00000000
0.63473993 0.18901210 0.00000000
0.67788286 0.17591272 0.00000000
0.72072178 0.16110294 0.00000000
0.76330538 0.14419670 0.00000000
0.80567240 0.12461168 0.00000000
0.84785405 0.10139207 0.00000000
0.88987583 0.07275725 0.00000000
0.93175871 0.04153338 0.00000000
0.97352018 0.00881696 0.00000000
1.01517488 0.00000000 0.00000000
1.05673521 0.00000000 0.00000000
1.09821170 0.00000000 0.00000000
1.13961341 0.00000000 0.00000000
1.18094812 0.00000000 0.00000000
1.22222257 0.00000000 0.00000000
1.26344263 0.00000000 0.00000000
1.30461346 0.00000000 0.00000000
0.00000000 0.31200577 0.00000000
0.00000000 0.31015670 0.00000000
0.00000000 0.30829736 0.00000000
0.00000000 0.30639549 0.00000000
0.00000000 0.30414898 0.00000000
0.01929728 0.30146487 0.00000000
0.10834021 0.29831975 0.00000000
0.18058366 0.29468858 0.00000000
0.24127198 0.29054403 0.00000000
0.29621408 0.28585579 0.00000000
0.34771372 0.28058975 0.00000000
0.39693356 0.27470703 0.00000000
0.44454393 0.26816278 0.00000000
0.49096600 0.26090467 0.00000000
0.53648093 0.25287078 0.00000000
0.58128512 0.24398693 0.00000000
0.62552068 0.23416280 0.00000000
0.66929342 0.22328650 0.00000000
0.71268392 0.21121655 0.00000000
0.75575483 0.19776943 0.00000000
0.79855564 0.18269970 0.00000000
0.84112599 0.16566590 0.00000000
0.88349811 0.14616780 0.00000000
0.92569840 0.12341817 0.00000000
0.96774878 0.09603976 0.00000000
1.00966757 0.06229525 0.00000000
1.05147022 0.02655664 0.00000000
1.09316985 0.00000000 0.00000000
1.13477768 0.00000000 0.00000000
1.17630334 0.00000000 0.00000000
1.21775520 0.00000000 0.00000000
1.25914049 0.00000000 0.00000000
1.30046556 0.00000000 0.00000000
0.00000000 0.34575673 0.00000000
0.00000000 0.34407844 0.00000000
0.00000000 0.34239234 0.00000000
0.00000000 0.34066925 0.00000000
0.00000000 0.33863604 0.00000000
0.00000000 0.33620979 0.00000000
0.05439562 0.33337109 0.00000000
0.14494041 0.33009955 0.00000000
0.21407981 0.32637334 0.00000000
0.27390074 0.32216868 0.00000000
0.32866827 0.31745938 0.00000000
0.38026604 0.31221617 0.00000000
0.42970110 0.30640604 0.00000000
0.47757612 0.29999138 0.00000000
0.52428003 0.29292883 0.00000000
0.57007787 0.28516794 0.00000000
0.61515785 0.27664930 0.00000000
0.65965800 0.26730206 0.00000000
0.70368229 0.25704058 0.00000000
0.74731073 0.24575956 0.00000000
0.79060602 0.23332713 0.00000000
0.83361812 0.21957424 0.00000000
0.87638732 0.20427810 0.00000000
0.91894657 0.18713458 0.00000000
0.96132303 0.16770917 0.00000000
1.00353938 0.14534187 0.00000000
1.04561464 0.11893813 0.00000000
1.08756495 0.08641644 0.00000000
1.12940407 0.04744396 0.00000000
1.17114379 0.00708424 0.00000000
1.21279430 0.00000000 0.00000000
1.25436446 0.00000000 0.00000000
1.29586197 0.00000000 0.00000000
0.00000000 0.37950770 0.00000000
0.00000000 0.37797346 0.00000000
0.00000000 0.37643317 0.00000000
0.00000000 0.37486023 0.00000000
0.00000000 0.37300566 0.00000000
0.00000000 0.37079473 0.00000000
0.00000000 0.36821093 0.00000000
0.09651916 0.36523724 0.00000000
0.18046220 0.36185568 0.00000000
0.24737156 0.35804702 0.00000000
0.30650111 0.35379041 0.00000000
0.36112245 0.34906296 0.00000000
0.41280603 0.34383930 0.00000000
0.46243296 0.33809106 0.00000000
0.51054793 0.33178621 0.00000000
0.55751092 0.32488826 0.00000000
0.60357181 0.31735531 0.00000000
0.64891070 0.30913872 0.00000000
0.69366135 0.30018146 0.00000000
0.73792556 0.29041588 0.00000000
0.78178240 0.27976070 0.00000000
0.82529437 0.26811674 0.00000000
0.86851158 0.25536085 0.00000000
0.91147474 0.24133689 0.00000000
0.95421733 0.22584176 0.00000000
0.99676710 0.20860284 0.00000000
1.03914733 0.18923914 0.00000000
1.08137765 0.16718909 0.00000000
1.12347475 0.14156135 0.00000000
1.16545295 0.11077621 0.00000000
1.20732456 0.07155215 0.00000000
1.24910026 0.02805657 0.00000000
1.29078933 0.00000000 0.00000000
0.00000000 0.41325867 0.00000000
0.00000000 0.41184745 0.00000000
0.00000000 0.41043145 0.00000000
0.00000000 0.40898626 0.00000000
0.00000000 0.40728339 0.00000000
0.00000000 0.40525485 0.00000000
0.00000000 0.40288637 0.00000000
0.02986118 0.40016339 0.00000000
0.13702206 0.39707079 0.00000000
0.21528859 0.39359260 0.00000000
0.28051419 0.38971175 0.00000000
0.33907951 0.38540979 0.00000000
0.39357664 0.38066654 0.00000000
0.44533588 0.37545982 0.00000000
0.49513493 0.36976495 0.00000000
0.54346842 0.36355434 0.00000000
0.59067029 0.35679689 0.00000000
0.63697623 0.34945720 0.00000000
0.68255847 0.34149473 0.00000000
0.72754637 0.33286260 0.00000000
0.77203935 0.32350608 0.00000000
0.81611532 0.31336053 0.00000000
0.85983627 0.30234878 0.00000000
0.90325229 0.29037728 0.00000000
0.94640431 0.27733084 0.00000000
0.98932614 0.26306483 0.00000000
1.03204600 0.24739339 0.00000000
1.07458762 0.23007077 0.00000000
1.11697112 0.21076011 0.00000000
1.15921371 0.18897763 0.00000000
1.20133014 0.16398313 0.00000000
1.24333318 0.13453612 0.00000000
1.28523394 0.09823682 0.00000000
0.00000000 0.44700963 0.00000000
0.00000000 0.44570458 0.00000000
0.00000000 0.44439569 0.00000000
0.00000000 0.44306044 0.00000000
0.00000000 0.44148790 0.00000000
0.00000000 0.43961577 0.00000000
0.00000000 0.43743149 0.00000000
0.00000000 0.43492242 0.00000000
0.07463873 0.43207559 0.00000000
0.17524063 0.42887745 0.00000000
0.24963703 0.42531373 0.00000000
0.31354454 0.42136914 0.00000000
0.37164054 0.41702724 0.00000000
0.42603082 0.41227013 0.00000000
0.47785729 0.40707820 0.00000000
0.52781159 0.40142984 0.00000000
0.57634489 0.39530103 0.00000000
0.62376765 0.38866489 0.00000000
0.67030234 0.38149118 0.00000000
0.71611358 0.37374558 0.00000000
0.76132633 0.36538887 0.00000000
0.80603750 0.35637586 0.00000000
0.85032360 0.34665398 0.00000000
0.89424598 0.33616149 0.00000000
0.93785450 0.32482504 0.00000000
0.98119014 0.31255631 0.00000000
1.02428692 0.29924734 0.00000000
1.06717337 0.28476384 0.00000000
1.10987359 0.26893510 0.00000000
1.15240811 0.25153842 0.00000000
1.19479450 0.23227384 0.00000000
1.23704795 0.21072014 0.00000000
1.27918160 0.18625263 0.00000000
0.00000000 0.48076060 0.00000000
0.00000000 0.47954801 0.00000000
0.00000000 0.47833232 0.00000000
0.00000000 0.47709259 0.00000000
0.00000000 0.47563317 0.00000000
0.00000000 0.47389655 0.00000000
0.00000000 0.47187159 0.00000000
0.00000000 0.46954713 0.00000000
0.00000000 0.46691186 0.00000000
0.12191142 0.46395412 0.00000000
0.21206827 0.46066170 0.00000000
0.28364134 0.45702172 0.00000000
0.34648818 0.45302044 0.00000000
0.40418763 0.44864310 0.00000000
0.45848501 0.44387371 0.00000000
0.51037160 0.43869484 0.00000000
0.56046666 0.43308737 0.00000000
0.60918333 0.42703020 0.00000000
0.65681089 0.42049990 0.00000000
0.70355953 0.41347032 0.00000000
0.74958656 0.40591202 0.00000000
0.79501257 0.39779172 0.00000000
0.83993187 0.38907148 0.00000000
0.88441947 0.37970773 0.00000000
0.92853592 0.36965000 0.00000000
0.97233069 0.35883926 0.00000000
1.01584468 0.34720573 0.00000000
1.05911200 0.33466592 0.00000000
1.10216139 0.32111852 0.00000000
1.14501721 0.30643848 0.00000000
1.18770030 0.29046850 0.00000000
1.23022858 0.27300586 0.00000000
1.27261754 0.25378167 0.00000000
0.00000000 0.51451156 0.00000000
0.00000000 0.51338018 0.00000000
0.00000000 0.51224623 0.00000000
0.00000000 0.51109023 0.00000000
0.00000000 0.50972983 0.00000000
0.00000000 0.50811172 0.00000000
0.00000000 0.50622584 0.00000000
0.00000000 0.50406227 0.00000000
0.00000000 0.50161101 0.00000000
0.04296756 0.49886185 0.00000000
0.16429376 0.49580422 0.00000000
0.24797263 0.49242704 0.00000000
0.31738895 0.48871866 0.00000000
0.37936342 0.48466663 0.00000000
0.43672333 0.48025763 0.00000000
0.49093919 0.47547729 0.00000000
0.54287987 0.47031002 0.00000000
0.59310313 0.46473877 0.00000000
0.64198868 0.45874489 0.00000000
0.68980663 0.45230775 0.00000000
0.73675574 0.44540450 0.00000000
0.78298637 0.43800964 0.00000000
0.82861481 0.43009456 0.00000000
0.87373275 0.42162697 0.00000000
0.91841359 0.41257017 0.00000000
0.96271697 0.40288215 0.00000000
1.00669186 0.39251441 0.00000000
1.05037896 0.38141051 0.00000000
1.09381237 0.36950401 0.00000000
1.13702094 0.35671591 0.00000000
1.18002921 0.34295092 0.00000000
1.22285827 0.32809239 0.00000000
1.26552629 0.31199488 0.00000000
0.00000000 0.54826253 0.00000000
0.00000000 0.54720296 0.00000000
0.00000000 0.54614126 0.00000000
0.00000000 0.54505919 0.00000000
0.00000000 0.54378617 0.00000000
0.00000000 0.54227249 0.00000000
0.00000000 0.54050905 0.00000000
0.00000000 0.53848689 0.00000000
0.00000000 0.53619710 0.00000000
0.00000000 0.53363061 0.00000000
0.09722284 0.53077815 0.00000000
0.20404169 0.52763008 0.00000000
0.28322728 0.52417631 0.00000000
0.35093960 0.52040621 0.00000000
0.41218372 0.51630848 0.00000000
0.46924961 0.51187103 0.00000000
0.52339338 0.50708087 0.00000000
0.57538297 0.50192397 0.00000000
0.62572347 0.49638505 0.00000000
0.67476506 0.49044747 0.00000000
0.72276042 0.48409296 0.00000000
0.76989772 0.47730137 0.00000000
0.81632070 0.47005039 0.00000000
0.86214148 0.46231519 0.00000000
0.90744910 0.45406793 0.00000000
0.95231531 0.44527730 0.00000000
0.99679872 0.43590778 0.00000000
1.04094775 0.42591886 0.00000000
1.08480278 0.41526394 0.00000000
1.12839783 0.40388899 0.00000000
1.17176177 0.39173073 0.00000000
1.21491926 0.37871428 0.00000000
1.25789155 0.36474990 0.00000000
0.00000000 0.58201350 0.00000000
0.00000000 0.58101786 0.00000000
0.00000000 0.58002043 0.00000000
0.00000000 0.57900409 0.00000000
0.00000000 0.57780868 0.00000000
0.00000000 0.57638770 0.00000000
0.00000000 0.57473281 0.00000000
0.00000000 0.57283589 0.00000000
0.00000000 0.57068887 0.00000000
0.00000000 0.56828367 0.00000000
0.00169180 0.56561203 0.00000000
0.14643340 0.56266545 0.00000000
0.24213820 0.55943511 0.00000000
0.31800489 0.55591178 0.00000000
0.38433562 0.55208573 0.00000000
0.44495923 0.54794663 0.00000000
0.50176803 0.54348347 0.00000000
0.55584756 0.53868446 0.00000000
0.60788161 0.53353688 0.00000000
0.65832975 0.52802698 0.00000000
0.70751591 0.52213983 0.00000000
0.75567697 0.51585910 0.00000000
0.80299125 0.50916693 0.00000000
0.84959619 0.50204362 0.00000000
0.89559989 0.49446739 0.00000000
0.94108875 0.48641404 0.00000000
0.98613282 0.47785652 0.00000000
1.03078966 0.46876442 0.00000000
1.07510701 0.45910340 0.00000000
1.11912490 0.44883437 0.00000000
1.16287718 0.43791254 0.00000000
1.20639266 0.42628614 0.00000000
1.24969608 0.41389486 0.00000000
0.00000000 0.61576446 0.00000000
0.00000000 0.61482606 0.00000000
0.00000000 0.61388616 0.00000000
0.00000000 0.61292860 0.00000000
0.00000000 0.61180256 0.00000000
0.00000000 0.61046437 0.00000000
0.00000000 0.60890635 0.00000000
0.00000000 0.60712106 0.00000000
0.00000000 0.60510118 0.00000000
0.00000000 0.60283939 0.00000000
0.00000000 0.60032828 0.00000000
0.05870888 0.59756029 0.00000000
0.19052447 0.59452760 0.00000000
0.27911364 0.59122212 0.00000000
0.35242063 0.58763533 0.00000000
0.41760792 0.58375831 0.00000000
0.47769772 0.57958159 0.00000000
0.53427981 0.57509508 0.00000000
0.58830175 0.57028804 0.00000000
0.64037638 0.56514890 0.00000000
0.69092368 0.55966520 0.00000000
0.74024418 0.55382346 0.00000000
0.78856034 0.54760904 0.00000000
0.83604131 0.54100595 0.00000000
0.88281863 0.53399669 0.00000000
0.92899644 0.52656202 0.00000000
0.97465857 0.51868068 0.00000000
1.01987339 0.51032908 0.00000000
1.06469730 0.50148091 0.00000000
1.10917736 0.49210668 0.00000000
1.15335316 0.48217314 0.00000000
1.19725831 0.47164258 0.00000000
1.24092154 0.46047192 0.00000000
0.00000000 0.64951543 0.00000000
0.00000000 0.64862855 0.00000000
0.00000000 0.64774039 0.00000000
0.00000000 0.64683569 0.00000000
0.00000000 0.64577201 0.00000000
0.00000000 0.64450818 0.00000000
0.00000000 0.64303710 0.00000000
0.00000000 0.64135191 0.00000000
0.00000000 0.63944591 0.00000000
0.00000000 0.63731244 0.00000000
0.00000000 0.63494479 0.00000000
0.00000000 0.63233616 0.00000000
0.11931192 0.62947957 0.00000000
0.23170424 0.62636782 0.00000000
0.31528562 0.62299341 0.00000000
0.38655466 0.61934851 0.00000000
0.45077958 0.61542487 0.00000000
0.51040526 0.61121378 0.00000000
0.56678591 0.60670598 0.00000000
0.62075593 0.60189162 0.00000000
0.67286776 0.59676015 0.00000000
0.72350670 0.59130022 0.00000000
0.77295235 0.58549960 0.00000000
0.82141398 0.57934508 0.00000000
0.86905224 0.57282228 0.00000000
0.91599302 0.56591554 0.00000000
0.96233673 0.55860774 0.00000000
1.00816465 0.55088005 0.00000000
1.05354343 0.54271173 0.00000000
1.09852835 0.53407978 0.00000000
1.14316569 0.52495863 0.00000000
1.18749459 0.51531965 0.00000000
1.23154835 0.50513067 0.00000000
0.00000000 0.68326640 0.00000000
0.00000000 0.68242612 0.00000000
0.00000000 0.68158473 0.00000000
0.00000000 0.68072781 0.00000000
0.00000000 0.67972044 0.00000000
0.00000000 0.67852374 0.00000000
0.00000000 0.67713108 0.00000000
0.00000000 0.67553614 0.00000000
0.00000000 0.67373272 0.00000000
0.00000000 0.67171471 0.00000000
0.00000000 0.66947601 0.00000000
0.00000000 0.66701045 0.00000000
0.00965606 0.66431173 0.00000000
0.17030800 0.66137340 0.00000000
0.27101527 0.65818878 0.00000000
0.35085850 0.65475093 0.00000000
0.42046470 0.65105260 0.00000000
0.48386825 0.64708616 0.00000000
0.54308666 0.64284355 0.00000000
0.59928715 0.63831625 0.00000000
0.65321012 0.63349521 0.00000000
0.70535615 0.62837073 0.00000000
0.75608005 0.62293246 0.00000000
0.80564256 0.61716925 0.00000000
0.85424089 0.61106911 0.00000000
0.90202777 0.60461905 0.00000000
0.94912378 0.59780497 0.00000000
0.99562570 0.59061153 0.00000000
1.04161236 0.58302196 0.00000000
1.08714868 0.57501785 0.00000000
1.13228880 0.56657896 0.00000000
1.17707821 0.55768288 0.00000000
1.22155553 0.54830472 0.00000000
0.00000000 0.71701736 0.00000000
0.00000000 0.71621941 0.00000000
0.00000000 0.71542051 0.00000000
0.00000000 0.71460694 0.00000000
0.00000000 0.71365066 0.00000000
0.00000000 0.71251484 0.00000000
0.00000000 0.71119328 0.00000000
0.00000000 0.70968008 0.00000000
0.00000000 0.70796951 0.00000000
0.00000000 0.70605592 0.00000000
0.00000000 0.70393373 0.00000000
0.00000000 0.70159729 0.00000000
0.00000000 0.69904089 0.00000000
0.07716754 0.69625870 0.00000000
0.21595575 0.69324472 0.00000000
0.30903433 0.68999274 0.00000000
0.38597082 0.68649632 0.00000000
0.45419347 0.68274870 0.00000000
0.51688765 0.67874281 0.00000000
0.57574577 0.67447120 0.00000000
0.63178418 0.66992598 0.00000000
0.68566430 0.66509879 0.00000000
0.73784191 0.65998072 0.00000000
0.78864478 0.65456227 0.00000000
0.83831665 0.64883325 0.00000000
0.88704369 0.64278271 0.00000000
0.93497122 0.63639885 0.00000000
0.98221479 0.62966893 0.00000000
1.02886774 0.62257912 0.00000000
1.07500648 0.61511438 0.00000000
1.12069426 0.60725828 0.00000000
