BT2020_HLG_to_BT601_PAL.cube
TITLE "BT2020_HLG_to_BT601_PAL"
LUT_3D_SIZE 5
# BT2020 HLG to BT601 PAL by Francesco Bucciantini
0.00000000 0.00000000 0.00000000
0.35536860 0.00000000 0.00000000
0.66179091 0.00000000 0.00000000
0.85220794 0.00000000 0.00000000
0.97324110 0.00000000 0.00000000
0.00000000 0.29162324 0.00000000
0.28173090 0.27167804 0.00000000
0.64503065 0.20197269 0.00000000
0.84876982 0.00000000 0.00000000
0.97291195 0.00000000 0.00000000
0.00000000 0.59321478 0.00000000
0.00000000 0.58727382 0.00000000
0.58102330 0.56813687 0.00000000
0.83762880 0.49738212 0.00000000
0.97189174 0.00000000 0.00000000
0.00000000 0.80456124 0.00000000
0.00000000 0.80324413 0.00000000
0.00000000 0.79919646 0.00000000
0.79583598 0.78653919 0.00000000
0.96862631 0.71541873 0.00000000
0.00000000 0.95327174 0.00000000
0.00000000 0.95310982 0.00000000
0.00000000 0.95261976 0.00000000
0.00000000 0.95115797 0.00000000
0.94914512 0.94461540 0.00000000
0.00000000 0.00000000 0.29151158
0.34621037 0.00000000 0.28888059
0.65961154 0.00000000 0.28085352
0.85174731 0.00000000 0.25625595
0.97319660 0.00000000 0.12273914
0.00000000 0.29032511 0.27308609
0.27029369 0.27029369 0.27029369
0.64260496 0.20018453 0.26175736
0.84829165 0.00000000 0.23542251
0.97286672 0.00000000 0.08262471
0.00000000 0.59282283 0.20959722
0.00000000 0.58686819 0.20607899
0.57746067 0.56768472 0.19521401
0.83709115 0.49672117 0.16043531
0.97184424 0.00000000 0.00000000
0.00000000 0.80447343 0.00000000
0.00000000 0.80315528 0.00000000
0.00000000 0.79910432 0.00000000
0.79503617 0.78643628 0.00000000
0.96857151 0.71523951 0.00000000
0.00000000 0.95326091 0.00000000
0.00000000 0.95309894 0.00000000
0.00000000 0.95260873 0.00000000
0.00000000 0.95114650 0.00000000
0.94904362 0.94460193 0.00000000
0.00000000 0.00000000 0.59307977
0.31724367 0.00000000 0.59228578
0.65288472 0.00000000 0.58988170
0.85035137 0.00000000 0.58270049
0.97306250 0.00000000 0.55024159
0.00000000 0.28639860 0.58758279
0.23305375 0.26610206 0.58676317
0.63510010 0.19473996 0.58428096
0.84684223 0.00000000 0.57686126
0.97273042 0.00000000 0.54322404
0.00000000 0.59164162 0.56997310
0.00000000 0.58564563 0.56906714
0.56632138 0.56632138 0.56632138
0.83546024 0.49472475 0.55809502
0.97170112 0.00000000 0.52042286
0.00000000 0.80420960 0.50624687
0.00000000 0.80288828 0.50496833
0.00000000 0.79882744 0.50108109
0.79260250 0.78612698 0.48932171
0.96840635 0.71470047 0.43314572
0.00000000 0.95322839 0.00000000
0.00000000 0.95306628 0.00000000
0.00000000 0.95257564 0.00000000
0.00000000 0.95111210 0.00000000
0.94873755 0.94456148 0.00000000
0.00000000 0.00000000 0.80446500
0.21416946 0.00000000 0.80428725
0.63154384 0.00000000 0.80375227
0.84617097 0.00000000 0.80218275
0.97266770 0.00000000 0.79559589
0.00000000 0.27470029 0.80324520
0.07106501 0.25357332 0.80306547
0.61110517 0.17816936 0.80252454
0.84249880 0.00000000 0.80093746
0.97232915 0.00000000 0.79427512
0.00000000 0.58816250 0.79950330
0.00000000 0.58204343 0.79931744
0.52941254 0.56229954 0.79875799
0.83056193 0.48880440 0.79711623
0.97127973 0.00000000 0.79021875
0.00000000 0.80343929 0.78786845
0.00000000 0.80210869 0.78766265
0.00000000 0.79801891 0.78704303
0.78522349 0.78522349 0.78522349
0.96792000 0.71312210 0.77755905
0.00000000 0.95313374 0.72444801
0.00000000 0.95297121 0.72410833
0.00000000 0.95247929 0.72308422
0.00000000 0.95101193 0.72006413
0.94783459 0.94444371 0.70712651
0.00000000 0.00000000 0.95322691
0.00000000 0.00000000 0.95320498
0.49950623 0.00000000 0.95313911
0.82710329 0.00000000 0.95294702
0.97098969 0.00000000 0.95215928
0.00000000 0.22194893 0.95307686
0.00000000 0.19611584 0.95305484
0.45446943 0.09306886 0.95298870
0.82262998 0.00000000 0.95279582
0.97062352 0.00000000 0.95200484
0.00000000 0.57332994 0.95262301
0.00000000 0.56666399 0.95260072
0.25570547 0.54504460 0.95253376
0.80793451 0.46285052 0.95233849
0.96948825 0.00000000 0.95153769
0.00000000 0.80026612 0.95127188
0.00000000 0.79889689 0.95124877
0.00000000 0.79468644 0.95117937
0.74964552 0.78149452 0.95097694
0.96585068 0.70654779 0.95014668
0.00000000 0.95274817 0.94527111
0.00000000 0.95258393 0.94524428
0.00000000 0.95208683 0.94516369
0.00000000 0.95060389 0.94492860
0.94396381 0.94396381 0.94396381
