BT2020_HLG_to_BT601_PAL.cube
TITLE "BT2020_HLG_to_BT601_PAL"
LUT_3D_SIZE 9
# BT2020 HLG to BT601 PAL by Francesco Bucciantini
0.00000000 0.00000000 0.00000000
0.14449010 0.00000000 0.00000000
0.35536860 0.00000000 0.00000000
0.54094803 0.00000000 0.00000000
0.66179091 0.00000000 0.00000000
0.76056865 0.00000000 0.00000000
0.85220794 0.00000000 0.00000000
0.92561901 0.00000000 0.00000000
0.97324110 0.00000000 0.00000000
0.00000000 0.11032981 0.00000000
0.10502864 0.09964144 0.00000000
0.33837239 0.06327292 0.00000000
0.53267879 0.00119086 0.00000000
0.65776562 0.00000000 0.00000000
0.75858751 0.00000000 0.00000000
0.85136038 0.00000000 0.00000000
0.92531123 0.00000000 0.00000000
0.97315931 0.00000000 0.00000000
0.00000000 0.29162324 0.00000000
0.00000000 0.28675489 0.00000000
0.28173090 0.27167804 0.00000000
0.50543701 0.24473309 0.00000000
0.64503065 0.20197269 0.00000000
0.75245120 0.10728493 0.00000000
0.84876982 0.00000000 0.00000000
0.92437746 0.00000000 0.00000000
0.97291195 0.00000000 0.00000000
0.00000000 0.46306262 0.00000000
0.00000000 0.46011478 0.00000000
0.15262034 0.45100479 0.00000000
0.44933386 0.43492345 0.00000000
0.62126483 0.41119894 0.00000000
0.74152576 0.36868435 0.00000000
0.84428535 0.26441463 0.00000000
0.92278554 0.00000000 0.00000000
0.97249291 0.00000000 0.00000000
0.00000000 0.59321478 0.00000000
0.00000000 0.59174853 0.00000000
0.00000000 0.58727382 0.00000000
0.34506816 0.57955096 0.00000000
0.58102330 0.56813687 0.00000000
0.72453571 0.54749919 0.00000000
0.83762880 0.49738212 0.00000000
0.92047890 0.34267322 0.00000000
0.97189174 0.00000000 0.00000000
0.00000000 0.70147558 0.00000000
0.00000000 0.70073678 0.00000000
0.00000000 0.69849740 0.00000000
0.00616040 0.69468646 0.00000000
0.48447790 0.68917839 0.00000000
0.69085314 0.67959113 0.00000000
0.82551861 0.65824157 0.00000000
0.91645038 0.60395420 0.00000000
0.97085883 0.38602103 0.00000000
0.00000000 0.80456124 0.00000000
0.00000000 0.80423343 0.00000000
0.00000000 0.80324413 0.00000000
0.00000000 0.80157543 0.00000000
0.00000000 0.79919646 0.00000000
0.58590247 0.79514730 0.00000000
0.79583598 0.78653919 0.00000000
0.90743873 0.76704951 0.00000000
0.96862631 0.71541873 0.00000000
0.00000000 0.89109097 0.00000000
0.00000000 0.89096360 0.00000000
0.00000000 0.89058015 0.00000000
0.00000000 0.88993663 0.00000000
0.00000000 0.88902621 0.00000000
0.00000000 0.88749543 0.00000000
0.69580722 0.88431876 0.00000000
0.88454367 0.87750408 0.00000000
0.96342440 0.86177801 0.00000000
0.00000000 0.95327174 0.00000000
0.00000000 0.95323133 0.00000000
0.00000000 0.95310982 0.00000000
0.00000000 0.95290642 0.00000000
0.00000000 0.95261976 0.00000000
0.00000000 0.95214066 0.00000000
0.00000000 0.95115797 0.00000000
0.80027254 0.94910151 0.00000000
0.94914512 0.94461540 0.00000000
0.00000000 0.00000000 0.11026997
0.13958233 0.00000000 0.10886006
0.35310028 0.00000000 0.10455846
0.53984355 0.00000000 0.09713125
0.66124892 0.00000000 0.08611532
0.76030073 0.00000000 0.06645498
0.85209300 0.00000000 0.02725496
0.92557720 0.00000000 0.00000000
0.97322998 0.00000000 0.00000000
0.00000000 0.10963416 0.10039600
0.09889959 0.09889959 0.09889959
0.33599524 0.06244056 0.09432508
0.53152393 0.00035850 0.08639215
0.65720942 0.00000000 0.07444688
0.75831534 0.00000000 0.05496081
0.85124437 0.00000000 0.01576078
0.92526919 0.00000000 0.00000000
0.97314815 0.00000000 0.00000000
0.00000000 0.29129920 0.06689014
0.00000000 0.28642584 0.06520728
0.27891122 0.27133255 0.06015870
0.50410337 0.24435417 0.05174439
0.64442767 0.20152687 0.03996437
0.75216558 0.10657667 0.02047829
0.84865050 0.00000000 0.00000000
0.92433471 0.00000000 0.00000000
0.97290065 0.00000000 0.00000000
0.00000000 0.46286635 0.00941928
0.00000000 0.45991562 0.00773642
0.14790985 0.45079649 0.00268784
0.44756316 0.43470234 0.00000000
0.62056685 0.41096520 0.00000000
0.74121508 0.36842436 0.00000000
0.84416019 0.26406067 0.00000000
0.92274155 0.00000000 0.00000000
0.97248138 0.00000000 0.00000000
0.00000000 0.59311688 0.00000000
0.00000000 0.59164979 0.00000000
0.00000000 0.58717250 0.00000000
0.34273500 0.57944507 0.00000000
0.58013938 0.56802394 0.00000000
0.72418313 0.54737262 0.00000000
0.83749467 0.49721709 0.00000000
0.92043311 0.34239438 0.00000000
0.97187987 0.00000000 0.00000000
0.00000000 0.70142618 0.00000000
0.00000000 0.70068712 0.00000000
0.00000000 0.69844696 0.00000000
0.00000000 0.69463468 0.00000000
0.48299241 0.68912463 0.00000000
0.69040611 0.67953380 0.00000000
0.82536718 0.65817565 0.00000000
0.91640134 0.60386224 0.00000000
0.97084639 0.38577236 0.00000000
0.00000000 0.80453929 0.00000000
0.00000000 0.80421142 0.00000000
0.00000000 0.80322193 0.00000000
0.00000000 0.80155289 0.00000000
0.00000000 0.79917344 0.00000000
0.58504289 0.79512343 0.00000000
0.79563655 0.78651347 0.00000000
0.90738210 0.76701926 0.00000000
0.96861262 0.71537395 0.00000000
0.00000000 0.89108244 0.00000000
0.00000000 0.89095505 0.00000000
0.00000000 0.89057156 0.00000000
0.00000000 0.88992796 0.00000000
0.00000000 0.88901744 0.00000000
0.00000000 0.88748648 0.00000000
0.69537509 0.88430943 0.00000000
0.88446546 0.87749390 0.00000000
0.96340774 0.86176572 0.00000000
0.00000000 0.95326903 0.00000000
0.00000000 0.95322862 0.00000000
0.00000000 0.95310710 0.00000000
0.00000000 0.95290368 0.00000000
0.00000000 0.95261700 0.00000000
0.00000000 0.95213787 0.00000000
0.00000000 0.95115510 0.00000000
0.80008082 0.94909849 0.00000000
0.94911977 0.94461203 0.00000000
0.00000000 0.00000000 0.29151158
0.12405946 0.00000000 0.29085586
0.34621037 0.00000000 0.28888059
0.53649006 0.00000000 0.28556086
0.65961154 0.00000000 0.28085352
0.75949353 0.00000000 0.27290635
0.85174731 0.00000000 0.25625595
0.92545160 0.00000000 0.21949080
0.97319660 0.00000000 0.12273914
0.00000000 0.10753000 0.28700581
0.07871639 0.09665335 0.28634072
0.32876663 0.05994351 0.28433695
0.52801598 0.00000000 0.28096859
0.65552886 0.00000000 0.27619065
0.75749530 0.00000000 0.26811966
0.85089546 0.00000000 0.25118931
0.92514288 0.00000000 0.21368626
0.97311463 0.00000000 0.11357299
0.00000000 0.29032511 0.27308609
0.00000000 0.28543663 0.27239040
0.27029369 0.27029369 0.27029369
0.50004628 0.24321433 0.26676647
0.64260496 0.20018453 0.26175736
0.75130488 0.10443374 0.25327956
0.84829165 0.00000000 0.23542251
0.92420624 0.00000000 0.19542604
0.97286672 0.00000000 0.08262471
0.00000000 0.46227639 0.24835522
0.00000000 0.45931696 0.24759837
0.13307087 0.45017030 0.24531561
0.44215736 0.43403834 0.24146935
0.61845511 0.41026318 0.23599363
0.74027863 0.36764334 0.22668766
0.84378373 0.26299624 0.20690859
0.92260938 0.00000000 0.16145996
0.97244675 0.00000000 0.02491043
0.00000000 0.59282283 0.20959722
0.00000000 0.59135323 0.20872227
0.00000000 0.58686819 0.20607899
0.33564342 0.57912702 0.20161022
0.57746067 0.56768472 0.19521401
0.72311995 0.54699239 0.18424357
0.83709115 0.49672117 0.16043531
0.92029549 0.34155659 0.10190928
0.97184424 0.00000000 0.00000000
0.00000000 0.70127785 0.12742823
0.00000000 0.70053803 0.12614863
0.00000000 0.69829554 0.12225540
0.00000000 0.69447924 0.11557380
0.47846777 0.68896323 0.10576824
0.68905681 0.67936166 0.08815175
0.82491154 0.65797774 0.04885611
0.91625400 0.60358607 0.00000000
0.97080904 0.38502542 0.00000000
0.00000000 0.80447343 0.00000000
0.00000000 0.80414536 0.00000000
0.00000000 0.80315528 0.00000000
0.00000000 0.80148523 0.00000000
0.00000000 0.79910432 0.00000000
0.58243851 0.79505180 0.00000000
0.79503617 0.78643628 0.00000000
0.90721193 0.76692846 0.00000000
0.96857151 0.71523951 0.00000000
0.00000000 0.89105683 0.00000000
0.00000000 0.89092940 0.00000000
0.00000000 0.89054579 0.00000000
0.00000000 0.88990196 0.00000000
0.00000000 0.88899111 0.00000000
0.00000000 0.88745961 0.00000000
0.69407095 0.88428141 0.00000000
0.88423033 0.87746335 0.00000000
0.96335770 0.86172884 0.00000000
0.00000000 0.95326091 0.00000000
0.00000000 0.95322048 0.00000000
0.00000000 0.95309894 0.00000000
0.00000000 0.95289548 0.00000000
0.00000000 0.95260873 0.00000000
0.00000000 0.95212950 0.00000000
0.00000000 0.95114650 0.00000000
0.79950369 0.94908943 0.00000000
0.94904362 0.94460193 0.00000000
0.00000000 0.00000000 0.46291041
0.09475258 0.00000000 0.46251309
0.33442829 0.00000000 0.46131640
0.53076300 0.00000000 0.45930604
0.65684374 0.00000000 0.45645755
0.75813661 0.00000000 0.45165614
0.85116824 0.00000000 0.44164132
0.92524162 0.00000000 0.42051299
0.97314083 0.00000000 0.37447296
0.00000000 0.10396362 0.46018094
0.04376071 0.09283793 0.45977820
0.31637550 0.05578175 0.45856516
0.52201989 0.00000000 0.45652714
0.65268729 0.00000000 0.45363909
0.75611666 0.00000000 0.44876997
0.85031098 0.00000000 0.43862477
0.92493172 0.00000000 0.41734481
0.97305864 0.00000000 0.37092124
0.00000000 0.28869497 0.45176461
0.00000000 0.28378100 0.45134481
0.25535794 0.26855428 0.45008021
0.49309010 0.24130423 0.44795498
0.63952029 0.19793078 0.44494208
0.74985747 0.10079958 0.43986534
0.84769046 0.00000000 0.42944848
0.92399148 0.00000000 0.40769457
0.97281003 0.00000000 0.36006378
0.00000000 0.46128926 0.43695160
0.00000000 0.45831524 0.43650652
0.10536531 0.44912238 0.43516854
0.43292943 0.43292943 0.43292943
0.61487494 0.40909050 0.42977518
0.73870300 0.36633807 0.42450646
0.84315295 0.26121364 0.41370621
0.92238842 0.00000000 0.39109173
0.97238890 0.00000000 0.34123553
0.00000000 0.59233164 0.41514171
0.00000000 0.59085785 0.41467341
0.00000000 0.58635983 0.41326540
0.32349921 0.57859566 0.41090813
0.57290384 0.56711792 0.40758541
0.72132950 0.54635692 0.40202984
0.83641490 0.49589181 0.39061941
0.92006541 0.34015591 0.36662148
0.97178472 0.00000000 0.31309054
0.00000000 0.70103030 0.37634778
0.00000000 0.70028920 0.37583231
0.00000000 0.69804282 0.37428177
0.00000000 0.69421979 0.37168365
0.47068984 0.68869385 0.36801656
0.68678021 0.67907432 0.36187212
0.82414761 0.65764733 0.34919802
0.91600762 0.60312479 0.32227631
0.97074663 0.38377738 0.26052315
0.00000000 0.80436358 0.28346731
0.00000000 0.80403518 0.28279467
0.00000000 0.80304411 0.28076800
0.00000000 0.80137237 0.27736053
0.00000000 0.79898904 0.27252573
0.57801007 0.79493230 0.26435490
0.79402844 0.78630750 0.24719811
0.90692733 0.76677697 0.20909314
0.96850283 0.71501516 0.10611838
0.00000000 0.89101415 0.00000000
0.00000000 0.89088664 0.00000000
0.00000000 0.89050280 0.00000000
0.00000000 0.88985860 0.00000000
0.00000000 0.88894722 0.00000000
0.00000000 0.88741481 0.00000000
0.69187121 0.88423470 0.00000000
0.88383684 0.87741240 0.00000000
0.96327411 0.86166735 0.00000000
0.00000000 0.95324736 0.00000000
0.00000000 0.95320692 0.00000000
0.00000000 0.95308534 0.00000000
0.00000000 0.95288180 0.00000000
0.00000000 0.95259495 0.00000000
0.00000000 0.95211553 0.00000000
0.00000000 0.95113217 0.00000000
0.79853515 0.94907431 0.00000000
0.94891637 0.94458508 0.00000000
0.00000000 0.00000000 0.59307977
0.04616896 0.00000000 0.59288162
0.31724367 0.00000000 0.59228578
0.52243915 0.00000000 0.59128813
0.65288472 0.00000000 0.58988170
0.75621213 0.00000000 0.58752992
0.85035137 0.00000000 0.58270049
0.92494629 0.00000000 0.57256339
0.97306250 0.00000000 0.55024159
0.00000000 0.09883805 0.59172179
0.00000000 0.08733507 0.59152207
0.29822805 0.04995528 0.59092152
0.51329290 0.00000000 0.58991596
0.64862106 0.00000000 0.58849832
0.75416110 0.00000000 0.58612763
0.84948644 0.00000000 0.58125877
0.92463473 0.00000000 0.57103612
0.97297998 0.00000000 0.54851221
0.00000000 0.28639860 0.58758279
0.00000000 0.28144830 0.58737825
0.23305375 0.26610206 0.58676317
0.48291605 0.23860785 0.58573320
0.63510010 0.19473996 0.58428096
0.74780346 0.09557168 0.58185192
0.84684223 0.00000000 0.57686126
0.92368941 0.00000000 0.56637419
0.97273042 0.00000000 0.54322404
0.00000000 0.45989914 0.58045825
0.00000000 0.45690446 0.58024520
0.05813457 0.44764620 0.57960449
0.41967160 0.43137219 0.57853145
0.60973054 0.40744319 0.57701812
0.73646520 0.36450314 0.57448602
0.84226279 0.25869974 0.56928004
0.92207761 0.00000000 0.55832446
0.97230765 0.00000000 0.53405936
0.00000000 0.59164162 0.56997310
0.00000000 0.59016191 0.56974704
0.00000000 0.58564563 0.56906714
0.30574345 0.57784906 0.56792819
0.56632138 0.56632138 0.56632138
0.71878324 0.54546355 0.56363139
0.83546024 0.49472475 0.55809502
0.91974176 0.33818575 0.54641814
0.97170112 0.00000000 0.52042286
0.00000000 0.70068301 0.55115428
0.00000000 0.69994012 0.55090335
0.00000000 0.69768827 0.55014851
0.00000000 0.69385579 0.54888347
0.45926676 0.68831588 0.54709761
0.68353309 0.67867112 0.54410484
0.82306850 0.65718357 0.53793307
0.91566100 0.60247690 0.52486057
0.97065898 0.38202347 0.49547049
0.00000000 0.80420960 0.50624687
0.00000000 0.80388075 0.50592803
0.00000000 0.80288828 0.50496833
0.00000000 0.80121418 0.50335814
0.00000000 0.79882744 0.50108109
0.57161743 0.79476479 0.49725472
0.79260250 0.78612698 0.48932171
0.90652679 0.76656459 0.47232321
0.96840635 0.71470047 0.43314572
0.00000000 0.89095434 0.37132971
0.00000000 0.89082673 0.37080750
0.00000000 0.89044258 0.36923659
0.00000000 0.88979785 0.36660400
0.00000000 0.88888572 0.36288752
0.00000000 0.88735204 0.35665832
0.68873511 0.88416926 0.34380104
0.88328257 0.87734101 0.31644843
0.96315667 0.86158119 0.25342361
0.00000000 0.95322839 0.00000000
0.00000000 0.95318793 0.00000000
0.00000000 0.95306628 0.00000000
0.00000000 0.95286264 0.00000000
0.00000000 0.95257564 0.00000000
0.00000000 0.95209597 0.00000000
0.00000000 0.95111210 0.00000000
0.79716503 0.94905315 0.00000000
0.94873755 0.94456148 0.00000000
0.00000000 0.00000000 0.70135813
0.00000000 0.00000000 0.70125813
0.28673956 0.00000000 0.70095773
0.50781292 0.00000000 0.70045567
0.64610956 0.00000000 0.69974984
0.75296337 0.00000000 0.69857466
0.84898405 0.00000000 0.69618128
0.92445429 0.00000000 0.69124408
0.97293225 0.00000000 0.68078107
0.00000000 0.08998368 0.70067377
0.00000000 0.07756660 0.70057330
0.26575613 0.04031736 0.70027147
0.49792226 0.00000000 0.69976701
0.64165767 0.00000000 0.69905779
0.75085916 0.00000000 0.69787695
0.84810621 0.00000000 0.69547195
0.92413994 0.00000000 0.69051035
0.97284921 0.00000000 0.67999364
0.00000000 0.28256288 0.69860100
0.00000000 0.27755080 0.69849908
0.19148759 0.26200092 0.69819288
0.46484661 0.23408890 0.69768111
0.62751359 0.18936677 0.69696159
0.74433284 0.08652549 0.69576350
0.84542207 0.00000000 0.69332305
0.92318614 0.00000000 0.68828697
0.97259804 0.00000000 0.67760627
0.00000000 0.45757845 0.69507913
0.00000000 0.45454904 0.69497470
0.00000000 0.44518075 0.69466098
0.39678254 0.42878392 0.69413661
0.60086118 0.40470378 0.69339932
0.73267917 0.36144822 0.69217150
0.84077189 0.25449326 0.68966995
0.92155974 0.00000000 0.68450540
0.97217255 0.00000000 0.67354143
0.00000000 0.59049413 0.69000121
0.00000000 0.58900456 0.68989310
0.00000000 0.58445776 0.68956831
0.27407753 0.57660708 0.68902538
0.55487326 0.56499594 0.68826192
0.71446612 0.54397619 0.68699031
0.83386048 0.49277877 0.68439868
0.91920242 0.33490274 0.67904458
0.97156211 0.00000000 0.66766167
0.00000000 0.70010669 0.68119797
0.00000000 0.69936082 0.68108326
0.00000000 0.69709988 0.68073860
0.00000000 0.69325169 0.68016241
0.43884734 0.68768853 0.67935199
0.67800178 0.67800178 0.67800178
0.82125836 0.65641342 0.67524836
0.91508325 0.60139973 0.66955317
0.97051322 0.37910493 0.65741365
0.00000000 0.80395442 0.66175954
0.00000000 0.80362480 0.66162922
0.00000000 0.80263003 0.66123762
0.00000000 0.80095202 0.66058274
0.00000000 0.79855962 0.65966125
0.56051210 0.79448717 0.65812488
0.79020416 0.78582776 0.65498766
0.90585883 0.76621246 0.64848033
0.96824593 0.71417835 0.63452480
0.00000000 0.89085531 0.61342102
0.00000000 0.89072753 0.61324519
0.00000000 0.89034286 0.61271659
0.00000000 0.88969726 0.61183188
0.00000000 0.88878389 0.61058542
0.00000000 0.88724810 0.60850310
0.68339686 0.88406088 0.60423480
0.88235690 0.87722279 0.59531012
0.96296136 0.86143849 0.57582839
0.00000000 0.95319699 0.43523915
0.00000000 0.95315649 0.43479232
0.00000000 0.95303474 0.43344907
0.00000000 0.95283092 0.43120108
0.00000000 0.95254367 0.42803418
0.00000000 0.95206360 0.42274394
0.00000000 0.95107887 0.41189803
0.79486156 0.94901812 0.38918062
0.94843998 0.94452241 0.33905525
0.00000000 0.00000000 0.80446500
0.00000000 0.00000000 0.80442059
0.21416946 0.00000000 0.80428725
0.47454501 0.00000000 0.80406465
0.63154384 0.00000000 0.80375227
0.74616798 0.00000000 0.80323359
0.84617097 0.00000000 0.80218275
0.92345114 0.00000000 0.80003825
0.97266770 0.00000000 0.79559589
0.00000000 0.07059446 0.80416131
0.00000000 0.05817805 0.80411677
0.18651187 0.02092882 0.80398307
0.46277776 0.00000000 0.80375986
0.62666624 0.00000000 0.80344661
0.74394948 0.00000000 0.80292649
0.84526620 0.00000000 0.80187273
0.92313109 0.00000000 0.79972220
0.97258358 0.00000000 0.79526713
0.00000000 0.27470029 0.80324520
0.00000000 0.26955704 0.80320029
0.07106501 0.25357332 0.80306547
0.42321462 0.22476350 0.80284041
0.61110517 0.17816936 0.80252454
0.73706014 0.06697625 0.80200008
0.84249880 0.00000000 0.80093746
0.92215990 0.00000000 0.79876870
0.97232915 0.00000000 0.79427512
0.00000000 0.45282794 0.80170132
0.00000000 0.44972642 0.80165579
0.00000000 0.44013425 0.80151908
0.34631836 0.42352956 0.80129085
0.58149744 0.39913706 0.80097055
0.72472519 0.35522642 0.80043870
0.83770096 0.24584033 0.79936106
0.92050355 0.00000000 0.79716133
0.97189812 0.00000000 0.79260237
0.00000000 0.58816250 0.79950330
0.00000000 0.58665272 0.79945686
0.00000000 0.58204343 0.79931744
0.19762908 0.57408184 0.79908467
0.52941254 0.56229954 0.79875799
0.70535787 0.54094721 0.79821551
0.83056193 0.48880440 0.79711623
0.91810218 0.32820467 0.79487192
0.97127973 0.00000000 0.79021875
0.00000000 0.69894031 0.79577026
0.00000000 0.69818838 0.79572226
0.00000000 0.69590894 0.79557814
0.00000000 0.69202880 0.79533753
0.39368073 0.68641837 0.79499981
0.66622124 0.67664620 0.79443897
0.81751882 0.65485253 0.79330231
0.91390416 0.59921201 0.79098093
0.97021714 0.37316678 0.78616473
0.00000000 0.80343929 0.78786845
0.00000000 0.80310813 0.78781704
0.00000000 0.80210869 0.78766265
0.00000000 0.80042274 0.78740487
0.00000000 0.79801891 0.78704303
0.53587397 0.79392662 0.78644201
0.78522349 0.78522349 0.78522349
0.90449429 0.76550104 0.78273321
0.96792000 0.71312210 0.77755905
0.00000000 0.89065568 0.77015293
0.00000000 0.89052755 0.77009329
0.00000000 0.89014184 0.76991417
0.00000000 0.88949448 0.76961507
0.00000000 0.88857860 0.76919509
0.00000000 0.88703857 0.76849721
0.67204430 0.88384240 0.76708119
0.88046079 0.87698444 0.76418248
0.96256445 0.86115069 0.75813885
0.00000000 0.95313374 0.72444801
0.00000000 0.95309317 0.72436317
0.00000000 0.95297121 0.72410833
0.00000000 0.95276704 0.72368255
0.00000000 0.95247929 0.72308422
0.00000000 0.95199838 0.72208875
0.00000000 0.95101193 0.72006413
0.79008185 0.94894755 0.71589940
0.94783459 0.94444371 0.70712651
0.00000000 0.00000000 0.89101908
0.00000000 0.00000000 0.89100181
0.00000000 0.00000000 0.89094999
0.38845831 0.00000000 0.89086353
0.59764412 0.00000000 0.89074232
0.73132828 0.00000000 0.89054137
0.84024450 0.00000000 0.89013548
0.92137735 0.00000000 0.88931214
0.97212505 0.00000000 0.88762778
0.00000000 0.03159065 0.89090106
0.00000000 0.01917424 0.89088377
0.00000000 0.00000000 0.89083186
0.37291477 0.00000000 0.89074526
0.59165669 0.00000000 0.89062385
0.72884546 0.00000000 0.89042259
0.83928144 0.00000000 0.89001604
0.92104537 0.00000000 0.88919136
0.97203871 0.00000000 0.88750425
0.00000000 0.25823775 0.89054587
0.00000000 0.25279846 0.89052849
0.00000000 0.23582771 0.89047633
0.32201581 0.20493394 0.89038931
0.57235009 0.15378336 0.89026732
0.72111348 0.02797243 0.89006508
0.83633359 0.00000000 0.88965656
0.92003779 0.00000000 0.88882787
0.97177758 0.00000000 0.88713247
0.00000000 0.44292254 0.88995006
0.00000000 0.43967354 0.88993254
0.00000000 0.42977662 0.88987996
0.21438197 0.41275893 0.88979224
0.53467043 0.38770182 0.88966925
0.70718423 0.34238373 0.88946538
0.83121509 0.22757710 0.88905353
0.91831878 0.00000000 0.88821808
0.97133520 0.00000000 0.88650873
0.00000000 0.58337520 0.88910780
0.00000000 0.58182329 0.88909008
0.00000000 0.57708358 0.88903690
0.00000000 0.56889034 0.88894818
0.46474929 0.55674989 0.88882379
0.68507740 0.53469949 0.88861758
0.82358019 0.48055716 0.88820103
0.91582516 0.31432607 0.88735597
0.97070047 0.00000000 0.88562679
0.00000000 0.69656505 0.88769335
0.00000000 0.69580069 0.88767530
0.00000000 0.69348325 0.88762110
0.00000000 0.68953744 0.88753069
0.28267903 0.68382980 0.88740393
0.63941132 0.67388180 0.88719378
0.80957077 0.65166474 0.88676924
0.91146181 0.59472454 0.88590792
0.96960972 0.36093591 0.88414517
0.00000000 0.80239568 0.88476502
0.00000000 0.80206139 0.88474625
0.00000000 0.80105245 0.88468993
0.00000000 0.79935036 0.88459596
0.00000000 0.79692324 0.88446421
0.47371518 0.79279057 0.88424577
0.77451737 0.78399837 0.88380446
0.90166199 0.76405740 0.88290896
0.96725121 0.71097289 0.88107560
0.00000000 0.89025245 0.87851445
0.00000000 0.89012362 0.87849412
0.00000000 0.88973578 0.87843311
0.00000000 0.88908486 0.87833130
0.00000000 0.88816392 0.87818856
0.00000000 0.88661530 0.87795188
0.64629784 0.88340099 0.87747363
0.87650279 0.87650279 0.87650279
0.96174947 0.86056886 0.87451368
0.00000000 0.95300616 0.86425277
0.00000000 0.95296545 0.86422862
0.00000000 0.95284307 0.86415614
0.00000000 0.95263818 0.86403521
0.00000000 0.95234944 0.86386562
0.00000000 0.95186684 0.86358435
0.00000000 0.95087693 0.86301574
0.77982613 0.94880520 0.86186047
0.94658875 0.94428496 0.85948911
0.00000000 0.00000000 0.95322691
0.00000000 0.00000000 0.95322143
0.00000000 0.00000000 0.95320498
0.07994613 0.00000000 0.95317755
0.49950623 0.00000000 0.95313911
0.69548990 0.00000000 0.95307544
0.82710329 0.00000000 0.95294702
0.91696547 0.00000000 0.95268731
0.97098969 0.00000000 0.95215928
0.00000000 0.00000000 0.95318946
0.00000000 0.00000000 0.95318397
0.00000000 0.00000000 0.95316750
0.02859993 0.00000000 0.95314004
0.48917156 0.00000000 0.95310157
0.69227885 0.00000000 0.95303783
0.82600315 0.00000000 0.95290927
0.91660749 0.00000000 0.95264930
0.97089871 0.00000000 0.95212073
0.00000000 0.22194893 0.95307686
0.00000000 0.21573294 0.95307136
0.00000000 0.19611584 0.95305484
0.00000000 0.15930701 0.95302730
0.45446943 0.09306886 0.95298870
0.68220293 0.00000000 0.95292477
0.82262998 0.00000000 0.95279582
0.91552062 0.00000000 0.95253504
0.97062352 0.00000000 0.95200484
0.00000000 0.42196708 0.95288844
0.00000000 0.41855544 0.95288290
0.00000000 0.40815164 0.95286630
0.00000000 0.39020730 0.95283862
0.38399195 0.36364263 0.95279982
0.66374451 0.31505885 0.95273556
0.81675227 0.18643997 0.95260595
0.91366486 0.00000000 0.95234383
0.97015728 0.00000000 0.95181090
0.00000000 0.57332994 0.95262301
0.00000000 0.57168669 0.95261744
0.00000000 0.56666399 0.95260072
0.00000000 0.55796690 0.95257284
0.25570547 0.54504460 0.95253376
0.63355659 0.52146023 0.95246904
0.80793451 0.46285052 0.95233849
0.91096957 0.28452643 0.95207448
0.96948825 0.00000000 0.95153769
0.00000000 0.69166608 0.95217976
0.00000000 0.69087560 0.95217412
0.00000000 0.68847837 0.95215720
0.00000000 0.68439452 0.95212898
0.00000000 0.67848233 0.95208944
0.56698237 0.66816364 0.95202394
0.79158949 0.64505039 0.95189183
0.90624379 0.58532782 0.95162465
0.96833831 0.33504350 0.95108139
0.00000000 0.80026612 0.95127188
0.00000000 0.79992538 0.95126611
0.00000000 0.79889689 0.95124877
0.00000000 0.79716155 0.95121987
0.00000000 0.79468644 0.95117937
0.27239886 0.79047051 0.95111227
0.74964552 0.78149452 0.95097694
0.89558418 0.76110159 0.95070324
0.96585068 0.70654779 0.95014668
0.00000000 0.88943455 0.94937765
0.00000000 0.88930429 0.94937159
0.00000000 0.88891215 0.94935339
0.00000000 0.88825396 0.94932303
0.00000000 0.88732270 0.94928050
0.00000000 0.88575656 0.94921004
0.57744277 0.88250532 0.94906792
0.86790409 0.87552507 0.94878047
0.96004049 0.85938660 0.94819586
0.00000000 0.95274817 0.94527111
0.00000000 0.95270718 0.94526440
0.00000000 0.95258393 0.94524428
0.00000000 0.95237761 0.94521072
0.00000000 0.95208683 0.94516369
0.00000000 0.95160083 0.94508577
0.00000000 0.95060389 0.94492860
0.75610244 0.94851729 0.94461066
0.94396381 0.94396381 0.94396381
