BT2100_PQ_to_BT601_NTSC.cube
TITLE "BT2100_PQ_to_BT601_NTSC"
LUT_3D_SIZE 5
# BT2020 HDR PQ to BT601 NTSC SDR by Francesco Bucciantini
0.00000000 0.00000000 0.00000000
0.52764826 0.00000000 0.00000000
0.90508540 0.00000000 0.00000000
0.99192549 0.00000000 0.00000000
0.99948631 0.00000000 0.00000000
0.00000000 0.43268005 0.00000000
0.41225181 0.39885225 0.00000000
0.90058094 0.00000000 0.00000000
0.99190637 0.00000000 0.00000000
0.99948397 0.00000000 0.00000000
0.00000000 0.85775270 0.00000000
0.00000000 0.85585033 0.00000000
0.84624637 0.83819416 0.00000000
0.99174253 0.00000000 0.00000000
0.99946432 0.00000000 0.00000000
0.00000000 0.99047289 0.00000000
0.00000000 0.99046620 0.00000000
0.00000000 0.99040973 0.00000000
0.99015887 0.98993796 0.00000000
0.99931042 0.00000000 0.00000000
0.00000000 0.99803372 0.00000000
0.00000000 0.99803290 0.00000000
0.00000000 0.99802602 0.00000000
0.00000000 0.99797296 0.00000000
0.99771970 0.99750683 0.00000000
0.00000000 0.00000000 0.41719016
0.51602006 0.00000000 0.41385917
0.90452365 0.00000000 0.38491427
0.99192304 0.00000000 0.00000000
0.99948601 0.00000000 0.00000000
0.00000000 0.42742116 0.39664969
0.39314790 0.39314790 0.39314790
0.89998038 0.00000000 0.36259939
0.99190391 0.00000000 0.00000000
0.99948367 0.00000000 0.00000000
0.00000000 0.85744963 0.14696068
0.00000000 0.85554074 0.13857643
0.84507093 0.83782018 0.04943055
0.99173996 0.00000000 0.00000000
0.99946402 0.00000000 0.00000000
0.00000000 0.99047182 0.00000000
0.00000000 0.99046512 0.00000000
0.00000000 0.99040864 0.00000000
0.99015487 0.98993635 0.00000000
0.99931011 0.00000000 0.00000000
0.00000000 0.99803359 0.00000000
0.00000000 0.99803277 0.00000000
0.00000000 0.99802588 0.00000000
0.00000000 0.99797283 0.00000000
0.99771921 0.99750667 0.00000000
0.00000000 0.00000000 0.84911073
0.38185095 0.00000000 0.84890680
0.89963600 0.00000000 0.84718464
0.99190251 0.00000000 0.83287224
0.99948350 0.00000000 0.37904583
0.00000000 0.38067984 0.84787196
0.17030515 0.34189738 0.84766529
0.89474804 0.00000000 0.84591988
0.99188327 0.00000000 0.83140429
0.99948115 0.00000000 0.35637720
0.00000000 0.85487562 0.83683012
0.00000000 0.85291083 0.83659811
0.83463724 0.83463724 0.83463724
0.99171835 0.00000000 0.81822644
0.99946149 0.00000000 0.02998118
0.00000000 0.99046281 0.66330027
0.00000000 0.99045610 0.66237880
0.00000000 0.99039948 0.65445600
0.99012129 0.98992245 0.57626710
0.99930746 0.00000000 0.00000000
0.00000000 0.99803248 0.00000000
0.00000000 0.99803166 0.00000000
0.00000000 0.99802478 0.00000000
0.00000000 0.99797170 0.00000000
0.99771510 0.99750540 0.00000000
0.00000000 0.00000000 0.99023592
0.00000000 0.00000000 0.99023521
0.84579470 0.00000000 0.99022933
0.99174154 0.00000000 0.99018403
0.99946420 0.00000000 0.98966939
0.00000000 0.00000000 0.99023167
0.00000000 0.00000000 0.99023096
0.83618496 0.00000000 0.99022507
0.99172142 0.00000000 0.99017972
0.99946185 0.00000000 0.98965897
0.00000000 0.83240828 0.99019595
0.00000000 0.82991469 0.99019524
0.68171655 0.80631619 0.99018929
0.99154875 0.00000000 0.99014348
0.99944208 0.00000000 0.98956635
0.00000000 0.99039322 0.98988838
0.00000000 0.99038637 0.98988723
0.00000000 0.99032864 0.98987747
0.98979465 0.98979465 0.98979465
0.99928720 0.00000000 0.98849646
0.00000000 0.99802402 0.94047697
0.00000000 0.99802320 0.94042366
0.00000000 0.99801630 0.93997567
0.00000000 0.99796310 0.93639950
0.99768354 0.99749560 0.89251633
0.00000000 0.00000000 0.99779674
0.00000000 0.00000000 0.99779666
0.00000000 0.00000000 0.99779594
0.99005567 0.00000000 0.99779041
0.99930237 0.00000000 0.99774486
0.00000000 0.00000000 0.99779622
0.00000000 0.00000000 0.99779614
0.00000000 0.00000000 0.99779541
0.99002351 0.00000000 0.99778988
0.99929990 0.00000000 0.99774433
0.00000000 0.00000000 0.99779186
0.00000000 0.00000000 0.99779177
0.00000000 0.00000000 0.99779105
0.98956108 0.00000000 0.99778551
0.99927922 0.00000000 0.99773990
0.00000000 0.98961765 0.99775829
0.00000000 0.98959889 0.99775820
0.00000000 0.98942589 0.99775747
0.94903708 0.98697397 0.99775188
0.99911703 0.00000000 0.99770584
0.00000000 0.99795405 0.99747129
0.00000000 0.99795321 0.99747120
0.00000000 0.99794617 0.99747040
0.00000000 0.99789192 0.99746435
0.99741446 0.99741446 0.99741446
