BT2100_PQ_to_BT601_NTSC.cube
TITLE "BT2100_PQ_to_BT601_NTSC"
LUT_3D_SIZE 9
# BT2020 HDR PQ to BT601 NTSC SDR by Francesco Bucciantini
0.00000000 0.00000000 0.00000000
0.25613407 0.00000000 0.00000000
0.52764826 0.00000000 0.00000000
0.75708339 0.00000000 0.00000000
0.90508540 0.00000000 0.00000000
0.97982798 0.00000000 0.00000000
0.99192549 0.00000000 0.00000000
0.99564580 0.00000000 0.00000000
0.99948631 0.00000000 0.00000000
0.00000000 0.19726683 0.00000000
0.18588365 0.17841705 0.00000000
0.50204750 0.11817742 0.00000000
0.75138648 0.00000000 0.00000000
0.90388675 0.00000000 0.00000000
0.97967569 0.00000000 0.00000000
0.99192028 0.00000000 0.00000000
0.99564395 0.00000000 0.00000000
0.99948567 0.00000000 0.00000000
0.00000000 0.43268005 0.00000000
0.00000000 0.42372120 0.00000000
0.41225181 0.39885225 0.00000000
0.73483958 0.31296875 0.00000000
0.90058094 0.00000000 0.00000000
0.97926097 0.00000000 0.00000000
0.99190637 0.00000000 0.00000000
0.99563900 0.00000000 0.00000000
0.99948397 0.00000000 0.00000000
0.00000000 0.68507343 0.00000000
0.00000000 0.68285173 0.00000000
0.00000000 0.67675874 0.00000000
0.66838356 0.65684813 0.00000000
0.88959989 0.58184456 0.00000000
0.97793873 0.00000000 0.00000000
0.99186428 0.00000000 0.00000000
0.99562410 0.00000000 0.00000000
0.99947885 0.00000000 0.00000000
0.00000000 0.85775270 0.00000000
0.00000000 0.85723799 0.00000000
0.00000000 0.85585033 0.00000000
0.00000000 0.85155133 0.00000000
0.84624637 0.83819416 0.00000000
0.97349194 0.78840339 0.00000000
0.99174253 0.00000000 0.00000000
0.99558164 0.00000000 0.00000000
0.99946432 0.00000000 0.00000000
0.00000000 0.95911004 0.00000000
0.00000000 0.95901873 0.00000000
0.00000000 0.95877390 0.00000000
0.00000000 0.95802762 0.00000000
0.00000000 0.95582250 0.00000000
0.95321201 0.94893215 0.00000000
0.99138408 0.92105453 0.00000000
0.99546198 0.00000000 0.00000000
0.99942399 0.00000000 0.00000000
0.00000000 0.99047289 0.00000000
0.00000000 0.99047107 0.00000000
0.00000000 0.99046620 0.00000000
0.00000000 0.99045153 0.00000000
0.00000000 0.99040973 0.00000000
0.00000000 0.99029199 0.00000000
0.99015887 0.98993796 0.00000000
0.99511000 0.98442024 0.00000000
0.99931042 0.00000000 0.00000000
0.00000000 0.99419321 0.00000000
0.00000000 0.99419256 0.00000000
0.00000000 0.99419082 0.00000000
0.00000000 0.99418561 0.00000000
0.00000000 0.99417082 0.00000000
0.00000000 0.99412975 0.00000000
0.00000000 0.99401408 0.00000000
0.99387918 0.99366631 0.00000000
0.99896940 0.99238550 0.00000000
0.00000000 0.99803372 0.00000000
0.00000000 0.99803350 0.00000000
0.00000000 0.99803290 0.00000000
0.00000000 0.99803110 0.00000000
0.00000000 0.99802602 0.00000000
0.00000000 0.99801197 0.00000000
0.00000000 0.99797296 0.00000000
0.00000000 0.99786061 0.00000000
0.99771970 0.99750683 0.00000000
0.00000000 0.00000000 0.18863544
0.24807644 0.00000000 0.18677932
0.52454796 0.00000000 0.18175451
0.75636602 0.00000000 0.16596326
0.90493270 0.00000000 0.11340548
0.97980853 0.00000000 0.00000000
0.99192482 0.00000000 0.00000000
0.99564556 0.00000000 0.00000000
0.99948623 0.00000000 0.00000000
0.00000000 0.19433643 0.17718972
0.17523843 0.17523843 0.17523843
0.49849841 0.11386794 0.16994841
0.75063632 0.00000000 0.15324442
0.90373128 0.00000000 0.09640065
0.97965601 0.00000000 0.00000000
0.99191962 0.00000000 0.00000000
0.99564371 0.00000000 0.00000000
0.99948559 0.00000000 0.00000000
0.00000000 0.43125246 0.14337619
0.00000000 0.42226355 0.14108384
0.40713014 0.39730482 0.13483401
0.73398841 0.31101641 0.11471238
0.90041771 0.00000000 0.04424324
0.97924069 0.00000000 0.00000000
0.99190570 0.00000000 0.00000000
0.99563876 0.00000000 0.00000000
0.99948389 0.00000000 0.00000000
0.00000000 0.68471854 0.00000000
0.00000000 0.68249151 0.00000000
0.00000000 0.67638358 0.00000000
0.66702975 0.65642104 0.00000000
0.88940954 0.58117307 0.00000000
0.97791655 0.00000000 0.00000000
0.99186360 0.00000000 0.00000000
0.99562386 0.00000000 0.00000000
0.99947876 0.00000000 0.00000000
0.00000000 0.85767017 0.00000000
0.00000000 0.85715498 0.00000000
0.00000000 0.85576602 0.00000000
0.00000000 0.85146293 0.00000000
0.84592732 0.83809233 0.00000000
0.97346338 0.78824093 0.00000000
0.99174183 0.00000000 0.00000000
0.99558140 0.00000000 0.00000000
0.99946424 0.00000000 0.00000000
0.00000000 0.95909538 0.00000000
0.00000000 0.95900403 0.00000000
0.00000000 0.95875909 0.00000000
0.00000000 0.95801247 0.00000000
0.00000000 0.95580633 0.00000000
0.95315274 0.94891269 0.00000000
0.99138330 0.92101990 0.00000000
0.99546173 0.00000000 0.00000000
0.99942390 0.00000000 0.00000000
0.00000000 0.99047260 0.00000000
0.00000000 0.99047077 0.00000000
0.00000000 0.99046590 0.00000000
0.00000000 0.99045123 0.00000000
0.00000000 0.99040943 0.00000000
0.00000000 0.99029168 0.00000000
0.99015778 0.98993752 0.00000000
0.99510972 0.98441652 0.00000000
0.99931033 0.00000000 0.00000000
0.00000000 0.99419310 0.00000000
0.00000000 0.99419245 0.00000000
0.00000000 0.99419072 0.00000000
0.00000000 0.99418550 0.00000000
0.00000000 0.99417071 0.00000000
0.00000000 0.99412965 0.00000000
0.00000000 0.99401397 0.00000000
0.99387879 0.99366619 0.00000000
0.99896930 0.99238532 0.00000000
0.00000000 0.99803368 0.00000000
0.00000000 0.99803346 0.00000000
0.00000000 0.99803286 0.00000000
0.00000000 0.99803107 0.00000000
0.00000000 0.99802598 0.00000000
0.00000000 0.99801193 0.00000000
0.00000000 0.99797292 0.00000000
0.00000000 0.99786057 0.00000000
0.99771956 0.99750679 0.00000000
0.00000000 0.00000000 0.41719016
0.22537410 0.00000000 0.41628453
0.51602006 0.00000000 0.41385917
0.75443240 0.00000000 0.40649208
0.90452365 0.00000000 0.38491427
0.97975648 0.00000000 0.31827923
0.99192304 0.00000000 0.00000000
0.99564493 0.00000000 0.00000000
0.99948601 0.00000000 0.00000000
0.00000000 0.18633882 0.41168951
0.14401254 0.16653073 0.41077191
0.48870186 0.10181457 0.40831429
0.74861366 0.00000000 0.40084704
0.90331480 0.00000000 0.37895588
0.97960338 0.00000000 0.31111671
0.99191783 0.00000000 0.00000000
0.99564307 0.00000000 0.00000000
0.99948537 0.00000000 0.00000000
0.00000000 0.42742116 0.39664969
0.00000000 0.41835068 0.39569788
0.39314790 0.39314790 0.39314790
0.73169114 0.30575209 0.38539349
0.89998038 0.00000000 0.36259939
0.97918646 0.00000000 0.29121859
0.99190391 0.00000000 0.00000000
0.99563812 0.00000000 0.00000000
0.99948367 0.00000000 0.00000000
0.00000000 0.68376770 0.34772911
0.00000000 0.68152632 0.34664807
0.00000000 0.67537826 0.34374857
0.66335911 0.65527604 0.33490095
0.88889940 0.57936920 0.30860170
0.97785723 0.00000000 0.22226712
0.99186179 0.00000000 0.00000000
0.99562322 0.00000000 0.00000000
0.99947854 0.00000000 0.00000000
0.00000000 0.85744963 0.14696068
0.00000000 0.85693317 0.14470951
0.00000000 0.85554074 0.13857643
0.00000000 0.85122670 0.11888099
0.84507093 0.83782018 0.04943055
0.97338701 0.78780645 0.00000000
0.99173996 0.00000000 0.00000000
0.99558075 0.00000000 0.00000000
0.99946402 0.00000000 0.00000000
0.00000000 0.95905624 0.00000000
0.00000000 0.95896478 0.00000000
0.00000000 0.95871954 0.00000000
0.00000000 0.95797201 0.00000000
0.00000000 0.95576315 0.00000000
0.95299416 0.94886073 0.00000000
0.99138123 0.92092744 0.00000000
0.99546106 0.00000000 0.00000000
0.99942368 0.00000000 0.00000000
0.00000000 0.99047182 0.00000000
0.00000000 0.99046999 0.00000000
0.00000000 0.99046512 0.00000000
0.00000000 0.99045045 0.00000000
0.00000000 0.99040864 0.00000000
0.00000000 0.99029085 0.00000000
0.99015487 0.98993635 0.00000000
0.99510899 0.98440662 0.00000000
0.99931011 0.00000000 0.00000000
0.00000000 0.99419282 0.00000000
0.00000000 0.99419217 0.00000000
0.00000000 0.99419044 0.00000000
0.00000000 0.99418522 0.00000000
0.00000000 0.99417043 0.00000000
0.00000000 0.99412936 0.00000000
0.00000000 0.99401368 0.00000000
0.99387776 0.99366587 0.00000000
0.99896905 0.99238486 0.00000000
0.00000000 0.99803359 0.00000000
0.00000000 0.99803336 0.00000000
0.00000000 0.99803277 0.00000000
0.00000000 0.99803097 0.00000000
0.00000000 0.99802588 0.00000000
0.00000000 0.99801184 0.00000000
0.00000000 0.99797283 0.00000000
0.00000000 0.99786047 0.00000000
0.99771921 0.99750667 0.00000000
0.00000000 0.00000000 0.67251475
0.14121339 0.00000000 0.67227866
0.48787156 0.00000000 0.67164710
0.74844542 0.00000000 0.66973515
0.90328033 0.00000000 0.66419621
0.97959903 0.00000000 0.64782473
0.99191768 0.00000000 0.59162905
0.99564302 0.00000000 0.17651721
0.99948536 0.00000000 0.00000000
0.00000000 0.16049554 0.67108299
0.01176796 0.13800580 0.67084468
0.45598779 0.06022435 0.67020713
0.74234491 0.00000000 0.66827697
0.90204874 0.00000000 0.66268433
0.97944415 0.00000000 0.64614566
0.99191247 0.00000000 0.58926981
0.99564117 0.00000000 0.16442231
0.99948472 0.00000000 0.00000000
0.00000000 0.41570862 0.66719680
0.00000000 0.40638010 0.66695236
0.34791719 0.38040215 0.66629838
0.72455031 0.28942025 0.66431815
0.89865057 0.00000000 0.65857779
0.97902239 0.00000000 0.64157831
0.99189853 0.00000000 0.58281538
0.99563621 0.00000000 0.12824639
0.99948301 0.00000000 0.00000000
0.00000000 0.68087614 0.65490498
0.00000000 0.67859073 0.65464038
0.00000000 0.67231938 0.65393239
0.65178749 0.65178749 0.65178749
0.88734661 0.57384001 0.64556035
0.97767778 0.00000000 0.62703398
0.99185635 0.00000000 0.56188408
0.99562130 0.00000000 0.00000000
0.99947789 0.00000000 0.00000000
0.00000000 0.85678424 0.61392763
0.00000000 0.85626391 0.61358698
0.00000000 0.85486099 0.61267487
0.00000000 0.85051384 0.60990643
0.84245230 0.83699853 0.60182377
0.97315596 0.78649224 0.57735716
0.99173433 0.00000000 0.48523372
0.99557881 0.00000000 0.00000000
0.99946336 0.00000000 0.00000000
0.00000000 0.95893846 0.39528107
0.00000000 0.95884667 0.39432603
0.00000000 0.95860053 0.39176733
0.00000000 0.95785025 0.38398578
0.00000000 0.95563320 0.36110595
0.95251392 0.94870431 0.28938312
0.99137501 0.92064894 0.00000000
0.99545906 0.00000000 0.00000000
0.99942301 0.00000000 0.00000000
0.00000000 0.99046947 0.00000000
0.00000000 0.99046764 0.00000000
0.00000000 0.99046276 0.00000000
0.00000000 0.99044808 0.00000000
0.00000000 0.99040625 0.00000000
0.00000000 0.99028838 0.00000000
0.99014613 0.98993278 0.00000000
0.99510678 0.98437680 0.00000000
0.99930942 0.00000000 0.00000000
0.00000000 0.99419199 0.00000000
0.00000000 0.99419134 0.00000000
0.00000000 0.99418960 0.00000000
0.00000000 0.99418438 0.00000000
0.00000000 0.99416959 0.00000000
0.00000000 0.99412851 0.00000000
0.00000000 0.99401280 0.00000000
0.99387465 0.99366490 0.00000000
0.99896829 0.99238348 0.00000000
0.00000000 0.99803330 0.00000000
0.00000000 0.99803308 0.00000000
0.00000000 0.99803248 0.00000000
0.00000000 0.99803068 0.00000000
0.00000000 0.99802560 0.00000000
0.00000000 0.99801154 0.00000000
0.00000000 0.99797253 0.00000000
0.00000000 0.99786017 0.00000000
0.99771813 0.99750634 0.00000000
0.00000000 0.00000000 0.84911073
0.00000000 0.00000000 0.84905517
0.38185095 0.00000000 0.84890680
0.72986462 0.00000000 0.84845993
0.89963600 0.00000000 0.84718464
0.97914385 0.00000000 0.84357800
0.99190251 0.00000000 0.83287224
0.99563762 0.00000000 0.79477059
0.99948350 0.00000000 0.37904583
0.00000000 0.06114129 0.84877459
0.00000000 0.02792582 0.84871883
0.33652846 0.00000000 0.84856992
0.72282890 0.00000000 0.84812143
0.89833658 0.00000000 0.84684148
0.97898383 0.00000000 0.84322144
0.99189727 0.00000000 0.83247412
0.99563577 0.00000000 0.79420112
0.99948286 0.00000000 0.37299665
0.00000000 0.38067984 0.84787196
0.00000000 0.37049254 0.84781565
0.17030515 0.34189738 0.84766529
0.70210574 0.23791962 0.84721241
0.89474804 0.00000000 0.84591988
0.97854810 0.00000000 0.84226373
0.99188327 0.00000000 0.83140429
0.99563081 0.00000000 0.79266802
0.99948115 0.00000000 0.35637720
0.00000000 0.67238563 0.84510850
0.00000000 0.66996729 0.84505051
0.00000000 0.66332323 0.84489565
0.61365074 0.64148612 0.84442920
0.88277580 0.55720809 0.84309771
0.97715908 0.00000000 0.83932962
0.99184091 0.00000000 0.82812210
0.99561588 0.00000000 0.78793854
0.99947602 0.00000000 0.30133832
0.00000000 0.85487562 0.83683012
0.00000000 0.85434410 0.83676691
0.00000000 0.85291083 0.83659811
0.00000000 0.84846787 0.83608957
0.83463724 0.83463724 0.83463724
0.97248805 0.78269433 0.83052126
0.99171835 0.00000000 0.81822644
0.99557332 0.00000000 0.77343185
0.99946149 0.00000000 0.02998118
0.00000000 0.95860309 0.80967676
0.00000000 0.95851034 0.80959450
0.00000000 0.95826164 0.80937476
0.00000000 0.95750354 0.80871238
0.00000000 0.95526310 0.80681735
0.95112168 0.94825869 0.80141957
0.99135736 0.91985415 0.78504538
0.99545338 0.00000000 0.72165828
0.99942112 0.00000000 0.00000000
0.00000000 0.99046281 0.66330027
0.00000000 0.99046098 0.66304957
0.00000000 0.99045610 0.66237880
0.00000000 0.99044139 0.66034743
0.00000000 0.99039948 0.65445600
0.00000000 0.99028139 0.63698407
0.99012129 0.98992245 0.57626710
0.99510051 0.98429189 0.08428091
0.99930746 0.00000000 0.00000000
0.00000000 0.99418962 0.00000000
0.00000000 0.99418897 0.00000000
0.00000000 0.99418723 0.00000000
0.00000000 0.99418201 0.00000000
0.00000000 0.99416721 0.00000000
0.00000000 0.99412610 0.00000000
0.00000000 0.99401031 0.00000000
0.99386583 0.99366216 0.00000000
0.99896615 0.99237957 0.00000000
0.00000000 0.99803248 0.00000000
0.00000000 0.99803226 0.00000000
0.00000000 0.99803166 0.00000000
0.00000000 0.99802986 0.00000000
0.00000000 0.99802478 0.00000000
0.00000000 0.99801072 0.00000000
0.00000000 0.99797170 0.00000000
0.00000000 0.99785931 0.00000000
0.99771510 0.99750540 0.00000000
0.00000000 0.00000000 0.95470512
0.00000000 0.00000000 0.95469490
0.00000000 0.00000000 0.95466762
0.66038457 0.00000000 0.95458561
0.88849230 0.00000000 0.95435267
0.97781002 0.00000000 0.95370285
0.99186035 0.00000000 0.95184961
0.99562272 0.00000000 0.94608460
0.99947837 0.00000000 0.92281767
0.00000000 0.00000000 0.95464334
0.00000000 0.00000000 0.95463310
0.00000000 0.00000000 0.95460577
0.64891889 0.00000000 0.95452361
0.88697431 0.00000000 0.95429027
0.97763500 0.00000000 0.95363932
0.99185506 0.00000000 0.95178281
0.99562085 0.00000000 0.94600736
0.99947773 0.00000000 0.92269342
0.00000000 0.26231717 0.95447800
0.00000000 0.24774206 0.95446772
0.00000000 0.20461366 0.95444027
0.61359960 0.00000000 0.95435772
0.88277019 0.00000000 0.95412330
0.97715845 0.00000000 0.95346931
0.99184089 0.00000000 0.95160405
0.99561587 0.00000000 0.94580062
0.99947602 0.00000000 0.92236063
0.00000000 0.64622619 0.95397700
0.00000000 0.64336259 0.95396657
0.00000000 0.63546410 0.95393874
0.42216342 0.60916454 0.95385503
0.86861229 0.50162811 0.95361731
0.97563954 0.00000000 0.95295409
0.99179802 0.00000000 0.95106226
0.99560088 0.00000000 0.94517377
0.99947089 0.00000000 0.92134969
0.00000000 0.84939848 0.95252182
0.00000000 0.84883409 0.95251097
0.00000000 0.84731160 0.95248201
0.00000000 0.84258665 0.95239491
0.80931551 0.82782379 0.95214754
0.97053050 0.77155390 0.95145731
0.99167398 0.00000000 0.94948769
0.99555814 0.00000000 0.94334976
0.99945633 0.00000000 0.91839148
0.00000000 0.95766074 0.94819558
0.00000000 0.95756530 0.94818345
0.00000000 0.95730938 0.94815106
0.00000000 0.95652917 0.94805366
0.00000000 0.95422271 0.94777699
0.94700469 0.94700469 0.94700469
0.99130828 0.91760638 0.94479829
0.99543769 0.00000000 0.93789711
0.99941591 0.00000000 0.90939517
0.00000000 0.99044442 0.93330563
0.00000000 0.99044258 0.93328875
0.00000000 0.99043767 0.93324370
0.00000000 0.99042289 0.93310820
0.00000000 0.99038075 0.93272307
0.00000000 0.99026204 0.93164638
0.99005196 0.98989219 0.92855679
0.99508320 0.98405338 0.91875734
0.99930208 0.00000000 0.87573819
0.00000000 0.99418308 0.83823295
0.00000000 0.99418243 0.83817064
0.00000000 0.99418069 0.83800425
0.00000000 0.99417546 0.83750300
0.00000000 0.99416063 0.83607158
0.00000000 0.99411945 0.83201591
0.00000000 0.99400344 0.81991014
0.99384143 0.99365459 0.77592724
0.99896023 0.99236877 0.10189567
0.00000000 0.99803023 0.00000000
0.00000000 0.99803001 0.00000000
0.00000000 0.99802941 0.00000000
0.00000000 0.99802761 0.00000000
0.00000000 0.99802252 0.00000000
0.00000000 0.99800846 0.00000000
0.00000000 0.99796941 0.00000000
0.00000000 0.99785695 0.00000000
0.99770673 0.99750279 0.00000000
0.00000000 0.00000000 0.99023592
0.00000000 0.00000000 0.99023572
0.00000000 0.00000000 0.99023521
0.00000000 0.00000000 0.99023368
0.84579470 0.00000000 0.99022933
0.97345153 0.00000000 0.99021733
0.99174154 0.00000000 0.99018403
0.99558130 0.00000000 0.99008842
0.99946420 0.00000000 0.98966939
0.00000000 0.00000000 0.99023476
0.00000000 0.00000000 0.99023457
0.00000000 0.00000000 0.99023405
0.00000000 0.00000000 0.99023252
0.84326860 0.00000000 0.99022817
0.97322759 0.00000000 0.99021616
0.99173606 0.00000000 0.99018285
0.99557941 0.00000000 0.99008722
0.99946356 0.00000000 0.98966656
0.00000000 0.00000000 0.99023167
0.00000000 0.00000000 0.99023147
0.00000000 0.00000000 0.99023096
0.00000000 0.00000000 0.99022942
0.83618496 0.00000000 0.99022507
0.97261780 0.00000000 0.99021305
0.99172142 0.00000000 0.99017972
0.99557437 0.00000000 0.99008400
0.99946185 0.00000000 0.98965897
0.00000000 0.54038587 0.99022237
0.00000000 0.53506241 0.99022218
0.00000000 0.52007262 0.99022166
0.00000000 0.46643084 0.99022012
0.81130148 0.21531980 0.99021576
0.97067337 0.00000000 0.99020371
0.99167710 0.00000000 0.99017028
0.99555921 0.00000000 0.99007431
0.99945669 0.00000000 0.98963574
0.00000000 0.83240828 0.99019595
0.00000000 0.83173451 0.99019576
0.00000000 0.82991469 0.99019524
0.00000000 0.82424570 0.99019369
0.68171655 0.80631619 0.99018929
0.96411276 0.73440546 0.99017715
0.99154875 0.00000000 0.99014348
0.99551597 0.00000000 0.99004678
0.99944208 0.00000000 0.98956635
0.00000000 0.95491829 0.99012213
0.00000000 0.95481492 0.99012193
0.00000000 0.95453770 0.99012140
0.00000000 0.95369230 0.99011982
0.00000000 0.95119080 0.99011533
0.93306523 0.94333896 0.99010294
0.99116943 0.91093839 0.99006856
0.99539408 0.00000000 0.98996729
0.99940149 0.00000000 0.98934603
0.00000000 0.99039322 0.98988838
0.00000000 0.99039136 0.98988806
0.00000000 0.99038637 0.98988723
0.00000000 0.99037138 0.98988470
0.00000000 0.99032864 0.98987747
0.00000000 0.99020817 0.98985685
0.98979465 0.98979465 0.98979465
0.99503506 0.98336034 0.98957503
0.99928720 0.00000000 0.98849646
0.00000000 0.99416501 0.98763920
0.00000000 0.99416435 0.98763789
0.00000000 0.99416260 0.98763440
0.00000000 0.99415735 0.98762390
0.00000000 0.99414244 0.98759406
0.00000000 0.99410105 0.98751067
0.00000000 0.99398444 0.98727176
0.99377331 0.99363366 0.98652298
0.99894387 0.99233883 0.98356694
0.00000000 0.99802402 0.94047697
0.00000000 0.99802380 0.94046244
0.00000000 0.99802320 0.94042366
0.00000000 0.99802140 0.94030704
0.00000000 0.99801630 0.93997567
0.00000000 0.99800221 0.93904998
0.00000000 0.99796310 0.93639950
0.00000000 0.99785043 0.92805103
0.99768354 0.99749560 0.89251633
0.00000000 0.00000000 0.99395623
0.00000000 0.00000000 0.99395616
0.00000000 0.00000000 0.99395598
0.00000000 0.00000000 0.99395543
0.00000000 0.00000000 0.99395388
0.95318156 0.00000000 0.99394961
0.99138368 0.00000000 0.99393782
0.99546185 0.00000000 0.99390434
0.99942394 0.00000000 0.99380363
0.00000000 0.00000000 0.99395582
0.00000000 0.00000000 0.99395575
0.00000000 0.00000000 0.99395557
0.00000000 0.00000000 0.99395502
0.00000000 0.00000000 0.99395347
0.95271698 0.00000000 0.99394920
0.99137763 0.00000000 0.99393740
0.99545990 0.00000000 0.99390392
0.99942329 0.00000000 0.99380320
0.00000000 0.00000000 0.99395472
0.00000000 0.00000000 0.99395465
0.00000000 0.00000000 0.99395447
0.00000000 0.00000000 0.99395392
0.00000000 0.00000000 0.99395237
0.95144858 0.00000000 0.99394810
0.99136146 0.00000000 0.99393630
0.99545469 0.00000000 0.99390281
0.99942156 0.00000000 0.99380205
0.00000000 0.00000000 0.99395141
0.00000000 0.00000000 0.99395134
0.00000000 0.00000000 0.99395116
0.00000000 0.00000000 0.99395061
0.00000000 0.00000000 0.99394906
0.94736916 0.00000000 0.99394478
0.99131245 0.00000000 0.99393297
0.99543901 0.00000000 0.99389945
0.99941635 0.00000000 0.99379860
0.00000000 0.76073406 0.99394203
0.00000000 0.75945773 0.99394197
0.00000000 0.75598859 0.99394178
0.00000000 0.74496978 0.99394123
0.00000000 0.70773815 0.99393968
0.93315009 0.49228079 0.99393539
0.99117017 0.00000000 0.99392355
0.99539431 0.00000000 0.99388994
0.99940157 0.00000000 0.99378882
0.00000000 0.94585874 0.99391608
0.00000000 0.94572802 0.99391601
0.00000000 0.94537732 0.99391582
0.00000000 0.94430669 0.99391527
0.00000000 0.94112827 0.99391371
0.85095517 0.93104433 0.99390939
0.99074631 0.88740016 0.99389746
0.99526815 0.00000000 0.99386360
0.99936052 0.00000000 0.99376173
0.00000000 0.99024478 0.99384355
0.00000000 0.99024284 0.99384348
0.00000000 0.99023765 0.99384329
0.00000000 0.99022202 0.99384273
0.00000000 0.99017746 0.99384113
0.00000000 0.99005174 0.99383673
0.98759183 0.98940028 0.99382456
0.99489570 0.98109837 0.99379001
0.99924491 0.00000000 0.99368600
0.00000000 0.99411354 0.99363078
0.00000000 0.99411287 0.99363070
0.00000000 0.99411110 0.99363050
0.00000000 0.99410576 0.99362990
0.00000000 0.99409065 0.99362821
0.00000000 0.99404865 0.99362353
0.00000000 0.99393031 0.99361062
0.99357395 0.99357395 0.99357395
0.99889732 0.99225302 0.99346343
0.00000000 0.99800645 0.99291744
0.00000000 0.99800622 0.99291735
0.00000000 0.99800562 0.99291710
0.00000000 0.99800381 0.99291637
0.00000000 0.99799869 0.99291431
0.00000000 0.99798453 0.99290861
0.00000000 0.99794522 0.99289286
0.00000000 0.99783199 0.99284806
0.99761735 0.99747525 0.99271243
0.00000000 0.00000000 0.99779674
0.00000000 0.00000000 0.99779672
0.00000000 0.00000000 0.99779666
0.00000000 0.00000000 0.99779647
0.00000000 0.00000000 0.99779594
0.00000000 0.00000000 0.99779446
0.99005567 0.00000000 0.99779041
0.99508412 0.00000000 0.99777894
0.99930237 0.00000000 0.99774486
0.00000000 0.00000000 0.99779660
0.00000000 0.00000000 0.99779658
0.00000000 0.00000000 0.99779652
0.00000000 0.00000000 0.99779633
0.00000000 0.00000000 0.99779579
0.00000000 0.00000000 0.99779432
0.99004693 0.00000000 0.99779026
0.99508196 0.00000000 0.99777879
0.99930169 0.00000000 0.99774471
0.00000000 0.00000000 0.99779622
0.00000000 0.00000000 0.99779620
0.00000000 0.00000000 0.99779614
0.00000000 0.00000000 0.99779595
0.00000000 0.00000000 0.99779541
0.00000000 0.00000000 0.99779394
0.99002351 0.00000000 0.99778988
0.99507617 0.00000000 0.99777841
0.99929990 0.00000000 0.99774433
0.00000000 0.00000000 0.99779508
0.00000000 0.00000000 0.99779506
0.00000000 0.00000000 0.99779500
0.00000000 0.00000000 0.99779481
0.00000000 0.00000000 0.99779427
0.00000000 0.00000000 0.99779280
0.98994600 0.00000000 0.99778874
0.99505876 0.00000000 0.99777727
0.99929451 0.00000000 0.99774317
0.00000000 0.00000000 0.99779186
0.00000000 0.00000000 0.99779183
0.00000000 0.00000000 0.99779177
0.00000000 0.00000000 0.99779158
0.00000000 0.00000000 0.99779105
0.00000000 0.00000000 0.99778957
0.98956108 0.00000000 0.99778551
0.99500904 0.00000000 0.99777403
0.99927922 0.00000000 0.99773990
0.00000000 0.90000761 0.99778295
0.00000000 0.89970654 0.99778293
0.00000000 0.89889697 0.99778286
0.00000000 0.89640857 0.99778267
0.00000000 0.88886575 0.99778214
0.00000000 0.86320442 0.99778066
0.98684737 0.69686567 0.99777659
0.99486839 0.00000000 0.99776508
0.99923675 0.00000000 0.99773086
0.00000000 0.98961765 0.99775829
0.00000000 0.98961257 0.99775827
0.00000000 0.98959889 0.99775820
0.00000000 0.98955650 0.99775801
0.00000000 0.98942589 0.99775747
0.00000000 0.98897916 0.99775599
0.94903708 0.98697397 0.99775188
0.99444965 0.97091779 0.99774029
0.99911703 0.00000000 0.99770584
0.00000000 0.99395711 0.99768782
0.00000000 0.99395641 0.99768779
0.00000000 0.99395456 0.99768773
0.00000000 0.99394899 0.99768753
0.00000000 0.99393320 0.99768698
0.00000000 0.99388932 0.99768547
0.00000000 0.99376554 0.99768128
0.99291136 0.99339163 0.99766946
0.99875625 0.99198702 0.99763432
0.00000000 0.99795405 0.99747129
0.00000000 0.99795382 0.99747126
0.00000000 0.99795321 0.99747120
0.00000000 0.99795137 0.99747099
0.00000000 0.99794617 0.99747040
0.00000000 0.99793181 0.99746879
0.00000000 0.99789192 0.99746435
0.00000000 0.99777698 0.99745180
0.99741446 0.99741446 0.99741446
