BT2100_PQ_to_BT601_NTSC.cube
TITLE "BT2100_PQ_to_BT601_NTSC"
LUT_3D_SIZE 33
# BT2020 HDR PQ to BT601 NTSC SDR by Francesco Bucciantini
0.00000000 0.00000000 0.00000000
0.08856999 0.00000000 0.00000000
0.15145026 0.00000000 0.00000000
0.20295248 0.00000000 0.00000000
0.25613407 0.00000000 0.00000000
0.31549330 0.00000000 0.00000000
0.38178236 0.00000000 0.00000000
0.45553802 0.00000000 0.00000000
0.52764826 0.00000000 0.00000000
0.59348230 0.00000000 0.00000000
0.65345288 0.00000000 0.00000000
0.70789546 0.00000000 0.00000000
0.75708339 0.00000000 0.00000000
0.80123816 0.00000000 0.00000000
0.84053696 0.00000000 0.00000000
0.87511814 0.00000000 0.00000000
0.90508540 0.00000000 0.00000000
0.93051084 0.00000000 0.00000000
0.95143734 0.00000000 0.00000000
0.96788014 0.00000000 0.00000000
0.97982798 0.00000000 0.00000000
0.98724369 0.00000000 0.00000000
0.99008362 0.00000000 0.00000000
0.99100411 0.00000000 0.00000000
0.99192549 0.00000000 0.00000000
0.99284904 0.00000000 0.00000000
0.99377607 0.00000000 0.00000000
0.99470788 0.00000000 0.00000000
0.99564580 0.00000000 0.00000000
0.99659118 0.00000000 0.00000000
0.99754541 0.00000000 0.00000000
0.99850995 0.00000000 0.00000000
0.99948631 0.00000000 0.00000000
0.00000000 0.05915676 0.00000000
0.05422408 0.05111639 0.00000000
0.12705135 0.04387076 0.00000000
0.18395958 0.03599474 0.00000000
0.24074700 0.02594129 0.00000000
0.30285620 0.01232856 0.00000000
0.37129741 0.00000000 0.00000000
0.44697750 0.00000000 0.00000000
0.52175998 0.00000000 0.00000000
0.58941117 0.00000000 0.00000000
0.65063025 0.00000000 0.00000000
0.70593742 0.00000000 0.00000000
0.75572752 0.00000000 0.00000000
0.80030335 0.00000000 0.00000000
0.83989720 0.00000000 0.00000000
0.87468521 0.00000000 0.00000000
0.90479722 0.00000000 0.00000000
0.93032361 0.00000000 0.00000000
0.95132006 0.00000000 0.00000000
0.96781090 0.00000000 0.00000000
0.97979127 0.00000000 0.00000000
0.98722860 0.00000000 0.00000000
0.99008152 0.00000000 0.00000000
0.99100249 0.00000000 0.00000000
0.99192423 0.00000000 0.00000000
0.99284807 0.00000000 0.00000000
0.99377532 0.00000000 0.00000000
0.99470730 0.00000000 0.00000000
0.99564535 0.00000000 0.00000000
0.99659083 0.00000000 0.00000000
0.99754514 0.00000000 0.00000000
0.99850974 0.00000000 0.00000000
0.99948616 0.00000000 0.00000000
0.00000000 0.10993547 0.00000000
0.02334146 0.10307652 0.00000000
0.10190774 0.09664208 0.00000000
0.16539804 0.08934088 0.00000000
0.22611175 0.07925084 0.00000000
0.29103686 0.06563811 0.00000000
0.36159782 0.04735035 0.00000000
0.43895650 0.02296159 0.00000000
0.51629197 0.00000000 0.00000000
0.58565883 0.00000000 0.00000000
0.64804272 0.00000000 0.00000000
0.70414958 0.00000000 0.00000000
0.75449316 0.00000000 0.00000000
0.79945420 0.00000000 0.00000000
0.83931703 0.00000000 0.00000000
0.87429308 0.00000000 0.00000000
0.90453645 0.00000000 0.00000000
0.93015430 0.00000000 0.00000000
0.95121406 0.00000000 0.00000000
0.96774833 0.00000000 0.00000000
0.97975811 0.00000000 0.00000000
0.98721495 0.00000000 0.00000000
0.99007963 0.00000000 0.00000000
0.99100102 0.00000000 0.00000000
0.99192309 0.00000000 0.00000000
0.99284719 0.00000000 0.00000000
0.99377464 0.00000000 0.00000000
0.99470678 0.00000000 0.00000000
0.99564495 0.00000000 0.00000000
0.99659052 0.00000000 0.00000000
0.99754490 0.00000000 0.00000000
0.99850956 0.00000000 0.00000000
0.99948602 0.00000000 0.00000000
0.00000000 0.15290065 0.00000000
0.00000000 0.14748125 0.00000000
0.06951905 0.14246961 0.00000000
0.14322211 0.13687364 0.00000000
0.20923053 0.12948576 0.00000000
0.27767160 0.11899058 0.00000000
0.35076296 0.10383409 0.00000000
0.43003256 0.08090916 0.00000000
0.51016453 0.04859566 0.00000000
0.58148639 0.00602550 0.00000000
0.64518142 0.00000000 0.00000000
0.70218055 0.00000000 0.00000000
0.75313774 0.00000000 0.00000000
0.79852382 0.00000000 0.00000000
0.83868240 0.00000000 0.00000000
0.87386470 0.00000000 0.00000000
0.90425183 0.00000000 0.00000000
0.92996963 0.00000000 0.00000000
0.95109851 0.00000000 0.00000000
0.96768014 0.00000000 0.00000000
0.97972197 0.00000000 0.00000000
0.98720007 0.00000000 0.00000000
0.99007757 0.00000000 0.00000000
0.99099943 0.00000000 0.00000000
0.99192186 0.00000000 0.00000000
0.99284623 0.00000000 0.00000000
0.99377390 0.00000000 0.00000000
0.99470621 0.00000000 0.00000000
0.99564451 0.00000000 0.00000000
0.99659018 0.00000000 0.00000000
0.99754464 0.00000000 0.00000000
0.99850936 0.00000000 0.00000000
0.99948587 0.00000000 0.00000000
0.00000000 0.19726683 0.00000000
0.00000000 0.19284011 0.00000000
0.02666889 0.18877943 0.00000000
0.11067600 0.18428450 0.00000000
0.18588365 0.17841705 0.00000000
0.25971945 0.17022183 0.00000000
0.33645105 0.15870683 0.00000000
0.41836697 0.14229385 0.00000000
0.50204750 0.11817742 0.00000000
0.57601222 0.07999341 0.00000000
0.64145293 0.02418587 0.00000000
0.69962732 0.00000000 0.00000000
0.75138648 0.00000000 0.00000000
0.79732493 0.00000000 0.00000000
0.83786626 0.00000000 0.00000000
0.87331460 0.00000000 0.00000000
0.90388675 0.00000000 0.00000000
0.92973296 0.00000000 0.00000000
0.95095050 0.00000000 0.00000000
0.96759284 0.00000000 0.00000000
0.97967569 0.00000000 0.00000000
0.98718100 0.00000000 0.00000000
0.99007495 0.00000000 0.00000000
0.99099739 0.00000000 0.00000000
0.99192028 0.00000000 0.00000000
0.99284501 0.00000000 0.00000000
0.99377296 0.00000000 0.00000000
0.99470548 0.00000000 0.00000000
0.99564395 0.00000000 0.00000000
0.99658975 0.00000000 0.00000000
0.99754431 0.00000000 0.00000000
0.99850911 0.00000000 0.00000000
0.99948567 0.00000000 0.00000000
0.00000000 0.24678664 0.00000000
0.00000000 0.24313176 0.00000000
0.00000000 0.23979677 0.00000000
0.05533338 0.23612551 0.00000000
0.14993249 0.23136664 0.00000000
0.23350080 0.22478619 0.00000000
0.31610300 0.21567965 0.00000000
0.40203916 0.20300900 0.00000000
0.49048477 0.18514672 0.00000000
0.56831940 0.15927716 0.00000000
0.63626244 0.11958918 0.00000000
0.69609670 0.05148646 0.00000000
0.74897659 0.00000000 0.00000000
0.79568105 0.00000000 0.00000000
0.83675016 0.00000000 0.00000000
0.87256382 0.00000000 0.00000000
0.90338924 0.00000000 0.00000000
0.92941078 0.00000000 0.00000000
0.95074917 0.00000000 0.00000000
0.96747414 0.00000000 0.00000000
0.97961278 0.00000000 0.00000000
0.98715506 0.00000000 0.00000000
0.99007139 0.00000000 0.00000000
0.99099464 0.00000000 0.00000000
0.99191815 0.00000000 0.00000000
0.99284336 0.00000000 0.00000000
0.99377168 0.00000000 0.00000000
0.99470449 0.00000000 0.00000000
0.99564319 0.00000000 0.00000000
0.99658916 0.00000000 0.00000000
0.99754386 0.00000000 0.00000000
0.99850876 0.00000000 0.00000000
0.99948541 0.00000000 0.00000000
0.00000000 0.30208758 0.00000000
0.00000000 0.29904439 0.00000000
0.00000000 0.29627743 0.00000000
0.00000000 0.29324264 0.00000000
0.08813342 0.28932663 0.00000000
0.19368334 0.28394601 0.00000000
0.28667698 0.27656865 0.00000000
0.37902202 0.26644543 0.00000000
0.47379409 0.25248011 0.00000000
0.55743458 0.23297531 0.00000000
0.62901693 0.20505771 0.00000000
0.69121467 0.16304323 0.00000000
0.74566681 0.09119173 0.00000000
0.79343447 0.00000000 0.00000000
0.83523044 0.00000000 0.00000000
0.87154431 0.00000000 0.00000000
0.90271502 0.00000000 0.00000000
0.92897483 0.00000000 0.00000000
0.95047704 0.00000000 0.00000000
0.96731379 0.00000000 0.00000000
0.97952780 0.00000000 0.00000000
0.98711998 0.00000000 0.00000000
0.99006660 0.00000000 0.00000000
0.99099093 0.00000000 0.00000000
0.99191528 0.00000000 0.00000000
0.99284114 0.00000000 0.00000000
0.99376997 0.00000000 0.00000000
0.99470317 0.00000000 0.00000000
0.99564216 0.00000000 0.00000000
0.99658838 0.00000000 0.00000000
0.99754326 0.00000000 0.00000000
0.99850830 0.00000000 0.00000000
0.99948506 0.00000000 0.00000000
0.00000000 0.36381830 0.00000000
0.00000000 0.36126684 0.00000000
0.00000000 0.35895267 0.00000000
0.00000000 0.35642084 0.00000000
0.00000000 0.35316384 0.00000000
0.12700565 0.34870750 0.00000000
0.24253330 0.34263398 0.00000000
0.34603588 0.33437179 0.00000000
0.44911657 0.32311901 0.00000000
0.54182162 0.30770966 0.00000000
0.61882752 0.28635732 0.00000000
0.68444108 0.25609081 0.00000000
0.74111814 0.21122438 0.00000000
0.79036809 0.13725950 0.00000000
0.83316655 0.00000000 0.00000000
0.87016489 0.00000000 0.00000000
0.90180529 0.00000000 0.00000000
0.92838779 0.00000000 0.00000000
0.95011111 0.00000000 0.00000000
0.96709837 0.00000000 0.00000000
0.97941366 0.00000000 0.00000000
0.98707277 0.00000000 0.00000000
0.99006020 0.00000000 0.00000000
0.99098598 0.00000000 0.00000000
0.99191145 0.00000000 0.00000000
0.99283818 0.00000000 0.00000000
0.99376768 0.00000000 0.00000000
0.99470140 0.00000000 0.00000000
0.99564080 0.00000000 0.00000000
0.99658733 0.00000000 0.00000000
0.99754246 0.00000000 0.00000000
0.99850769 0.00000000 0.00000000
0.99948459 0.00000000 0.00000000
0.00000000 0.43268005 0.00000000
0.00000000 0.43052839 0.00000000
0.00000000 0.42858021 0.00000000
0.00000000 0.42645252 0.00000000
0.00000000 0.42372120 0.00000000
0.00000000 0.41999486 0.00000000
0.17016582 0.41493669 0.00000000
0.29707703 0.40809486 0.00000000
0.41225181 0.39885225 0.00000000
0.51887376 0.38634598 0.00000000
0.60429019 0.36932848 0.00000000
0.67496461 0.34590489 0.00000000
0.73483958 0.31296875 0.00000000
0.78617580 0.26473064 0.00000000
0.83036430 0.18730525 0.00000000
0.86830146 0.02112297 0.00000000
0.90058094 0.00000000 0.00000000
0.92759988 0.00000000 0.00000000
0.94962092 0.00000000 0.00000000
0.96681014 0.00000000 0.00000000
0.97926097 0.00000000 0.00000000
0.98700949 0.00000000 0.00000000
0.99005171 0.00000000 0.00000000
0.99097942 0.00000000 0.00000000
0.99190637 0.00000000 0.00000000
0.99283425 0.00000000 0.00000000
0.99376464 0.00000000 0.00000000
0.99469906 0.00000000 0.00000000
0.99563900 0.00000000 0.00000000
0.99658594 0.00000000 0.00000000
0.99754139 0.00000000 0.00000000
0.99850687 0.00000000 0.00000000
0.99948397 0.00000000 0.00000000
0.00000000 0.50402946 0.00000000
0.00000000 0.50248359 0.00000000
0.00000000 0.50107984 0.00000000
0.00000000 0.49954234 0.00000000
0.00000000 0.49756190 0.00000000
0.00000000 0.49484776 0.00000000
0.01601821 0.49114100 0.00000000
0.21821379 0.48608588 0.00000000
0.35794317 0.47918185 0.00000000
0.48368914 0.46970350 0.00000000
0.58302547 0.45655752 0.00000000
0.66150283 0.43802823 0.00000000
0.72609234 0.41228552 0.00000000
0.78041322 0.37632930 0.00000000
0.82654917 0.32417724 0.00000000
0.86578205 0.24213938 0.00000000
0.89893399 0.06951312 0.00000000
0.92654393 0.00000000 0.00000000
0.94896566 0.00000000 0.00000000
0.96642546 0.00000000 0.00000000
0.97905725 0.00000000 0.00000000
0.98692483 0.00000000 0.00000000
0.99004050 0.00000000 0.00000000
0.99097075 0.00000000 0.00000000
0.99189967 0.00000000 0.00000000
0.99282907 0.00000000 0.00000000
0.99376064 0.00000000 0.00000000
0.99469597 0.00000000 0.00000000
0.99563662 0.00000000 0.00000000
0.99658411 0.00000000 0.00000000
0.99753999 0.00000000 0.00000000
0.99850580 0.00000000 0.00000000
0.99948315 0.00000000 0.00000000
0.00000000 0.56972079 0.00000000
0.00000000 0.56863660 0.00000000
0.00000000 0.56765391 0.00000000
0.00000000 0.56657955 0.00000000
0.00000000 0.56519875 0.00000000
0.00000000 0.56331199 0.00000000
0.00000000 0.56074569 0.00000000
0.04658119 0.55726545 0.00000000
0.27173690 0.55254900 0.00000000
0.42581699 0.54614329 0.00000000
0.55057620 0.53739283 0.00000000
0.64188361 0.52531230 0.00000000
0.71370725 0.50834307 0.00000000
0.77241020 0.48384048 0.00000000
0.82132148 0.44684187 0.00000000
0.86236277 0.39022089 0.00000000
0.89671422 0.30247413 0.00000000
0.92512780 0.13083259 0.00000000
0.94808998 0.00000000 0.00000000
0.96591247 0.00000000 0.00000000
0.97878572 0.00000000 0.00000000
0.98681159 0.00000000 0.00000000
0.99002574 0.00000000 0.00000000
0.99095935 0.00000000 0.00000000
0.99189086 0.00000000 0.00000000
0.99282227 0.00000000 0.00000000
0.99375538 0.00000000 0.00000000
0.99469192 0.00000000 0.00000000
0.99563349 0.00000000 0.00000000
0.99658171 0.00000000 0.00000000
0.99753815 0.00000000 0.00000000
0.99850439 0.00000000 0.00000000
0.99948208 0.00000000 0.00000000
0.00000000 0.62997661 0.00000000
0.00000000 0.62921507 0.00000000
0.00000000 0.62852576 0.00000000
0.00000000 0.62777317 0.00000000
0.00000000 0.62680748 0.00000000
0.00000000 0.62549079 0.00000000
0.00000000 0.62370518 0.00000000
0.00000000 0.62129343 0.00000000
0.09160437 0.61804301 0.00000000
0.33134969 0.61366175 0.00000000
0.49720637 0.60773915 0.00000000
0.61204864 0.59968188 0.00000000
0.69570330 0.58859958 0.00000000
0.76110410 0.57308794 0.00000000
0.81407666 0.55077578 0.00000000
0.85768715 0.51725136 0.00000000
0.89370762 0.46299046 0.00000000
0.92322272 0.36900100 0.00000000
0.94691749 0.19260663 0.00000000
0.96522760 0.00000000 0.00000000
0.97842346 0.00000000 0.00000000
0.98665985 0.00000000 0.00000000
0.99000638 0.00000000 0.00000000
0.99094441 0.00000000 0.00000000
0.99187933 0.00000000 0.00000000
0.99281336 0.00000000 0.00000000
0.99374851 0.00000000 0.00000000
0.99468662 0.00000000 0.00000000
0.99562941 0.00000000 0.00000000
0.99657857 0.00000000 0.00000000
0.99753574 0.00000000 0.00000000
0.99850255 0.00000000 0.00000000
0.99948067 0.00000000 0.00000000
0.00000000 0.68507343 0.00000000
0.00000000 0.68453866 0.00000000
0.00000000 0.68405510 0.00000000
0.00000000 0.68352768 0.00000000
0.00000000 0.68285173 0.00000000
0.00000000 0.68193157 0.00000000
0.00000000 0.68068641 0.00000000
0.00000000 0.67900959 0.00000000
0.00000000 0.67675874 0.00000000
0.14329096 0.67374131 0.00000000
0.39771586 0.66969258 0.00000000
0.56319073 0.66424065 0.00000000
0.66838356 0.65684813 0.00000000
0.74469171 0.64670922 0.00000000
0.80385311 0.63255506 0.00000000
0.85121380 0.61225003 0.00000000
0.88959989 0.58184456 0.00000000
0.92064411 0.53291099 0.00000000
0.94534065 0.44242848 0.00000000
0.96431018 0.25723493 0.00000000
0.97793873 0.00000000 0.00000000
0.98645572 0.00000000 0.00000000
0.98998005 0.00000000 0.00000000
0.99092490 0.00000000 0.00000000
0.99186428 0.00000000 0.00000000
0.99280175 0.00000000 0.00000000
0.99373955 0.00000000 0.00000000
0.99467971 0.00000000 0.00000000
0.99562410 0.00000000 0.00000000
0.99657449 0.00000000 0.00000000
0.99753261 0.00000000 0.00000000
0.99850015 0.00000000 0.00000000
0.99947885 0.00000000 0.00000000
0.00000000 0.73523660 0.00000000
0.00000000 0.73486188 0.00000000
0.00000000 0.73452329 0.00000000
0.00000000 0.73415428 0.00000000
0.00000000 0.73368177 0.00000000
0.00000000 0.73303931 0.00000000
0.00000000 0.73217135 0.00000000
0.00000000 0.73100505 0.00000000
0.00000000 0.72944412 0.00000000
0.00000000 0.72735992 0.00000000
0.19848852 0.72457844 0.00000000
0.47047426 0.72086029 0.00000000
0.62376076 0.71586899 0.00000000
0.71980701 0.70911810 0.00000000
0.78901467 0.69987804 0.00000000
0.84207786 0.68700047 0.00000000
0.88391094 0.66855561 0.00000000
0.91711901 0.64098773 0.00000000
0.94320403 0.59677042 0.00000000
0.96307383 0.51572716 0.00000000
0.97728658 0.32608777 0.00000000
0.98617932 0.00000000 0.00000000
0.98994044 0.00000000 0.00000000
0.99089942 0.00000000 0.00000000
0.99184466 0.00000000 0.00000000
0.99278663 0.00000000 0.00000000
0.99372790 0.00000000 0.00000000
0.99467074 0.00000000 0.00000000
0.99561720 0.00000000 0.00000000
0.99656919 0.00000000 0.00000000
0.99752854 0.00000000 0.00000000
0.99849705 0.00000000 0.00000000
0.99947648 0.00000000 0.00000000
0.00000000 0.78064768 0.00000000
0.00000000 0.78038622 0.00000000
0.00000000 0.78015012 0.00000000
0.00000000 0.77989294 0.00000000
0.00000000 0.77956385 0.00000000
0.00000000 0.77911680 0.00000000
0.00000000 0.77851357 0.00000000
0.00000000 0.77770433 0.00000000
0.00000000 0.77662365 0.00000000
0.00000000 0.77518498 0.00000000
0.00000000 0.77327260 0.00000000
0.25833318 0.77072985 0.00000000
0.53959826 0.76734103 0.00000000
0.67919491 0.76280251 0.00000000
0.76650144 0.75667478 0.00000000
0.82880152 0.74829787 0.00000000
0.87586933 0.73663210 0.00000000
0.91222737 0.71993014 0.00000000
0.94027555 0.69497721 0.00000000
0.96139214 0.65500057 0.00000000
0.97640183 0.58207331 0.00000000
0.98580152 0.40007262 0.00000000
0.98987951 0.00000000 0.00000000
0.99086619 0.00000000 0.00000000
0.99181912 0.00000000 0.00000000
0.99276698 0.00000000 0.00000000
0.99371277 0.00000000 0.00000000
0.99465909 0.00000000 0.00000000
0.99560824 0.00000000 0.00000000
0.99656231 0.00000000 0.00000000
0.99752327 0.00000000 0.00000000
0.99849302 0.00000000 0.00000000
0.99947341 0.00000000 0.00000000
0.00000000 0.82144998 0.00000000
0.00000000 0.82126879 0.00000000
0.00000000 0.82110524 0.00000000
0.00000000 0.82092717 0.00000000
0.00000000 0.82069942 0.00000000
0.00000000 0.82039024 0.00000000
0.00000000 0.81997344 0.00000000
0.00000000 0.81941499 0.00000000
0.00000000 0.81867046 0.00000000
0.00000000 0.81768148 0.00000000
0.00000000 0.81637076 0.00000000
0.00000000 0.81463488 0.00000000
0.32370166 0.81233362 0.00000000
0.60284164 0.80927358 0.00000000
0.72971977 0.80518200 0.00000000
0.80861112 0.79966312 0.00000000
0.86414889 0.79212135 0.00000000
0.90528871 0.78161634 0.00000000
0.93619435 0.76656489 0.00000000
0.95907374 0.74405208 0.00000000
0.97518716 0.70794619 0.00000000
0.98527850 0.64213416 0.00000000
0.98978414 0.47810764 0.00000000
0.99082282 0.00000000 0.00000000
0.99178587 0.00000000 0.00000000
0.99274144 0.00000000 0.00000000
0.99369314 0.00000000 0.00000000
0.99464400 0.00000000 0.00000000
0.99559665 0.00000000 0.00000000
0.99655342 0.00000000 0.00000000
0.99751646 0.00000000 0.00000000
0.99848781 0.00000000 0.00000000
0.99946944 0.00000000 0.00000000
0.00000000 0.85775270 0.00000000
0.00000000 0.85762838 0.00000000
0.00000000 0.85751620 0.00000000
0.00000000 0.85739410 0.00000000
0.00000000 0.85723799 0.00000000
0.00000000 0.85702619 0.00000000
0.00000000 0.85674086 0.00000000
0.00000000 0.85635891 0.00000000
0.00000000 0.85585033 0.00000000
0.00000000 0.85517591 0.00000000
0.00000000 0.85428406 0.00000000
0.00000000 0.85310640 0.00000000
0.00000000 0.85155133 0.00000000
0.39537940 0.84949434 0.00000000
0.66058401 0.84676329 0.00000000
0.77551767 0.84311470 0.00000000
0.84624637 0.83819416 0.00000000
0.89512342 0.83146638 0.00000000
0.93036929 0.82208309 0.00000000
0.95581655 0.80861106 0.00000000
0.97349194 0.78840339 0.00000000
0.98454220 0.75588304 0.00000000
0.98963207 0.69642560 0.00000000
0.99076612 0.54890833 0.00000000
0.99174253 0.00000000 0.00000000
0.99270824 0.00000000 0.00000000
0.99366767 0.00000000 0.00000000
0.99462445 0.00000000 0.00000000
0.99558164 0.00000000 0.00000000
0.99654191 0.00000000 0.00000000
0.99750765 0.00000000 0.00000000
0.99848109 0.00000000 0.00000000
0.99946432 0.00000000 0.00000000
0.00000000 0.88963400 0.00000000
0.00000000 0.88954991 0.00000000
0.00000000 0.88947404 0.00000000
0.00000000 0.88939148 0.00000000
0.00000000 0.88928597 0.00000000
0.00000000 0.88914287 0.00000000
0.00000000 0.88895018 0.00000000
0.00000000 0.88869244 0.00000000
0.00000000 0.88834957 0.00000000
0.00000000 0.88789547 0.00000000
0.00000000 0.88729597 0.00000000
0.00000000 0.88650611 0.00000000
0.00000000 0.88546617 0.00000000
0.00000000 0.88409594 0.00000000
0.47284823 0.88228611 0.00000000
0.71313122 0.87988504 0.00000000
0.81673229 0.87667736 0.00000000
0.87948660 0.87234814 0.00000000
0.92176384 0.86641939 0.00000000
0.95111796 0.85812950 0.00000000
0.97107297 0.84618444 0.00000000
0.98348311 0.82818105 0.00000000
0.98938492 0.79903092 0.00000000
0.99069174 0.74535256 0.00000000
0.99168593 0.61153406 0.00000000
0.99266501 0.00000000 0.00000000
0.99363458 0.00000000 0.00000000
0.99459910 0.00000000 0.00000000
0.99556222 0.00000000 0.00000000
0.99652704 0.00000000 0.00000000
0.99749628 0.00000000 0.00000000
0.99847241 0.00000000 0.00000000
0.99945771 0.00000000 0.00000000
0.00000000 0.91714336 0.00000000
0.00000000 0.91708761 0.00000000
0.00000000 0.91703733 0.00000000
0.00000000 0.91698262 0.00000000
0.00000000 0.91691272 0.00000000
0.00000000 0.91681794 0.00000000
0.00000000 0.91669037 0.00000000
0.00000000 0.91651982 0.00000000
0.00000000 0.91629311 0.00000000
0.00000000 0.91599313 0.00000000
0.00000000 0.91559760 0.00000000
0.00000000 0.91507734 0.00000000
0.00000000 0.91439385 0.00000000
0.00000000 0.91349588 0.00000000
0.00000000 0.91231435 0.00000000
0.54493001 0.91075480 0.00000000
0.76072917 0.90868550 0.00000000
0.85347298 0.90591839 0.00000000
0.90838263 0.90217681 0.00000000
0.94408243 0.89703789 0.00000000
0.96751605 0.88982284 0.00000000
0.98191735 0.87936900 0.00000000
0.98897485 0.86349901 0.00000000
0.99059368 0.83756329 0.00000000
0.99161174 0.78923635 0.00000000
0.99260860 0.66703540 0.00000000
0.99359155 0.00000000 0.00000000
0.99456621 0.00000000 0.00000000
0.99553706 0.00000000 0.00000000
0.99650780 0.00000000 0.00000000
0.99748159 0.00000000 0.00000000
0.99846120 0.00000000 0.00000000
0.99944919 0.00000000 0.00000000
0.00000000 0.94030320 0.00000000
0.00000000 0.94026732 0.00000000
0.00000000 0.94023496 0.00000000
0.00000000 0.94019976 0.00000000
0.00000000 0.94015478 0.00000000
0.00000000 0.94009382 0.00000000
0.00000000 0.94001178 0.00000000
0.00000000 0.93990216 0.00000000
0.00000000 0.93975650 0.00000000
0.00000000 0.93956391 0.00000000
0.00000000 0.93931021 0.00000000
0.00000000 0.93897691 0.00000000
0.00000000 0.93853973 0.00000000
0.00000000 0.93796657 0.00000000
0.00000000 0.93721451 0.00000000
0.00000000 0.93622547 0.00000000
0.60966486 0.93491955 0.00000000
0.80357376 0.93318465 0.00000000
0.88581795 0.93085956 0.00000000
0.93295839 0.92770507 0.00000000
0.96206597 0.92335220 0.00000000
0.97951979 0.91720251 0.00000000
0.98827822 0.90821955 0.00000000
0.99046342 0.89443920 0.00000000
0.99151396 0.87161438 0.00000000
0.99253467 0.82833406 0.00000000
0.99353539 0.71618124 0.00000000
0.99452343 0.00000000 0.00000000
0.99550443 0.00000000 0.00000000
0.99648289 0.00000000 0.00000000
0.99746259 0.00000000 0.00000000
0.99844673 0.00000000 0.00000000
0.99943819 0.00000000 0.00000000
0.00000000 0.95911004 0.00000000
0.00000000 0.95908796 0.00000000
0.00000000 0.95906805 0.00000000
0.00000000 0.95904640 0.00000000
0.00000000 0.95901873 0.00000000
0.00000000 0.95898124 0.00000000
0.00000000 0.95893080 0.00000000
0.00000000 0.95886341 0.00000000
0.00000000 0.95877390 0.00000000
0.00000000 0.95865561 0.00000000
0.00000000 0.95849988 0.00000000
0.00000000 0.95829546 0.00000000
0.00000000 0.95802762 0.00000000
0.00000000 0.95767698 0.00000000
0.00000000 0.95721776 0.00000000
0.00000000 0.95661532 0.00000000
0.00000000 0.95582250 0.00000000
0.66784037 0.95477390 0.00000000
0.84181843 0.95337691 0.00000000
0.91381669 0.95149699 0.00000000
0.95321201 0.94893215 0.00000000
0.97567617 0.94536676 0.00000000
0.98706029 0.94028160 0.00000000
0.99028854 0.93276368 0.00000000
0.99138408 0.92105453 0.00000000
0.99243724 0.90128484 0.00000000
0.99346181 0.86285274 0.00000000
0.99446762 0.75955048 0.00000000
0.99546198 0.00000000 0.00000000
0.99645058 0.00000000 0.00000000
0.99743799 0.00000000 0.00000000
0.99842802 0.00000000 0.00000000
0.99942399 0.00000000 0.00000000
0.00000000 0.97353509 0.00000000
0.00000000 0.97352249 0.00000000
0.00000000 0.97351113 0.00000000
0.00000000 0.97349878 0.00000000
0.00000000 0.97348300 0.00000000
0.00000000 0.97346161 0.00000000
0.00000000 0.97343283 0.00000000
0.00000000 0.97339440 0.00000000
0.00000000 0.97334336 0.00000000
0.00000000 0.97327592 0.00000000
0.00000000 0.97318716 0.00000000
0.00000000 0.97307070 0.00000000
0.00000000 0.97291820 0.00000000
0.00000000 0.97271870 0.00000000
0.00000000 0.97245767 0.00000000
0.00000000 0.97211569 0.00000000
0.00000000 0.97166641 0.00000000
0.00000000 0.97107357 0.00000000
0.72005525 0.97028633 0.00000000
0.87557970 0.96923166 0.00000000
0.93749168 0.96780181 0.00000000
0.96911648 0.96583222 0.00000000
0.98484975 0.96306082 0.00000000
0.99005009 0.95904780 0.00000000
0.99120963 0.95300319 0.00000000
0.99230777 0.94337112 0.00000000
0.99336479 0.92664597 0.00000000
0.99439445 0.89296036 0.00000000
0.99540658 0.79758847 0.00000000
0.99640854 0.00000000 0.00000000
0.99740606 0.00000000 0.00000000
