BT2100_PQ_to_BT601_PAL.cube
TITLE "BT2100_PQ_to_BT601_PAL"
LUT_3D_SIZE 9
# BT2020 HDR PQ to BT601 PAL SDR by Francesco Bucciantini
0.00000000 0.00000000 0.00000000
0.23841527 0.00000000 0.00000000
0.50155016 0.00000000 0.00000000
0.73762655 0.00000000 0.00000000
0.89271401 0.00000000 0.00000000
0.97508464 0.00000000 0.00000000
0.99151527 0.00000000 0.00000000
0.99523559 0.00000000 0.00000000
0.99907610 0.00000000 0.00000000
0.00000000 0.19107780 0.00000000
0.18373173 0.17626645 0.00000000
0.47982022 0.13095131 0.00000000
0.73269020 0.00000000 0.00000000
0.89164346 0.00000000 0.00000000
0.97493091 0.00000000 0.00000000
0.99151091 0.00000000 0.00000000
0.99523403 0.00000000 0.00000000
0.99907556 0.00000000 0.00000000
0.00000000 0.42157323 0.00000000
0.00000000 0.41449217 0.00000000
0.40838997 0.39499279 0.00000000
0.71856843 0.32983603 0.00000000
0.88870914 0.00000000 0.00000000
0.97451447 0.00000000 0.00000000
0.99149924 0.00000000 0.00000000
0.99522988 0.00000000 0.00000000
0.99907413 0.00000000 0.00000000
0.00000000 0.67612902 0.00000000
0.00000000 0.67431153 0.00000000
0.00000000 0.66935426 0.00000000
0.66510847 0.65343424 0.00000000
0.87914822 0.59737021 0.00000000
0.97320692 0.19656624 0.00000000
0.99146399 0.00000000 0.00000000
0.99521739 0.00000000 0.00000000
0.99906984 0.00000000 0.00000000
0.00000000 0.85160804 0.00000000
0.00000000 0.85118307 0.00000000
0.00000000 0.85003976 0.00000000
0.15339010 0.84652005 0.00000000
0.84396824 0.83579627 0.00000000
0.96899548 0.79854541 0.00000000
0.99136240 0.48484585 0.00000000
0.99518183 0.00000000 0.00000000
0.99905766 0.00000000 0.00000000
0.00000000 0.95599374 0.00000000
0.00000000 0.95591640 0.00000000
0.00000000 0.95570924 0.00000000
0.00000000 0.95507983 0.00000000
0.44528146 0.95323739 0.00000000
0.95201328 0.94763516 0.00000000
0.99106669 0.92692010 0.00000000
0.99508200 0.70808503 0.00000000
0.99902388 0.00000000 0.00000000
0.00000000 0.99030369 0.00000000
0.00000000 0.99030221 0.00000000
0.00000000 0.99029827 0.00000000
0.00000000 0.99028642 0.00000000
0.00000000 0.99025268 0.00000000
0.69879068 0.99015806 0.00000000
0.99009810 0.98984632 0.00000000
0.99479159 0.98609508 0.00000000
0.99892911 0.82527986 0.00000000
0.00000000 0.99402400 0.00000000
0.00000000 0.99402347 0.00000000
0.00000000 0.99402207 0.00000000
0.00000000 0.99401785 0.00000000
0.00000000 0.99400590 0.00000000
0.00000000 0.99397276 0.00000000
0.84751924 0.99387980 0.00000000
0.99381841 0.99360394 0.00000000
0.99864756 0.99263907 0.00000000
0.00000000 0.99786451 0.00000000
0.00000000 0.99786433 0.00000000
0.00000000 0.99786385 0.00000000
0.00000000 0.99786240 0.00000000
0.00000000 0.99785828 0.00000000
0.00000000 0.99784693 0.00000000
0.00000000 0.99781545 0.00000000
0.91746768 0.99772514 0.00000000
0.99765892 0.99744445 0.00000000
0.00000000 0.00000000 0.19099488
0.23161435 0.00000000 0.18904110
0.49872990 0.00000000 0.18374840
0.73696506 0.00000000 0.16707863
0.89256917 0.00000000 0.11103434
0.97506379 0.00000000 0.00000000
0.99151468 0.00000000 0.00000000
0.99523537 0.00000000 0.00000000
0.99907603 0.00000000 0.00000000
0.00000000 0.19011381 0.17731207
0.17523843 0.17523843 0.17523843
0.47666689 0.12966907 0.16961090
0.73200381 0.00000000 0.15177946
0.89149648 0.00000000 0.09005003
0.97490987 0.00000000 0.00000000
0.99151031 0.00000000 0.00000000
0.99523382 0.00000000 0.00000000
0.99907549 0.00000000 0.00000000
0.00000000 0.42110222 0.13596696
0.00000000 0.41401321 0.13343391
0.40428989 0.39449059 0.12650601
0.71780720 0.32923892 0.10394692
0.88855621 0.00000000 0.02674845
0.97449296 0.00000000 0.00000000
0.99149864 0.00000000 0.00000000
0.99522967 0.00000000 0.00000000
0.99907406 0.00000000 0.00000000
0.00000000 0.67600786 0.00000000
0.00000000 0.67418891 0.00000000
0.00000000 0.66922758 0.00000000
0.66401122 0.65329388 0.00000000
0.87897506 0.59717283 0.00000000
0.97318392 0.19562416 0.00000000
0.99146339 0.00000000 0.00000000
0.99521717 0.00000000 0.00000000
0.99906976 0.00000000 0.00000000
0.00000000 0.85157961 0.00000000
0.00000000 0.85115451 0.00000000
0.00000000 0.85001085 0.00000000
0.14357902 0.84649002 0.00000000
0.84370879 0.83576269 0.00000000
0.96896763 0.79849758 0.00000000
0.99136178 0.48448241 0.00000000
0.99518162 0.00000000 0.00000000
0.99905758 0.00000000 0.00000000
0.00000000 0.95598856 0.00000000
0.00000000 0.95591121 0.00000000
0.00000000 0.95570402 0.00000000
0.00000000 0.95507451 0.00000000
0.44153492 0.95323179 0.00000000
0.95196468 0.94762869 0.00000000
0.99106602 0.92691007 0.00000000
0.99508178 0.70798761 0.00000000
0.99902380 0.00000000 0.00000000
0.00000000 0.99030359 0.00000000
0.00000000 0.99030211 0.00000000
0.00000000 0.99029817 0.00000000
0.00000000 0.99028632 0.00000000
0.00000000 0.99025258 0.00000000
0.69791527 0.99015796 0.00000000
0.99009722 0.98984614 0.00000000
0.99479135 0.98609414 0.00000000
0.99892903 0.82524257 0.00000000
0.00000000 0.99402396 0.00000000
0.00000000 0.99402344 0.00000000
0.00000000 0.99402203 0.00000000
0.00000000 0.99401782 0.00000000
0.00000000 0.99400587 0.00000000
0.00000000 0.99397272 0.00000000
0.84726939 0.99387977 0.00000000
0.99381810 0.99360390 0.00000000
0.99864748 0.99263901 0.00000000
0.00000000 0.99786450 0.00000000
0.00000000 0.99786432 0.00000000
0.00000000 0.99786384 0.00000000
0.00000000 0.99786238 0.00000000
0.00000000 0.99785827 0.00000000
0.00000000 0.99784692 0.00000000
0.00000000 0.99781543 0.00000000
0.91736810 0.99772512 0.00000000
0.99765882 0.99744444 0.00000000
0.00000000 0.00000000 0.42142442
0.21257740 0.00000000 0.42047126
0.49100042 0.00000000 0.41791817
0.73518431 0.00000000 0.41015901
0.89218138 0.00000000 0.38739499
0.97500803 0.00000000 0.31664593
0.99151309 0.00000000 0.00000000
0.99523481 0.00000000 0.00000000
0.99907583 0.00000000 0.00000000
0.00000000 0.18752292 0.41487110
0.15083441 0.17247284 0.41390303
0.46800262 0.12620491 0.41130970
0.73015557 0.00000000 0.40342542
0.89110295 0.00000000 0.38026799
0.97485365 0.00000000 0.30797625
0.99150873 0.00000000 0.00000000
0.99523325 0.00000000 0.00000000
0.99907530 0.00000000 0.00000000
0.00000000 0.41984324 0.39686927
0.00000000 0.41273288 0.39585798
0.39314790 0.39314790 0.39314790
0.71575602 0.32764111 0.38489993
0.88814673 0.00000000 0.36059151
0.97443547 0.00000000 0.28366467
0.99149705 0.00000000 0.00000000
0.99522910 0.00000000 0.00000000
0.99907386 0.00000000 0.00000000
0.00000000 0.67568419 0.33728647
0.00000000 0.67386133 0.33610341
0.00000000 0.66888915 0.33292819
0.66104563 0.65291884 0.32321953
0.87851133 0.59664520 0.29416570
0.97312245 0.19309295 0.19568996
0.99146178 0.00000000 0.00000000
0.99521661 0.00000000 0.00000000
0.99906957 0.00000000 0.00000000
0.00000000 0.85150374 0.04017000
0.00000000 0.85107829 0.03669544
0.00000000 0.84993367 0.02742699
0.11467312 0.84640987 0.00000000
0.84301320 0.83567306 0.00000000
0.96889320 0.79836990 0.00000000
0.99136013 0.48350963 0.00000000
0.99518104 0.00000000 0.00000000
0.99905739 0.00000000 0.00000000
0.00000000 0.95597474 0.00000000
0.00000000 0.95589736 0.00000000
0.00000000 0.95569009 0.00000000
0.00000000 0.95506033 0.00000000
0.43134463 0.95321686 0.00000000
0.95183471 0.94761143 0.00000000
0.99106422 0.92688331 0.00000000
0.99508119 0.70772741 0.00000000
0.99902361 0.00000000 0.00000000
0.00000000 0.99030332 0.00000000
0.00000000 0.99030185 0.00000000
0.00000000 0.99029791 0.00000000
0.00000000 0.99028605 0.00000000
0.00000000 0.99025232 0.00000000
0.69555394 0.99015769 0.00000000
0.99009487 0.98984566 0.00000000
0.99479071 0.98609162 0.00000000
0.99892883 0.82514303 0.00000000
0.00000000 0.99402387 0.00000000
0.00000000 0.99402334 0.00000000
0.00000000 0.99402194 0.00000000
0.00000000 0.99401772 0.00000000
0.00000000 0.99400577 0.00000000
0.00000000 0.99397263 0.00000000
0.84659964 0.99387967 0.00000000
0.99381726 0.99360379 0.00000000
0.99864726 0.99263888 0.00000000
0.00000000 0.99786447 0.00000000
0.00000000 0.99786429 0.00000000
0.00000000 0.99786380 0.00000000
0.00000000 0.99786235 0.00000000
0.00000000 0.99785824 0.00000000
0.00000000 0.99784688 0.00000000
0.00000000 0.99781540 0.00000000
0.91710166 0.99772509 0.00000000
0.99765853 0.99744440 0.00000000
0.00000000 0.00000000 0.67600711
0.14429028 0.00000000 0.67576185
0.46578639 0.00000000 0.67510567
0.72969157 0.00000000 0.67311845
0.89100467 0.00000000 0.66735497
0.97483963 0.00000000 0.65026198
0.99150833 0.00000000 0.59087032
0.99523311 0.00000000 0.10068844
0.99907525 0.00000000 0.00000000
0.00000000 0.17956678 0.67432400
0.05172579 0.16395531 0.67407600
0.43951225 0.11539070 0.67341247
0.72445059 0.00000000 0.67140284
0.88990872 0.00000000 0.66557313
0.97468384 0.00000000 0.64827271
0.99150396 0.00000000 0.58801829
0.99523156 0.00000000 0.07797160
0.99907471 0.00000000 0.00000000
0.00000000 0.41604091 0.66974091
0.00000000 0.40886532 0.66948533
0.35768013 0.38908970 0.66880147
0.70941116 0.32279963 0.66672987
0.88690381 0.00000000 0.66071693
0.97426183 0.00000000 0.64284129
0.99149227 0.00000000 0.58017407
0.99522740 0.00000000 0.01466681
0.99907328 0.00000000 0.00000000
0.00000000 0.67470830 0.65509930
0.00000000 0.67287360 0.65481837
0.00000000 0.66786861 0.65406653
0.65178749 0.65178749 0.65178749
0.87710267 0.59505137 0.64515979
0.97293676 0.18532753 0.62534063
0.99145695 0.00000000 0.55429387
0.99521490 0.00000000 0.00000000
0.99906898 0.00000000 0.00000000
0.00000000 0.85127558 0.60452154
0.00000000 0.85084907 0.60413863
0.00000000 0.84970158 0.60311297
0.00261472 0.84616882 0.59999611
0.84089391 0.83540349 0.59086353
0.96866835 0.79798570 0.56290568
0.99135516 0.48056002 0.45248736
0.99517932 0.00000000 0.00000000
0.99905680 0.00000000 0.00000000
0.00000000 0.95593322 0.28125469
0.00000000 0.95585574 0.27985437
0.00000000 0.95564822 0.27608770
0.00000000 0.95501770 0.26449129
0.39920674 0.95317200 0.22895319
0.95144181 0.94755956 0.08950412
0.99105883 0.92680287 0.00000000
0.99507942 0.70694337 0.00000000
0.99902301 0.00000000 0.00000000
0.00000000 0.99030253 0.00000000
0.00000000 0.99030105 0.00000000
0.00000000 0.99029711 0.00000000
0.00000000 0.99028525 0.00000000
0.00000000 0.99025151 0.00000000
0.68822649 0.99015686 0.00000000
0.99008781 0.98984419 0.00000000
0.99478879 0.98608407 0.00000000
0.99892822 0.82484361 0.00000000
0.00000000 0.99402359 0.00000000
0.00000000 0.99402306 0.00000000
0.00000000 0.99402166 0.00000000
0.00000000 0.99401744 0.00000000
0.00000000 0.99400549 0.00000000
0.00000000 0.99397234 0.00000000
0.84455976 0.99387938 0.00000000
0.99381475 0.99360348 0.00000000
0.99864660 0.99263846 0.00000000
0.00000000 0.99786437 0.00000000
0.00000000 0.99786419 0.00000000
0.00000000 0.99786371 0.00000000
0.00000000 0.99786225 0.00000000
0.00000000 0.99785814 0.00000000
0.00000000 0.99784679 0.00000000
0.00000000 0.99781530 0.00000000
0.91629457 0.99772499 0.00000000
0.99765766 0.99744429 0.00000000
0.00000000 0.00000000 0.85152393
0.00000000 0.00000000 0.85146640
0.37708783 0.00000000 0.85131275
0.71284673 0.00000000 0.85084990
0.88757240 0.00000000 0.84952842
0.97435508 0.00000000 0.84578652
0.99149483 0.00000000 0.83463836
0.99522831 0.00000000 0.79444422
0.99907359 0.00000000 0.27137827
0.00000000 0.15540430 0.85113024
0.00000000 0.13781772 0.85107246
0.34323516 0.08018070 0.85091814
0.70691528 0.00000000 0.85045330
0.88642454 0.00000000 0.84912610
0.97419522 0.00000000 0.84536771
0.99149045 0.00000000 0.83416814
0.99522675 0.00000000 0.79375747
0.99907306 0.00000000 0.26135817
0.00000000 0.40509915 0.85007173
0.00000000 0.39772964 0.85001328
0.23188914 0.37738528 0.84985718
0.68977680 0.30872768 0.84938695
0.88327520 0.00000000 0.84804428
0.97376218 0.00000000 0.84424137
0.99147871 0.00000000 0.83290279
0.99522260 0.00000000 0.79190510
0.99907163 0.00000000 0.23279939
0.00000000 0.67191443 0.84681920
0.00000000 0.67004553 0.84675867
0.00000000 0.66494570 0.84659701
0.62226321 0.64854399 0.84610999
0.87298117 0.59046331 0.84471912
0.97240241 0.16182298 0.84077741
0.99144326 0.00000000 0.82900454
0.99521008 0.00000000 0.78615817
0.99906733 0.00000000 0.11953726
0.00000000 0.85062735 0.83696663
0.00000000 0.85019782 0.83689953
0.00000000 0.84904217 0.83672033
0.00000000 0.84548388 0.83618035
0.83463724 0.83463724 0.83463724
0.96802111 0.79689221 0.83025622
0.99134108 0.47197430 0.81709973
0.99517445 0.00000000 0.76821147
0.99905514 0.00000000 0.00000000
0.00000000 0.95581554 0.80342067
0.00000000 0.95573780 0.80332808
0.00000000 0.95552958 0.80308073
0.00000000 0.95489690 0.80233480
0.29047998 0.95304484 0.80019814
0.95030845 0.94741255 0.79409091
0.99104354 0.92657478 0.77536515
0.99507441 0.70470278 0.69959533
0.99902134 0.00000000 0.00000000
0.00000000 0.99030029 0.56980068
0.00000000 0.99029881 0.56933318
0.00000000 0.99029487 0.56808008
0.00000000 0.99028300 0.56426441
0.00000000 0.99024924 0.55301626
0.66531788 0.99015453 0.51790390
0.99006778 0.98984002 0.37271923
0.99478336 0.98606267 0.00000000
0.99892650 0.82399223 0.00000000
0.00000000 0.99402279 0.00000000
0.00000000 0.99402226 0.00000000
0.00000000 0.99402086 0.00000000
0.00000000 0.99401664 0.00000000
0.00000000 0.99400468 0.00000000
0.00000000 0.99397153 0.00000000
0.83854335 0.99387854 0.00000000
0.99380763 0.99360258 0.00000000
0.99864474 0.99263729 0.00000000
0.00000000 0.99786410 0.00000000
0.00000000 0.99786392 0.00000000
0.00000000 0.99786343 0.00000000
0.00000000 0.99786198 0.00000000
0.00000000 0.99785787 0.00000000
0.00000000 0.99784651 0.00000000
0.00000000 0.99781502 0.00000000
0.91395242 0.99772470 0.00000000
0.99765521 0.99744398 0.00000000
0.00000000 0.00000000 0.95595055
0.00000000 0.00000000 0.95594006
0.00000000 0.00000000 0.95591207
0.65262956 0.00000000 0.95582792
0.87722839 0.00000000 0.95558886
0.97295326 0.00000000 0.95492151
0.99145738 0.00000000 0.95301477
0.99521505 0.00000000 0.94705139
0.99906903 0.00000000 0.92253615
0.00000000 0.06696343 0.95587887
0.00000000 0.04132755 0.95586836
0.00000000 0.00000000 0.95584031
0.64368214 0.00000000 0.95575599
0.87591649 0.00000000 0.95551643
0.97278161 0.00000000 0.95484770
0.99145294 0.00000000 0.95293694
0.99521349 0.00000000 0.94696069
0.99906850 0.00000000 0.92238604
0.00000000 0.37332909 0.95568693
0.00000000 0.36533797 0.95567637
0.00000000 0.34315157 0.95564817
0.61706159 0.26647558 0.95556337
0.87230965 0.00000000 0.95532248
0.97231660 0.00000000 0.95465003
0.99144109 0.00000000 0.95272855
0.99520931 0.00000000 0.94671774
0.99906706 0.00000000 0.92198365
0.00000000 0.66394021 0.95510428
0.00000000 0.66197115 0.95509354
0.00000000 0.65659322 0.95506487
0.49744117 0.63924814 0.95497865
0.86044163 0.57715615 0.95473372
0.97085615 0.07688124 0.95404994
0.99140526 0.00000000 0.95209577
0.99519675 0.00000000 0.94597968
0.99906276 0.00000000 0.92075829
0.00000000 0.84881713 0.95340315
0.00000000 0.84837909 0.95339189
0.00000000 0.84720045 0.95336182
0.00000000 0.84357031 0.95327142
0.81505496 0.83249445 0.95301458
0.96614635 0.79382314 0.95229743
0.99130198 0.44621939 0.95024697
0.99516099 0.00000000 0.94381997
0.99905055 0.00000000 0.91714685
0.00000000 0.95548919 0.94826944
0.00000000 0.95541071 0.94825657
0.00000000 0.95520053 0.94822220
0.00000000 0.95456188 0.94811884
0.00000000 0.95269216 0.94782515
0.94700469 0.94700469 0.94700469
0.99100106 0.92594124 0.94465536
0.99506057 0.69834098 0.93725713
0.99901671 0.00000000 0.90592435
0.00000000 0.99029411 0.92974674
0.00000000 0.99029263 0.92972750
0.00000000 0.99028868 0.92967616
0.00000000 0.99027679 0.92952173
0.00000000 0.99024297 0.92908259
0.57680170 0.99014809 0.92785328
0.99001200 0.98982834 0.92431227
0.99476836 0.98600329 0.91294783
0.99892175 0.82160907 0.86046567
0.00000000 0.99402059 0.77125565
0.00000000 0.99402006 0.77113358
0.00000000 0.99401866 0.77080734
0.00000000 0.99401443 0.76982265
0.00000000 0.99400247 0.76699483
0.00000000 0.99396930 0.75885133
0.81977180 0.99387625 0.73328294
0.99378796 0.99360010 0.61766478
0.99863960 0.99263406 0.00000000
0.00000000 0.99786334 0.00000000
0.00000000 0.99786316 0.00000000
0.00000000 0.99786267 0.00000000
0.00000000 0.99786122 0.00000000
0.00000000 0.99785711 0.00000000
0.00000000 0.99784575 0.00000000
0.00000000 0.99781425 0.00000000
0.90700231 0.99772392 0.00000000
0.99764845 0.99744313 0.00000000
0.00000000 0.00000000 0.99030139
0.00000000 0.00000000 0.99030119
0.00000000 0.00000000 0.99030066
0.00000000 0.00000000 0.99029906
0.83955319 0.00000000 0.99029452
0.96852758 0.00000000 0.99028199
0.99135207 0.00000000 0.99024721
0.99517825 0.00000000 0.99014729
0.99905643 0.00000000 0.98975998
0.00000000 0.00000000 0.99030003
0.00000000 0.00000000 0.99029983
0.00000000 0.00000000 0.99029929
0.00000000 0.00000000 0.99029769
0.83753970 0.00000000 0.99029315
0.96831831 0.00000000 0.99028061
0.99134751 0.00000000 0.99024582
0.99517667 0.00000000 0.99014586
0.99905589 0.00000000 0.98975700
0.00000000 0.26805027 0.99029638
0.00000000 0.25708704 0.99029618
0.00000000 0.22560093 0.99029564
0.00000000 0.09380156 0.99029404
0.83195707 0.00000000 0.99028949
0.96775126 0.00000000 0.99027694
0.99133530 0.00000000 0.99024212
0.99517245 0.00000000 0.99014206
0.99905446 0.00000000 0.98974899
0.00000000 0.63958164 0.99028540
0.00000000 0.63728210 0.99028520
0.00000000 0.63098342 0.99028466
0.00000000 0.61047973 0.99028305
0.81307318 0.53433232 0.99027849
0.96596863 0.00000000 0.99026590
0.99129840 0.00000000 0.99023097
0.99515976 0.00000000 0.99013060
0.99905014 0.00000000 0.98972432
0.00000000 0.84363771 0.99025417
0.00000000 0.84317481 0.99025397
0.00000000 0.84192890 0.99025343
0.00000000 0.83808832 0.99025181
0.73160118 0.82633902 0.99024721
0.96019901 0.78491287 0.99023451
0.99119197 0.36183999 0.99019927
0.99512363 0.00000000 0.99009800
0.99903789 0.00000000 0.98964941
0.00000000 0.95457362 0.99016670
0.00000000 0.95449309 0.99016650
0.00000000 0.95427737 0.99016594
0.00000000 0.95362188 0.99016428
0.00000000 0.95170238 0.99015957
0.93629728 0.94585915 0.99014656
0.99088131 0.92415615 0.99011045
0.99502215 0.67921912 0.99000661
0.99900393 0.00000000 0.98940198
0.00000000 0.99027701 0.98989364
0.00000000 0.99027552 0.98989331
0.00000000 0.99027155 0.98989244
0.00000000 0.99025961 0.98988979
0.00000000 0.99022562 0.98988220
0.00000000 0.99013028 0.98986051
0.98979465 0.98979465 0.98979465
0.99472668 0.98583662 0.98955893
0.99890862 0.81474385 0.98837242
0.00000000 0.99401451 0.98681274
0.00000000 0.99401398 0.98681107
0.00000000 0.99401258 0.98680661
0.00000000 0.99400835 0.98679318
0.00000000 0.99399637 0.98675501
0.00000000 0.99396314 0.98664837
0.74090945 0.99386993 0.98634295
0.99373315 0.99359328 0.98538619
0.99862540 0.99262513 0.98159868
0.00000000 0.99786125 0.88792489
0.00000000 0.99786106 0.88788772
0.00000000 0.99786058 0.88778847
0.00000000 0.99785912 0.88748973
0.00000000 0.99785501 0.88663856
0.00000000 0.99784364 0.88424247
0.00000000 0.99781213 0.87722737
0.88307232 0.99772174 0.85346292
0.99762976 0.99744078 0.70290399
0.00000000 0.00000000 0.99402171
0.00000000 0.00000000 0.99402164
0.00000000 0.00000000 0.99402145
0.00000000 0.00000000 0.99402088
0.23405086 0.00000000 0.99401926
0.94984169 0.00000000 0.99401480
0.99103735 0.00000000 0.99400249
0.99507239 0.00000000 0.99396753
0.99902066 0.00000000 0.99386227
0.00000000 0.00000000 0.99402122
0.00000000 0.00000000 0.99402115
0.00000000 0.00000000 0.99402096
0.00000000 0.00000000 0.99402039
0.17829341 0.00000000 0.99401877
0.94946231 0.00000000 0.99401431
0.99103237 0.00000000 0.99400200
0.99507076 0.00000000 0.99396703
0.99902012 0.00000000 0.99386176
0.00000000 0.00000000 0.99401992
0.00000000 0.00000000 0.99401985
0.00000000 0.00000000 0.99401966
0.00000000 0.00000000 0.99401909
0.00000000 0.00000000 0.99401747
0.94843213 0.00000000 0.99401301
0.99101904 0.00000000 0.99400069
0.99506642 0.00000000 0.99396571
0.99901866 0.00000000 0.99386040
0.00000000 0.54171993 0.99401601
0.00000000 0.53765445 0.99401594
0.00000000 0.52635438 0.99401575
0.00000000 0.48772805 0.99401518
0.00000000 0.32685420 0.99401356
0.94517238 0.00000000 0.99400910
0.99097874 0.00000000 0.99399676
0.99505334 0.00000000 0.99396175
0.99901430 0.00000000 0.99385631
0.00000000 0.82732559 0.99400495
0.00000000 0.82677899 0.99400487
0.00000000 0.82530645 0.99400468
0.00000000 0.82075445 0.99400411
0.00000000 0.80670434 0.99400249
0.93438033 0.75547759 0.99399801
0.99086229 0.00000000 0.99398564
0.99501612 0.00000000 0.99395051
0.99900193 0.00000000 0.99384474
0.00000000 0.95185872 0.99397427
0.00000000 0.95177200 0.99397420
0.00000000 0.95153968 0.99397400
0.00000000 0.95083355 0.99397343
0.00000000 0.94876429 0.99397179
0.88450709 0.94245087 0.99396727
0.99052044 0.91879385 0.99395479
0.99491153 0.60745185 0.99391936
0.99896762 0.00000000 0.99381267
0.00000000 0.99022834 0.99388834
0.00000000 0.99022683 0.99388826
0.00000000 0.99022281 0.99388807
0.00000000 0.99021070 0.99388747
0.00000000 0.99017625 0.99388580
0.00000000 0.99007958 0.99388117
0.98826126 0.98968751 0.99386839
0.99460645 0.98534213 0.99383210
0.99887134 0.79264409 0.99372275
0.00000000 0.99399732 0.99363433
0.00000000 0.99399679 0.99363425
0.00000000 0.99399538 0.99363403
0.00000000 0.99399113 0.99363340
0.00000000 0.99397909 0.99363160
0.00000000 0.99394570 0.99362664
0.00000000 0.99385203 0.99361292
0.99357395 0.99357395 0.99357395
0.99858506 0.99259983 0.99345635
0.00000000 0.99785534 0.99275909
0.00000000 0.99785516 0.99275899
0.00000000 0.99785467 0.99275872
0.00000000 0.99785321 0.99275791
0.00000000 0.99784909 0.99275561
0.00000000 0.99783771 0.99274929
0.00000000 0.99780614 0.99273178
0.71172183 0.99771560 0.99268195
0.99757649 0.99743414 0.99253066
0.00000000 0.00000000 0.99786222
0.00000000 0.00000000 0.99786220
0.00000000 0.00000000 0.99786213
0.00000000 0.00000000 0.99786194
0.00000000 0.00000000 0.99786138
0.00000000 0.00000000 0.99785984
0.98988161 0.00000000 0.99785561
0.99474030 0.00000000 0.99784363
0.99891290 0.00000000 0.99780804
0.00000000 0.00000000 0.99786205
0.00000000 0.00000000 0.99786203
0.00000000 0.00000000 0.99786196
0.00000000 0.00000000 0.99786177
0.00000000 0.00000000 0.99786121
0.00000000 0.00000000 0.99785967
0.98987113 0.00000000 0.99785544
0.99473852 0.00000000 0.99784346
0.99891234 0.00000000 0.99780787
0.00000000 0.00000000 0.99786161
0.00000000 0.00000000 0.99786158
0.00000000 0.00000000 0.99786152
0.00000000 0.00000000 0.99786132
0.00000000 0.00000000 0.99786076
0.00000000 0.00000000 0.99785923
0.98984182 0.00000000 0.99785499
0.99473376 0.00000000 0.99784301
0.99891084 0.00000000 0.99780741
0.00000000 0.00000000 0.99786026
0.00000000 0.00000000 0.99786024
0.00000000 0.00000000 0.99786017
0.00000000 0.00000000 0.99785997
0.00000000 0.00000000 0.99785942
0.00000000 0.00000000 0.99785788
0.98974172 0.00000000 0.99785364
0.99471942 0.00000000 0.99784166
0.99890635 0.00000000 0.99780605
0.00000000 0.75618267 0.99785645
0.00000000 0.75516254 0.99785643
0.00000000 0.75240073 0.99785636
0.00000000 0.74373492 0.99785616
0.00000000 0.71564799 0.99785561
0.00000000 0.58833897 0.99785407
0.98935422 0.00000000 0.99784983
0.99467857 0.00000000 0.99783783
0.99889360 0.00000000 0.99780218
0.00000000 0.94252626 0.99784594
0.00000000 0.94241728 0.99784591
0.00000000 0.94212527 0.99784585
0.00000000 0.94123691 0.99784565
0.00000000 0.93862666 0.99784509
0.00000000 0.93059591 0.99784355
0.98732954 0.89949531 0.99783929
0.99456354 0.00000000 0.99782726
0.99885824 0.00000000 0.99779151
0.00000000 0.99008066 0.99781679
0.00000000 0.99007909 0.99781677
0.00000000 0.99007490 0.99781670
0.00000000 0.99006229 0.99781650
0.00000000 0.99002638 0.99781594
0.00000000 0.98991028 0.99781438
0.96843174 0.98926004 0.99781009
0.99422608 0.98365467 0.99779797
0.99875896 0.68517627 0.99776192
0.00000000 0.99394607 0.99773330
0.00000000 0.99394553 0.99773328
0.00000000 0.99394410 0.99773321
0.00000000 0.99393979 0.99773300
0.00000000 0.99392757 0.99773243
0.00000000 0.99389370 0.99773084
0.00000000 0.99379866 0.99772645
0.99305810 0.99351626 0.99771403
0.99846323 0.99252407 0.99767713
0.00000000 0.99783783 0.99747484
0.00000000 0.99783765 0.99747481
0.00000000 0.99783716 0.99747474
0.00000000 0.99783570 0.99747452
0.00000000 0.99783156 0.99747390
0.00000000 0.99782012 0.99747219
0.00000000 0.99778840 0.99746747
0.00000000 0.99769740 0.99745414
0.99741446 0.99741446 0.99741446
