BT2100_PQ_to_BT601_PAL.cube
TITLE "BT2100_PQ_to_BT601_PAL"
LUT_3D_SIZE 5
# BT2020 HDR PQ to BT601 PAL SDR by Francesco Bucciantini
0.00000000 0.00000000 0.00000000
0.50155016 0.00000000 0.00000000
0.89271401 0.00000000 0.00000000
0.99151527 0.00000000 0.00000000
0.99907610 0.00000000 0.00000000
0.00000000 0.42157323 0.00000000
0.40838997 0.39499279 0.00000000
0.88870914 0.00000000 0.00000000
0.99149924 0.00000000 0.00000000
0.99907413 0.00000000 0.00000000
0.00000000 0.85160804 0.00000000
0.00000000 0.85003976 0.00000000
0.84396824 0.83579627 0.00000000
0.99136240 0.48484585 0.00000000
0.99905766 0.00000000 0.00000000
0.00000000 0.99030369 0.00000000
0.00000000 0.99029827 0.00000000
0.00000000 0.99025268 0.00000000
0.99009810 0.98984632 0.00000000
0.99892911 0.82527986 0.00000000
0.00000000 0.99786451 0.00000000
0.00000000 0.99786385 0.00000000
0.00000000 0.99785828 0.00000000
0.00000000 0.99781545 0.00000000
0.99765892 0.99744445 0.00000000
0.00000000 0.00000000 0.42142442
0.49100042 0.00000000 0.41791817
0.89218138 0.00000000 0.38739499
0.99151309 0.00000000 0.00000000
0.99907583 0.00000000 0.00000000
0.00000000 0.41984324 0.39686927
0.39314790 0.39314790 0.39314790
0.88814673 0.00000000 0.36059151
0.99149705 0.00000000 0.00000000
0.99907386 0.00000000 0.00000000
0.00000000 0.85150374 0.04017000
0.00000000 0.84993367 0.02742699
0.84301320 0.83567306 0.00000000
0.99136013 0.48350963 0.00000000
0.99905739 0.00000000 0.00000000
0.00000000 0.99030332 0.00000000
0.00000000 0.99029791 0.00000000
0.00000000 0.99025232 0.00000000
0.99009487 0.98984566 0.00000000
0.99892883 0.82514303 0.00000000
0.00000000 0.99786447 0.00000000
0.00000000 0.99786380 0.00000000
0.00000000 0.99785824 0.00000000
0.00000000 0.99781540 0.00000000
0.99765853 0.99744440 0.00000000
0.00000000 0.00000000 0.85152393
0.37708783 0.00000000 0.85131275
0.88757240 0.00000000 0.84952842
0.99149483 0.00000000 0.83463836
0.99907359 0.00000000 0.27137827
0.00000000 0.40509915 0.85007173
0.23188914 0.37738528 0.84985718
0.88327520 0.00000000 0.84804428
0.99147871 0.00000000 0.83290279
0.99907163 0.00000000 0.23279939
0.00000000 0.85062735 0.83696663
0.00000000 0.84904217 0.83672033
0.83463724 0.83463724 0.83463724
0.99134108 0.47197430 0.81709973
0.99905514 0.00000000 0.00000000
0.00000000 0.99030029 0.56980068
0.00000000 0.99029487 0.56808008
0.00000000 0.99024924 0.55301626
0.99006778 0.98984002 0.37271923
0.99892650 0.82399223 0.00000000
0.00000000 0.99786410 0.00000000
0.00000000 0.99786343 0.00000000
0.00000000 0.99785787 0.00000000
0.00000000 0.99781502 0.00000000
0.99765521 0.99744398 0.00000000
0.00000000 0.00000000 0.99030139
0.00000000 0.00000000 0.99030066
0.83955319 0.00000000 0.99029452
0.99135207 0.00000000 0.99024721
0.99905643 0.00000000 0.98975998
0.00000000 0.26805027 0.99029638
0.00000000 0.22560093 0.99029564
0.83195707 0.00000000 0.99028949
0.99133530 0.00000000 0.99024212
0.99905446 0.00000000 0.98974899
0.00000000 0.84363771 0.99025417
0.00000000 0.84192890 0.99025343
0.73160118 0.82633902 0.99024721
0.99119197 0.36183999 0.99019927
0.99903789 0.00000000 0.98964941
0.00000000 0.99027701 0.98989364
0.00000000 0.99027155 0.98989244
0.00000000 0.99022562 0.98988220
0.98979465 0.98979465 0.98979465
0.99890862 0.81474385 0.98837242
0.00000000 0.99786125 0.88792489
0.00000000 0.99786058 0.88778847
0.00000000 0.99785501 0.88663856
0.00000000 0.99781213 0.87722737
0.99762976 0.99744078 0.70290399
0.00000000 0.00000000 0.99786222
0.00000000 0.00000000 0.99786213
0.00000000 0.00000000 0.99786138
0.98988161 0.00000000 0.99785561
0.99891290 0.00000000 0.99780804
0.00000000 0.00000000 0.99786161
0.00000000 0.00000000 0.99786152
0.00000000 0.00000000 0.99786076
0.98984182 0.00000000 0.99785499
0.99891084 0.00000000 0.99780741
0.00000000 0.75618267 0.99785645
0.00000000 0.75240073 0.99785636
0.00000000 0.71564799 0.99785561
0.98935422 0.00000000 0.99784983
0.99889360 0.00000000 0.99780218
0.00000000 0.99008066 0.99781679
0.00000000 0.99007490 0.99781670
0.00000000 0.99002638 0.99781594
0.96843174 0.98926004 0.99781009
0.99875896 0.68517627 0.99776192
0.00000000 0.99783783 0.99747484
0.00000000 0.99783716 0.99747474
0.00000000 0.99783156 0.99747390
0.00000000 0.99778840 0.99746747
0.99741446 0.99741446 0.99741446
