BT2100_PQ_to_BT601_PAL.cube
TITLE "BT2100_PQ_to_BT601_PAL"
LUT_3D_SIZE 33
# BT2020 HDR PQ to BT601 PAL SDR by Francesco Bucciantini
0.00000000 0.00000000 0.00000000
0.07898039 0.00000000 0.00000000
0.13895447 0.00000000 0.00000000
0.18788708 0.00000000 0.00000000
0.23841527 0.00000000 0.00000000
0.29481287 0.00000000 0.00000000
0.35779455 0.00000000 0.00000000
0.42809904 0.00000000 0.00000000
0.50155016 0.00000000 0.00000000
0.56900678 0.00000000 0.00000000
0.63062450 0.00000000 0.00000000
0.68673965 0.00000000 0.00000000
0.73762655 0.00000000 0.00000000
0.78350786 0.00000000 0.00000000
0.82456208 0.00000000 0.00000000
0.86092903 0.00000000 0.00000000
0.89271401 0.00000000 0.00000000
0.91999090 0.00000000 0.00000000
0.94280447 0.00000000 0.00000000
0.96117206 0.00000000 0.00000000
0.97508464 0.00000000 0.00000000
0.98450746 0.00000000 0.00000000
0.98938017 0.00000000 0.00000000
0.99059390 0.00000000 0.00000000
0.99151527 0.00000000 0.00000000
0.99243883 0.00000000 0.00000000
0.99336586 0.00000000 0.00000000
0.99429767 0.00000000 0.00000000
0.99523559 0.00000000 0.00000000
0.99618096 0.00000000 0.00000000
0.99713519 0.00000000 0.00000000
0.99809973 0.00000000 0.00000000
0.99907610 0.00000000 0.00000000
0.00000000 0.05644557 0.00000000
0.05331807 0.05023997 0.00000000
0.11970839 0.04464775 0.00000000
0.17284576 0.03856900 0.00000000
0.22620357 0.03080970 0.00000000
0.28477004 0.02030332 0.00000000
0.34945458 0.00618873 0.00000000
0.42111934 0.00000000 0.00000000
0.49650746 0.00000000 0.00000000
0.56550905 0.00000000 0.00000000
0.62819115 0.00000000 0.00000000
0.68504529 0.00000000 0.00000000
0.73644824 0.00000000 0.00000000
0.78269138 0.00000000 0.00000000
0.82399990 0.00000000 0.00000000
0.86054569 0.00000000 0.00000000
0.89245630 0.00000000 0.00000000
0.91982119 0.00000000 0.00000000
0.94269607 0.00000000 0.00000000
0.96110603 0.00000000 0.00000000
0.97504755 0.00000000 0.00000000
0.98448979 0.00000000 0.00000000
0.98937525 0.00000000 0.00000000
0.99059253 0.00000000 0.00000000
0.99151422 0.00000000 0.00000000
0.99243801 0.00000000 0.00000000
0.99336522 0.00000000 0.00000000
0.99429718 0.00000000 0.00000000
0.99523521 0.00000000 0.00000000
0.99618067 0.00000000 0.00000000
0.99713497 0.00000000 0.00000000
0.99809956 0.00000000 0.00000000
0.99907597 0.00000000 0.00000000
0.00000000 0.10557080 0.00000000
0.03019229 0.10016008 0.00000000
0.10039014 0.09512542 0.00000000
0.15836124 0.08946521 0.00000000
0.21469755 0.08192337 0.00000000
0.27543639 0.07116966 0.00000000
0.34177311 0.05705507 0.00000000
0.41472998 0.03823170 0.00000000
0.49184847 0.01329197 0.00000000
0.56229750 0.00000000 0.00000000
0.62596695 0.00000000 0.00000000
0.68350168 0.00000000 0.00000000
0.73537741 0.00000000 0.00000000
0.78195074 0.00000000 0.00000000
0.82349064 0.00000000 0.00000000
0.86019879 0.00000000 0.00000000
0.89222328 0.00000000 0.00000000
0.91966783 0.00000000 0.00000000
0.94259815 0.00000000 0.00000000
0.96104640 0.00000000 0.00000000
0.97501405 0.00000000 0.00000000
0.98447384 0.00000000 0.00000000
0.98937079 0.00000000 0.00000000
0.99059131 0.00000000 0.00000000
0.99151326 0.00000000 0.00000000
0.99243727 0.00000000 0.00000000
0.99336465 0.00000000 0.00000000
0.99429674 0.00000000 0.00000000
0.99523487 0.00000000 0.00000000
0.99618041 0.00000000 0.00000000
0.99713477 0.00000000 0.00000000
0.99809941 0.00000000 0.00000000
0.99907585 0.00000000 0.00000000
0.00000000 0.14763844 0.00000000
0.00505452 0.14335737 0.00000000
0.07622828 0.13941869 0.00000000
0.14139244 0.13504509 0.00000000
0.20157498 0.12931289 0.00000000
0.26495700 0.12125879 0.00000000
0.33323334 0.10983558 0.00000000
0.40767272 0.09329429 0.00000000
0.48665502 0.06858376 0.00000000
0.55874031 0.03572789 0.00000000
0.62351464 0.00000000 0.00000000
0.68180545 0.00000000 0.00000000
0.73420360 0.00000000 0.00000000
0.78114037 0.00000000 0.00000000
0.82293420 0.00000000 0.00000000
0.85982016 0.00000000 0.00000000
0.89196914 0.00000000 0.00000000
0.91950066 0.00000000 0.00000000
0.94249147 0.00000000 0.00000000
0.96098145 0.00000000 0.00000000
0.97497757 0.00000000 0.00000000
0.98445647 0.00000000 0.00000000
0.98936593 0.00000000 0.00000000
0.99058997 0.00000000 0.00000000
0.99151223 0.00000000 0.00000000
0.99243647 0.00000000 0.00000000
0.99336404 0.00000000 0.00000000
0.99429626 0.00000000 0.00000000
0.99523450 0.00000000 0.00000000
0.99618013 0.00000000 0.00000000
0.99713455 0.00000000 0.00000000
0.99809924 0.00000000 0.00000000
0.99907573 0.00000000 0.00000000
0.00000000 0.19107780 0.00000000
0.00000000 0.18757813 0.00000000
0.04414085 0.18437901 0.00000000
0.11733281 0.18085073 0.00000000
0.18373173 0.17626645 0.00000000
0.25101935 0.16990626 0.00000000
0.32202352 0.16106068 0.00000000
0.39848597 0.14865813 0.00000000
0.47982022 0.13095131 0.00000000
0.55409566 0.10470547 0.00000000
0.62033053 0.06323325 0.00000000
0.67961196 0.00700366 0.00000000
0.73269020 0.00000000 0.00000000
0.78009786 0.00000000 0.00000000
0.82221955 0.00000000 0.00000000
0.85933447 0.00000000 0.00000000
0.89164346 0.00000000 0.00000000
0.91928659 0.00000000 0.00000000
0.94235492 0.00000000 0.00000000
0.96089834 0.00000000 0.00000000
0.97493091 0.00000000 0.00000000
0.98443424 0.00000000 0.00000000
0.98935971 0.00000000 0.00000000
0.99058826 0.00000000 0.00000000
0.99151091 0.00000000 0.00000000
0.99243545 0.00000000 0.00000000
0.99336324 0.00000000 0.00000000
0.99429565 0.00000000 0.00000000
0.99523403 0.00000000 0.00000000
0.99617976 0.00000000 0.00000000
0.99713427 0.00000000 0.00000000
0.99809903 0.00000000 0.00000000
0.99907556 0.00000000 0.00000000
0.00000000 0.23956314 0.00000000
0.00000000 0.23667216 0.00000000
0.00069332 0.23404061 0.00000000
0.07805931 0.23115097 0.00000000
0.15711480 0.22741694 0.00000000
0.23098920 0.22227613 0.00000000
0.30623683 0.21520729 0.00000000
0.38570596 0.20546627 0.00000000
0.47017344 0.19194118 0.00000000
0.54761163 0.17285366 0.00000000
0.61591948 0.14502408 0.00000000
0.67658993 0.10145125 0.00000000
0.73061350 0.02942326 0.00000000
0.77867155 0.00000000 0.00000000
0.82124396 0.00000000 0.00000000
0.85867254 0.00000000 0.00000000
0.89120015 0.00000000 0.00000000
0.91899548 0.00000000 0.00000000
0.94216935 0.00000000 0.00000000
0.96078546 0.00000000 0.00000000
0.97486753 0.00000000 0.00000000
0.98440404 0.00000000 0.00000000
0.98935122 0.00000000 0.00000000
0.99058595 0.00000000 0.00000000
0.99150912 0.00000000 0.00000000
0.99243406 0.00000000 0.00000000
0.99336217 0.00000000 0.00000000
0.99429482 0.00000000 0.00000000
0.99523339 0.00000000 0.00000000
0.99617927 0.00000000 0.00000000
0.99713390 0.00000000 0.00000000
0.99809874 0.00000000 0.00000000
0.99907534 0.00000000 0.00000000
0.00000000 0.29370885 0.00000000
0.00000000 0.29130085 0.00000000
0.00000000 0.28911521 0.00000000
0.01969053 0.28672222 0.00000000
0.11486274 0.28364104 0.00000000
0.20147517 0.27942004 0.00000000
0.28376369 0.27365716 0.00000000
0.36785925 0.26579787 0.00000000
0.45643629 0.25505459 0.00000000
0.53852387 0.24026171 0.00000000
0.60980422 0.21958384 0.00000000
0.67243253 0.18982738 0.00000000
0.72777244 0.14433834 0.00000000
0.77672823 0.06293955 0.00000000
0.81991875 0.00000000 0.00000000
0.85777545 0.00000000 0.00000000
0.89060035 0.00000000 0.00000000
0.91860210 0.00000000 0.00000000
0.94191882 0.00000000 0.00000000
0.96063315 0.00000000 0.00000000
0.97478204 0.00000000 0.00000000
0.98436330 0.00000000 0.00000000
0.98933974 0.00000000 0.00000000
0.99058284 0.00000000 0.00000000
0.99150671 0.00000000 0.00000000
0.99243220 0.00000000 0.00000000
0.99336073 0.00000000 0.00000000
0.99429371 0.00000000 0.00000000
0.99523254 0.00000000 0.00000000
0.99617862 0.00000000 0.00000000
0.99713339 0.00000000 0.00000000
0.99809835 0.00000000 0.00000000
0.99907505 0.00000000 0.00000000
0.00000000 0.35415001 0.00000000
0.00000000 0.35213061 0.00000000
0.00000000 0.35030130 0.00000000
0.00000000 0.34830246 0.00000000
0.04060411 0.34573504 0.00000000
0.15548383 0.34222951 0.00000000
0.25101172 0.33746580 0.00000000
0.34267421 0.33101220 0.00000000
0.43657958 0.32227476 0.00000000
0.52566806 0.31041422 0.00000000
0.60128809 0.29419840 0.00000000
0.66670550 0.27171159 0.00000000
0.72388893 0.23969165 0.00000000
0.77408673 0.19162221 0.00000000
0.81812490 0.10904965 0.00000000
0.85656483 0.00000000 0.00000000
0.88979280 0.00000000 0.00000000
0.91807337 0.00000000 0.00000000
0.94158252 0.00000000 0.00000000
0.96042886 0.00000000 0.00000000
0.97466742 0.00000000 0.00000000
0.98430864 0.00000000 0.00000000
0.98932427 0.00000000 0.00000000
0.99057869 0.00000000 0.00000000
0.99150350 0.00000000 0.00000000
0.99242972 0.00000000 0.00000000
0.99335881 0.00000000 0.00000000
0.99429223 0.00000000 0.00000000
0.99523139 0.00000000 0.00000000
0.99617774 0.00000000 0.00000000
0.99713272 0.00000000 0.00000000
0.99809784 0.00000000 0.00000000
0.99907465 0.00000000 0.00000000
0.00000000 0.42157323 0.00000000
0.00000000 0.41986997 0.00000000
0.00000000 0.41832919 0.00000000
0.00000000 0.41664797 0.00000000
0.00000000 0.41449217 0.00000000
0.07118719 0.41155540 0.00000000
0.20075811 0.40757724 0.00000000
0.30632083 0.40221174 0.00000000
0.40838997 0.39499279 0.00000000
0.50716284 0.38528094 0.00000000
0.58930910 0.37217662 0.00000000
0.65877384 0.35436789 0.00000000
0.71856843 0.32983603 0.00000000
0.77049583 0.29520261 0.00000000
0.81570007 0.24393694 0.00000000
0.85493523 0.15902046 0.00000000
0.88870914 0.00000000 0.00000000
0.91736549 0.00000000 0.00000000
0.94113301 0.00000000 0.00000000
0.96015611 0.00000000 0.00000000
0.97451447 0.00000000 0.00000000
0.98423567 0.00000000 0.00000000
0.98930349 0.00000000 0.00000000
0.99057319 0.00000000 0.00000000
0.99149924 0.00000000 0.00000000
0.99242642 0.00000000 0.00000000
0.99335627 0.00000000 0.00000000
0.99429027 0.00000000 0.00000000
0.99522988 0.00000000 0.00000000
0.99617657 0.00000000 0.00000000
0.99713182 0.00000000 0.00000000
0.99809715 0.00000000 0.00000000
0.99907413 0.00000000 0.00000000
0.00000000 0.49311275 0.00000000
0.00000000 0.49185161 0.00000000
0.00000000 0.49070812 0.00000000
0.00000000 0.48945752 0.00000000
0.00000000 0.48784951 0.00000000
0.00000000 0.48565102 0.00000000
0.11200520 0.48265833 0.00000000
0.25126316 0.47859538 0.00000000
0.36803717 0.47308086 0.00000000
0.47971254 0.46557537 0.00000000
0.57215349 0.45529189 0.00000000
0.64766917 0.44103500 0.00000000
0.71123325 0.42144463 0.00000000
0.76559843 0.39460763 0.00000000
0.81241866 0.35698386 0.00000000
0.85274249 0.30190532 0.00000000
0.88725711 0.21302857 0.00000000
0.91641992 0.01094374 0.00000000
0.94053391 0.00000000 0.00000000
0.95979314 0.00000000 0.00000000
0.97431106 0.00000000 0.00000000
0.98413856 0.00000000 0.00000000
0.98927563 0.00000000 0.00000000
0.99056592 0.00000000 0.00000000
0.99149362 0.00000000 0.00000000
0.99242208 0.00000000 0.00000000
0.99335291 0.00000000 0.00000000
0.99428768 0.00000000 0.00000000
0.99522788 0.00000000 0.00000000
0.99617504 0.00000000 0.00000000
0.99713065 0.00000000 0.00000000
0.99809625 0.00000000 0.00000000
0.99907345 0.00000000 0.00000000
0.00000000 0.55945019 0.00000000
0.00000000 0.55856465 0.00000000
0.00000000 0.55776291 0.00000000
0.00000000 0.55688738 0.00000000
0.00000000 0.55576361 0.00000000
0.00000000 0.55423082 0.00000000
0.00000000 0.55215108 0.00000000
0.15684949 0.54934011 0.00000000
0.30759201 0.54554801 0.00000000
0.43685486 0.54042988 0.00000000
0.54682932 0.53349852 0.00000000
0.63182984 0.52404457 0.00000000
0.70100170 0.51099299 0.00000000
0.75887079 0.49262431 0.00000000
0.80795932 0.46597577 0.00000000
0.84978573 0.42571454 0.00000000
0.88531028 0.36617429 0.00000000
0.91515740 0.27194309 0.00000000
0.93973638 0.06382326 0.00000000
0.95931091 0.00000000 0.00000000
0.97404107 0.00000000 0.00000000
0.98400956 0.00000000 0.00000000
0.98923826 0.00000000 0.00000000
0.99055638 0.00000000 0.00000000
0.99148624 0.00000000 0.00000000
0.99241638 0.00000000 0.00000000
0.99334851 0.00000000 0.00000000
0.99428428 0.00000000 0.00000000
0.99522526 0.00000000 0.00000000
0.99617302 0.00000000 0.00000000
0.99712910 0.00000000 0.00000000
0.99809507 0.00000000 0.00000000
0.99907254 0.00000000 0.00000000
0.00000000 0.62036333 0.00000000
0.00000000 0.61974053 0.00000000
0.00000000 0.61917729 0.00000000
0.00000000 0.61856288 0.00000000
0.00000000 0.61777528 0.00000000
0.00000000 0.61670289 0.00000000
0.00000000 0.61525127 0.00000000
0.00000000 0.61329557 0.00000000
0.20632315 0.61066879 0.00000000
0.37038103 0.60714451 0.00000000
0.50747852 0.60241039 0.00000000
0.60853556 0.59602561 0.00000000
0.68645167 0.58734919 0.00000000
0.74951233 0.57541180 0.00000000
0.80184955 0.55866860 0.00000000
0.84577800 0.53447342 0.00000000
0.88269184 0.49779802 0.00000000
0.91346888 0.43743591 0.00000000
0.93867403 0.33651046 0.00000000
0.95867026 0.13093003 0.00000000
0.97368286 0.00000000 0.00000000
0.98383821 0.00000000 0.00000000
0.98918803 0.00000000 0.00000000
0.99054388 0.00000000 0.00000000
0.99147659 0.00000000 0.00000000
0.99240892 0.00000000 0.00000000
0.99334275 0.00000000 0.00000000
0.99427983 0.00000000 0.00000000
0.99522184 0.00000000 0.00000000
0.99617039 0.00000000 0.00000000
0.99712708 0.00000000 0.00000000
0.99809353 0.00000000 0.00000000
0.99907137 0.00000000 0.00000000
0.00000000 0.67612902 0.00000000
0.00000000 0.67569106 0.00000000
0.00000000 0.67529530 0.00000000
0.00000000 0.67486394 0.00000000
0.00000000 0.67431153 0.00000000
0.00000000 0.67356032 0.00000000
0.00000000 0.67254525 0.00000000
0.00000000 0.67118091 0.00000000
0.00000000 0.66935426 0.00000000
0.26107567 0.66691405 0.00000000
0.44032739 0.66365526 0.00000000
0.57248717 0.65929502 0.00000000
0.66510847 0.65343424 0.00000000
0.73623025 0.64549288 0.00000000
0.79336538 0.63459473 0.00000000
0.84029598 0.61934632 0.00000000
0.87914822 0.59737021 0.00000000
0.91120115 0.56418143 0.00000000
0.93725498 0.50989937 0.00000000
0.95781759 0.40744052 0.00000000
0.97320692 0.19656624 0.00000000
0.98361025 0.00000000 0.00000000
0.98912018 0.00000000 0.00000000
0.99052755 0.00000000 0.00000000
0.99146399 0.00000000 0.00000000
0.99239919 0.00000000 0.00000000
0.99333524 0.00000000 0.00000000
0.99427405 0.00000000 0.00000000
0.99521739 0.00000000 0.00000000
0.99616697 0.00000000 0.00000000
0.99712446 0.00000000 0.00000000
0.99809152 0.00000000 0.00000000
0.99906984 0.00000000 0.00000000
0.00000000 0.72697298 0.00000000
0.00000000 0.72666560 0.00000000
0.00000000 0.72638801 0.00000000
0.00000000 0.72608563 0.00000000
0.00000000 0.72569867 0.00000000
0.00000000 0.72517297 0.00000000
0.00000000 0.72446353 0.00000000
0.00000000 0.72351166 0.00000000
0.00000000 0.72224026 0.00000000
0.00000000 0.72054719 0.00000000
0.32175294 0.71829580 0.00000000
0.51136124 0.71530074 0.00000000
0.63216732 0.71130621 0.00000000
0.71677425 0.70595107 0.00000000
0.78133505 0.69871029 0.00000000
0.83268870 0.68879077 0.00000000
0.87430362 0.67493217 0.00000000
0.90813329 0.65498867 0.00000000
0.93534932 0.62493077 0.00000000
0.95667810 0.57596731 0.00000000
0.97257242 0.48313276 0.00000000
0.98330591 0.26372628 0.00000000
0.98902790 0.00000000 0.00000000
0.99050627 0.00000000 0.00000000
0.99144758 0.00000000 0.00000000
0.99238654 0.00000000 0.00000000
0.99332549 0.00000000 0.00000000
0.99426653 0.00000000 0.00000000
0.99521160 0.00000000 0.00000000
0.99616252 0.00000000 0.00000000
0.99712105 0.00000000 0.00000000
0.99808891 0.00000000 0.00000000
0.99906785 0.00000000 0.00000000
0.00000000 0.77307725 0.00000000
0.00000000 0.77286237 0.00000000
0.00000000 0.77266841 0.00000000
0.00000000 0.77245723 0.00000000
0.00000000 0.77218712 0.00000000
0.00000000 0.77182043 0.00000000
0.00000000 0.77132606 0.00000000
0.00000000 0.77066364 0.00000000
0.00000000 0.76978041 0.00000000
0.00000000 0.76860703 0.00000000
0.02526115 0.76705162 0.00000000
0.38903023 0.76499117 0.00000000
0.57654752 0.76225868 0.00000000
0.68678200 0.75862342 0.00000000
0.76371547 0.75375923 0.00000000
0.82189878 0.74719139 0.00000000
0.86757734 0.73820196 0.00000000
0.90393587 0.72564938 0.00000000
0.93276830 0.70759055 0.00000000
0.95514502 0.68038422 0.00000000
0.97172165 0.63613251 0.00000000
0.98289717 0.55275439 0.00000000
0.98890118 0.33405888 0.00000000
0.99047854 0.00000000 0.00000000
0.99142624 0.00000000 0.00000000
0.99237010 0.00000000 0.00000000
0.99331282 0.00000000 0.00000000
0.99425678 0.00000000 0.00000000
0.99520410 0.00000000 0.00000000
0.99615676 0.00000000 0.00000000
0.99711663 0.00000000 0.00000000
0.99808553 0.00000000 0.00000000
0.99906527 0.00000000 0.00000000
0.00000000 0.81458567 0.00000000
0.00000000 0.81443642 0.00000000
0.00000000 0.81430175 0.00000000
0.00000000 0.81415517 0.00000000
0.00000000 0.81396776 0.00000000
0.00000000 0.81371349 0.00000000
0.00000000 0.81337094 0.00000000
0.00000000 0.81291239 0.00000000
0.00000000 0.81230181 0.00000000
0.00000000 0.81149209 0.00000000
0.00000000 0.81042127 0.00000000
0.08561415 0.80900722 0.00000000
0.46304383 0.80713980 0.00000000
0.63624956 0.80466930 0.00000000
0.73654500 0.80138850 0.00000000
0.80607663 0.79700388 0.00000000
0.85802119 0.79108728 0.00000000
0.89809636 0.78298974 0.00000000
0.92922807 0.77167721 0.00000000
0.95306153 0.75538687 0.00000000
0.97057097 0.73081397 0.00000000
0.98234348 0.69080604 0.00000000
0.98872495 0.61554518 0.00000000
0.99044241 0.40844246 0.00000000
0.99139850 0.00000000 0.00000000
0.99234876 0.00000000 0.00000000
0.99329640 0.00000000 0.00000000
0.99424415 0.00000000 0.00000000
0.99519439 0.00000000 0.00000000
0.99614931 0.00000000 0.00000000
0.99711092 0.00000000 0.00000000
0.99808117 0.00000000 0.00000000
0.99906195 0.00000000 0.00000000
0.00000000 0.85160804 0.00000000
0.00000000 0.85150535 0.00000000
0.00000000 0.85141271 0.00000000
0.00000000 0.85131190 0.00000000
0.00000000 0.85118307 0.00000000
0.00000000 0.85100834 0.00000000
0.00000000 0.85077307 0.00000000
0.00000000 0.85045838 0.00000000
0.00000000 0.85003976 0.00000000
0.00000000 0.84948537 0.00000000
0.00000000 0.84875352 0.00000000
0.00000000 0.84778936 0.00000000
0.15339010 0.84652005 0.00000000
0.53393832 0.84484779 0.00000000
0.69076525 0.84263931 0.00000000
0.78162779 0.83970970 0.00000000
0.84396824 0.83579627 0.00000000
0.88977191 0.83051453 0.00000000
0.92428290 0.82327971 0.00000000
0.95018895 0.81315663 0.00000000
0.96899548 0.79854541 0.00000000
0.98158447 0.77643798 0.00000000
0.98847599 0.74031496 0.00000000
0.99039529 0.67216477 0.00000000
0.99136240 0.48484585 0.00000000
0.99232106 0.00000000 0.00000000
0.99327512 0.00000000 0.00000000
0.99422779 0.00000000 0.00000000
0.99518183 0.00000000 0.00000000
0.99613967 0.00000000 0.00000000
0.99710354 0.00000000 0.00000000
0.99807554 0.00000000 0.00000000
0.99905766 0.00000000 0.00000000
0.00000000 0.88422320 0.00000000
0.00000000 0.88415348 0.00000000
0.00000000 0.88409060 0.00000000
0.00000000 0.88402220 0.00000000
0.00000000 0.88393479 0.00000000
0.00000000 0.88381628 0.00000000
0.00000000 0.88365678 0.00000000
0.00000000 0.88344356 0.00000000
0.00000000 0.88316014 0.00000000
0.00000000 0.88278518 0.00000000
0.00000000 0.88229086 0.00000000
0.00000000 0.88164079 0.00000000
0.00000000 0.88078698 0.00000000
0.22090985 0.87966561 0.00000000
0.59843232 0.87819074 0.00000000
0.74033553 0.87624495 0.00000000
0.82216472 0.87366474 0.00000000
0.87746995 0.87021687 0.00000000
0.91719255 0.86555844 0.00000000
0.94614759 0.85916527 0.00000000
0.96680161 0.85019455 0.00000000
0.98052734 0.83719625 0.00000000
0.98811746 0.81742873 0.00000000
0.99033367 0.78492009 0.00000000
0.99131537 0.72312248 0.00000000
0.99228506 0.55256952 0.00000000
0.99324752 0.00000000 0.00000000
0.99420662 0.00000000 0.00000000
0.99516559 0.00000000 0.00000000
0.99612723 0.00000000 0.00000000
0.99709402 0.00000000 0.00000000
0.99806826 0.00000000 0.00000000
0.99905212 0.00000000 0.00000000
0.00000000 0.91248135 0.00000000
0.00000000 0.91243491 0.00000000
0.00000000 0.91239304 0.00000000
0.00000000 0.91234749 0.00000000
0.00000000 0.91228929 0.00000000
0.00000000 0.91221041 0.00000000
0.00000000 0.91210428 0.00000000
0.00000000 0.91196247 0.00000000
0.00000000 0.91177408 0.00000000
0.00000000 0.91152503 0.00000000
0.00000000 0.91119703 0.00000000
0.00000000 0.91076626 0.00000000
0.00000000 0.91020147 0.00000000
0.00000000 0.90946141 0.00000000
0.29116503 0.90849102 0.00000000
0.65703846 0.90721595 0.00000000
0.78515344 0.90553418 0.00000000
0.85825685 0.90330299 0.00000000
0.90663285 0.90031769 0.00000000
0.94029821 0.89627547 0.00000000
0.96367554 0.89071026 0.00000000
0.97902397 0.88286700 0.00000000
0.98758910 0.87143603 0.00000000
0.99025277 0.85391968 0.00000000
0.99125391 0.82482891 0.00000000
0.99223819 0.76881873 0.00000000
0.99321168 0.61168402 0.00000000
0.99417918 0.00000000 0.00000000
0.99514457 0.00000000 0.00000000
0.99611114 0.00000000 0.00000000
0.99708172 0.00000000 0.00000000
0.99805888 0.00000000 0.00000000
0.99904498 0.00000000 0.00000000
0.00000000 0.93640574 0.00000000
0.00000000 0.93637564 0.00000000
0.00000000 0.93634851 0.00000000
0.00000000 0.93631900 0.00000000
0.00000000 0.93628130 0.00000000
0.00000000 0.93623022 0.00000000
0.00000000 0.93616150 0.00000000
0.00000000 0.93606970 0.00000000
0.00000000 0.93594780 0.00000000
0.00000000 0.93578675 0.00000000
0.00000000 0.93557481 0.00000000
0.00000000 0.93529672 0.00000000
0.00000000 0.93493260 0.00000000
0.00000000 0.93445629 0.00000000
0.00000000 0.93383312 0.00000000
0.36564645 0.93301670 0.00000000
0.71016132 0.93194405 0.00000000
0.82537082 0.93052831 0.00000000
0.88997497 0.92864717 0.00000000
0.93148115 0.92612394 0.00000000
0.95907844 0.92269504 0.00000000
0.97682678 0.91795099 0.00000000
0.98678883 0.91122156 0.00000000
0.99014591 0.90133113 0.00000000
0.99117324 0.88601028 0.00000000
0.99217695 0.86020518 0.00000000
0.99316502 0.80957339 0.00000000
0.99414355 0.66327583 0.00000000
0.99511735 0.00000000 0.00000000
0.99609033 0.00000000 0.00000000
0.99706583 0.00000000 0.00000000
0.99804677 0.00000000 0.00000000
0.99903577 0.00000000 0.00000000
0.00000000 0.95599374 0.00000000
0.00000000 0.95597503 0.00000000
0.00000000 0.95595817 0.00000000
0.00000000 0.95593983 0.00000000
0.00000000 0.95591640 0.00000000
0.00000000 0.95588465 0.00000000
0.00000000 0.95584196 0.00000000
0.00000000 0.95578494 0.00000000
0.00000000 0.95570924 0.00000000
0.00000000 0.95560927 0.00000000
0.00000000 0.95547778 0.00000000
0.00000000 0.95530537 0.00000000
0.00000000 0.95507983 0.00000000
0.00000000 0.95478514 0.00000000
0.00000000 0.95440019 0.00000000
0.00000000 0.95389688 0.00000000
0.44528146 0.95323739 0.00000000
0.75812235 0.95237005 0.00000000
0.86110340 0.95122305 0.00000000
0.91736173 0.94969438 0.00000000
0.95201328 0.94763516 0.00000000
0.97349777 0.94482073 0.00000000
0.98553630 0.94089762 0.00000000
0.99000354 0.93527908 0.00000000
0.99106669 0.92692010 0.00000000
0.99209657 0.91376976 0.00000000
0.99310407 0.89117631 0.00000000
0.99409718 0.84564605 0.00000000
0.99508200 0.70808503 0.00000000
0.99606337 0.00000000 0.00000000
0.99704528 0.00000000 0.00000000
0.99803112 0.00000000 0.00000000
0.99902388 0.00000000 0.00000000
0.00000000 0.97121754 0.00000000
0.00000000 0.97120667 0.00000000
0.00000000 0.97119688 0.00000000
0.00000000 0.97118623 0.00000000
0.00000000 0.97117262 0.00000000
0.00000000 0.97115419 0.00000000
0.00000000 0.97112940 0.00000000
0.00000000 0.97109630 0.00000000
0.00000000 0.97105237 0.00000000
0.00000000 0.97099436 0.00000000
0.00000000 0.97091808 0.00000000
0.00000000 0.97081810 0.00000000
0.00000000 0.97068737 0.00000000
0.00000000 0.97051668 0.00000000
0.00000000 0.97029391 0.00000000
0.00000000 0.97000298 0.00000000
0.00000000 0.96962235 0.00000000
0.52163050 0.96912278 0.00000000
0.80117726 0.96846394 0.00000000
0.89243458 0.96758913 0.00000000
0.94043319 0.96641673 0.00000000
0.96820258 0.96482585 0.00000000
0.98349579 0.96263102 0.00000000
0.98971375 0.95953504 0.00000000
0.99092467 0.95503483 0.00000000
0.99199036 0.94821539 0.00000000
0.99302403 0.93724010 0.00000000
0.99403657 0.91783918 0.00000000
0.99503596 0.87725140 0.00000000
0.99602836 0.74659270 0.00000000
0.99701864 0.00000000 0.00000000
