BT601_NTSC_to_BT601_PAL.cube
TITLE "Custom LUT"
LUT_3D_SIZE 33
# BT601 NTSC to BT601 PAL by Francesco Bucciantini
0.00000000 0.00000000 0.00000000
0.02814553 0.00055538 0.00000000
0.05629106 0.00111076 0.00000000
0.08488492 0.00167089 0.00000000
0.11469766 0.00233322 0.00000000
0.14451039 0.00311885 0.00000000
0.17432312 0.00403142 0.00000000
0.20413585 0.00507425 0.00000000
0.23394858 0.00625036 0.00000000
0.26376131 0.00756256 0.00000000
0.29357404 0.00901348 0.00000000
0.32338677 0.01060557 0.00000000
0.35319950 0.01234115 0.00000000
0.38301223 0.01422242 0.00000000
0.41282497 0.01625145 0.00000000
0.44263770 0.01843023 0.00000000
0.47245043 0.02076066 0.00000000
0.50226316 0.02324456 0.00000000
0.53207589 0.02588366 0.00000000
0.56188862 0.02867965 0.00000000
0.59170135 0.03163415 0.00000000
0.62151408 0.03474872 0.00000000
0.65132681 0.03802487 0.00000000
0.68113954 0.04146405 0.00000000
0.71095228 0.04506770 0.00000000
0.74076501 0.04883718 0.00000000
0.77057774 0.05277384 0.00000000
0.80039047 0.05687897 0.00000000
0.83020320 0.06115384 0.00000000
0.86001593 0.06559969 0.00000000
0.88982866 0.07021772 0.00000000
0.91964139 0.07500911 0.00000000
0.94945412 0.07997500 0.00000000
0.00277521 0.03018103 0.00000000
0.03092074 0.03073641 0.00000000
0.05906627 0.03129179 0.00000000
0.08757289 0.03185191 0.00000000
0.11694028 0.03251424 0.00000000
0.14642522 0.03329988 0.00000000
0.17598766 0.03421245 0.00000000
0.20560367 0.03525528 0.00000000
0.23525812 0.03643138 0.00000000
0.26494103 0.03774359 0.00000000
0.29464555 0.03919450 0.00000000
0.32436683 0.04078660 0.00000000
0.35410136 0.04252218 0.00000000
0.38384652 0.04440345 0.00000000
0.41360035 0.04643248 0.00000000
0.44336132 0.04861126 0.00000000
0.47312825 0.05094169 0.00000000
0.50290018 0.05342559 0.00000000
0.53267636 0.05606469 0.00000000
0.56245619 0.05886068 0.00000000
0.59223915 0.06181518 0.00000000
0.62202483 0.06492975 0.00000000
0.65181289 0.06820589 0.00000000
0.68160303 0.07164508 0.00000000
0.71139501 0.07524873 0.00000000
0.74118861 0.07901821 0.00000000
0.77098367 0.08319267 0.00000000
0.80078003 0.08719604 0.00000000
0.83057754 0.09125608 0.00000000
0.86037611 0.09536909 0.00000000
0.89017562 0.09953167 0.00000000
0.91997598 0.10374064 0.00000000
0.94977712 0.10799306 0.00000000
0.00555042 0.06036205 0.00000000
0.03369595 0.06091744 0.00000000
0.06184148 0.06147282 0.00000000
0.09021433 0.06203294 0.00000000
0.11915479 0.06269527 0.00000000
0.14832196 0.06348090 0.00000000
0.17763997 0.06439348 0.00000000
0.20706289 0.06543630 0.00000000
0.23656143 0.06661241 0.00000000
0.26611610 0.06792461 0.00000000
0.29571351 0.06937553 0.00000000
0.32534412 0.07096762 0.00000000
0.35500102 0.07270321 0.00000000
0.38467905 0.07458447 0.00000000
0.41437431 0.07661350 0.00000000
0.44408377 0.07879229 0.00000000
0.47380508 0.08137078 0.00000000
0.50353637 0.08383542 0.00000000
0.53327614 0.08641034 0.00000000
0.56302316 0.08909148 0.00000000
0.59277643 0.09187477 0.00000000
0.62253514 0.09475612 0.00000000
0.65229857 0.09773149 0.00000000
0.68206617 0.10079687 0.00000000
0.71183744 0.10394834 0.00000000
0.74161196 0.10718206 0.00000000
0.77138938 0.11049431 0.00000000
0.80116938 0.11388148 0.00000000
0.83095170 0.11734006 0.00000000
0.86073612 0.12086670 0.00000000
0.89052242 0.12445816 0.00000000
0.92031043 0.12811135 0.00000000
0.95010000 0.13182329 0.00000000
0.00834931 0.09075454 0.00000000
0.03649484 0.09127595 0.00000000
0.06464037 0.09179562 0.00000000
0.09283344 0.09231798 0.00000000
0.12136072 0.09293341 0.00000000
0.15021705 0.09366031 0.00000000
0.17929426 0.09450046 0.00000000
0.20852601 0.09545511 0.00000000
0.23786962 0.09652494 0.00000000
0.26729654 0.09771019 0.00000000
0.29678701 0.09901065 0.00000000
0.32632698 0.10042574 0.00000000
0.35590616 0.10195451 0.00000000
0.38551692 0.10359572 0.00000000
0.41515343 0.10534780 0.00000000
0.44481120 0.10720899 0.00000000
0.47448671 0.10917725 0.00000000
0.50417717 0.11125039 0.00000000
0.53388033 0.11342604 0.00000000
0.56359437 0.11570170 0.00000000
0.59331779 0.11807476 0.00000000
0.62304935 0.12054253 0.00000000
0.65278802 0.12310226 0.00000000
0.68253293 0.12575114 0.00000000
0.71228335 0.12848636 0.00000000
0.74203866 0.13130508 0.00000000
0.77179831 0.13420448 0.00000000
0.80156185 0.13718177 0.00000000
0.83132887 0.14023417 0.00000000
0.86109903 0.14335896 0.00000000
0.89087204 0.14655346 0.00000000
0.92064761 0.14981505 0.00000000
0.95042552 0.15314119 0.00000000
0.01165893 0.12151890 0.00000000
0.03980446 0.12195304 0.00000000
0.06794999 0.12238614 0.00000000
0.09587514 0.12282189 0.00000000
0.12393484 0.12333581 0.00000000
0.15243547 0.12394352 0.00000000
0.18123504 0.12464690 0.00000000
0.21024520 0.12544738 0.00000000
0.23940855 0.12634599 0.00000000
0.26868640 0.12734345 0.00000000
0.29805183 0.12844013 0.00000000
0.32748561 0.12963613 0.00000000
0.35697364 0.13093128 0.00000000
0.38650539 0.13232513 0.00000000
0.41607286 0.13381706 0.00000000
0.44566983 0.13540619 0.00000000
0.47529144 0.13709148 0.00000000
0.50493382 0.13887171 0.00000000
0.53459387 0.14074551 0.00000000
0.56426904 0.14271137 0.00000000
0.59395726 0.14476766 0.00000000
0.62365682 0.14691265 0.00000000
0.65336627 0.14914451 0.00000000
0.68308443 0.15146134 0.00000000
0.71281025 0.15386118 0.00000000
0.74254287 0.15634203 0.00000000
0.77228156 0.15890184 0.00000000
0.80202566 0.16153853 0.00000000
0.83177462 0.16425002 0.00000000
0.86152796 0.16703422 0.00000000
0.89128525 0.16988902 0.00000000
0.92104613 0.17281235 0.00000000
0.95081027 0.17580213 0.00000000
0.01558469 0.15228325 0.00000000
0.04373022 0.15265346 0.00000000
0.07187575 0.15302300 0.00000000
0.09940951 0.15339502 0.00000000
0.12694183 0.15383406 0.00000000
0.15503624 0.15435364 0.00000000
0.18351603 0.15495554 0.00000000
0.21226942 0.15564121 0.00000000
0.24122296 0.15641183 0.00000000
0.27032672 0.15726828 0.00000000
0.29954576 0.15821121 0.00000000
0.32885496 0.15924105 0.00000000
0.35823589 0.16035801 0.00000000
0.38767471 0.16156213 0.00000000
0.41716086 0.16285326 0.00000000
0.44668616 0.16423106 0.00000000
0.47624420 0.16569507 0.00000000
0.50582984 0.16724468 0.00000000
0.53543896 0.16887912 0.00000000
0.56506822 0.17059753 0.00000000
0.59471485 0.17239894 0.00000000
0.62437657 0.17428225 0.00000000
0.65405148 0.17624629 0.00000000
0.68373797 0.17828981 0.00000000
0.71343469 0.18041149 0.00000000
0.74314048 0.18260994 0.00000000
0.77285435 0.18488371 0.00000000
0.80257544 0.18723132 0.00000000
0.83230301 0.18965125 0.00000000
0.86203643 0.19214193 0.00000000
0.89177512 0.19470180 0.00000000
0.92151860 0.19732925 0.00000000
0.95126642 0.20002267 0.00000000
0.02014477 0.18304761 0.00000000
0.04829030 0.18336914 0.00000000
0.07643583 0.18369023 0.00000000
0.10342069 0.18401360 0.00000000
0.13037441 0.18439540 0.00000000
0.15801697 0.18484746 0.00000000
0.18613764 0.18537147 0.00000000
0.21460070 0.18596882 0.00000000
0.24331580 0.18664070 0.00000000
0.27222098 0.18738804 0.00000000
0.30127253 0.18821163 0.00000000
0.33043889 0.18911204 0.00000000
0.35969677 0.19008970 0.00000000
0.38902866 0.19114488 0.00000000
0.41842115 0.19227770 0.00000000
0.44786383 0.19348817 0.00000000
0.47734849 0.19477615 0.00000000
0.50686860 0.19614139 0.00000000
0.53641889 0.19758353 0.00000000
0.56599505 0.19910212 0.00000000
0.59559357 0.20069658 0.00000000
0.62521152 0.20236628 0.00000000
0.65484644 0.20411048 0.00000000
0.68449628 0.20592839 0.00000000
0.71415929 0.20781912 0.00000000
0.74383399 0.20978174 0.00000000
0.77351911 0.21181525 0.00000000
0.80321354 0.21391862 0.00000000
0.83291632 0.21609074 0.00000000
0.86262664 0.21833050 0.00000000
0.89234377 0.22063672 0.00000000
0.92206707 0.22300821 0.00000000
0.95179598 0.22544375 0.00000000
0.02535569 0.21381196 0.00000000
0.05350122 0.21409532 0.00000000
0.08189417 0.21437836 0.00000000
0.10788859 0.21466351 0.00000000
0.13422159 0.21500027 0.00000000
0.16137221 0.21539916 0.00000000
0.18909781 0.21586173 0.00000000
0.21723904 0.21638930 0.00000000
0.24568837 0.21698301 0.00000000
0.27437123 0.21764382 0.00000000
0.30323467 0.21837252 0.00000000
0.33224018 0.21916978 0.00000000
0.36135923 0.22003613 0.00000000
0.39057026 0.22097196 0.00000000
0.41985674 0.22197755 0.00000000
0.44920579 0.22305310 0.00000000
0.47860723 0.22419867 0.00000000
0.50805296 0.22541424 0.00000000
0.53753641 0.22669969 0.00000000
0.56705225 0.22805483 0.00000000
0.59659606 0.22947937 0.00000000
0.62616420 0.23097297 0.00000000
0.65575361 0.23253518 0.00000000
0.68536172 0.23416552 0.00000000
0.71498635 0.23586342 0.00000000
0.74462564 0.23762827 0.00000000
0.77427799 0.23945940 0.00000000
0.80394203 0.24135609 0.00000000
0.83361657 0.24331756 0.00000000
0.86330056 0.24534302 0.00000000
0.89299309 0.24743162 0.00000000
0.92269338 0.24958248 0.00000000
0.95240072 0.25179468 0.00000000
0.03123263 0.24457632 0.00000000
0.05937816 0.24482901 0.00000000
0.08764166 0.24508147 0.00000000
0.11279005 0.24533586 0.00000000
0.13846945 0.24563637 0.00000000
0.16509398 0.24599241 0.00000000
0.19239233 0.24640541 0.00000000
0.22018268 0.24687663 0.00000000
0.24834044 0.24740713 0.00000000
0.27677830 0.24799785 0.00000000
0.30543365 0.24864959 0.00000000
0.33426073 0.24936303 0.00000000
0.36322540 0.25013874 0.00000000
0.39230181 0.25097719 0.00000000
0.42147001 0.25187875 0.00000000
0.45071446 0.25284371 0.00000000
0.48002284 0.25387227 0.00000000
0.50938531 0.25496454 0.00000000
0.53879390 0.25612057 0.00000000
0.56824210 0.25734032 0.00000000
0.59772456 0.25862370 0.00000000
0.62723681 0.25997054 0.00000000
0.65677513 0.26138062 0.00000000
0.68633638 0.26285366 0.00000000
0.71591789 0.26438932 0.00000000
0.74551738 0.26598720 0.00000000
0.77513291 0.26764687 0.00000000
0.80476278 0.26936785 0.00000000
0.83440554 0.27114960 0.00000000
0.86405991 0.27299156 0.00000000
0.89372479 0.27489313 0.00000000
0.92339918 0.27685366 0.00000000
0.95308224 0.27887250 0.00000000
0.03778962 0.27534067 0.00000000
0.06593515 0.27556824 0.00000000
0.09380898 0.27579563 0.00000000
0.11809997 0.27602479 0.00000000
0.14310181 0.27629555 0.00000000
0.16917216 0.27661641 0.00000000
0.19601515 0.27698868 0.00000000
0.22342826 0.27741355 0.00000000
0.25127049 0.27789201 0.00000000
0.27944184 0.27842496 0.00000000
0.30786997 0.27901319 0.00000000
0.33650158 0.27965736 0.00000000
0.36529672 0.28035807 0.00000000
0.39422496 0.28111581 0.00000000
0.42326278 0.28193100 0.00000000
0.45239176 0.28280400 0.00000000
0.48159729 0.28373506 0.00000000
0.51086765 0.28472440 0.00000000
0.54019334 0.28577215 0.00000000
0.56956659 0.28687840 0.00000000
0.59898101 0.28804317 0.00000000
0.62843126 0.28926642 0.00000000
0.65791287 0.29054806 0.00000000
0.68742207 0.29188797 0.00000000
0.71695568 0.29328596 0.00000000
0.74651095 0.29474179 0.00000000
0.77608554 0.29625520 0.00000000
0.80567743 0.29782586 0.00000000
0.83528485 0.29945344 0.00000000
0.86490628 0.30113754 0.00000000
0.89454037 0.30287774 0.00000000
0.92418595 0.30467358 0.00000000
0.95384198 0.30652458 0.00000000
0.04503976 0.30610503 0.00000000
0.07318529 0.30631166 0.00000000
0.10035896 0.30651817 0.00000000
0.12379223 0.30672631 0.00000000
0.14810089 0.30697226 0.00000000
0.17359496 0.30726376 0.00000000
0.19995867 0.30760204 0.00000000
0.22697107 0.30798818 0.00000000
0.25447580 0.30842314 0.00000000
0.28236053 0.30890776 0.00000000
0.31054324 0.30944279 0.00000000
0.33896302 0.31002890 0.00000000
0.36757392 0.31066666 0.00000000
0.39634080 0.31135660 0.00000000
0.42523635 0.31209913 0.00000000
0.45423915 0.31289465 0.00000000
0.48333212 0.31374346 0.00000000
0.51250157 0.31464583 0.00000000
0.54173636 0.31560195 0.00000000
0.57102738 0.31661199 0.00000000
0.60036708 0.31767603 0.00000000
0.62974919 0.31879413 0.00000000
0.65916845 0.31996631 0.00000000
0.68862042 0.32119252 0.00000000
0.71810131 0.32247270 0.00000000
0.74760790 0.32380672 0.00000000
0.77713741 0.32519444 0.00000000
0.80668745 0.32663566 0.00000000
0.83625594 0.32813016 0.00000000
0.86584105 0.32967769 0.00000000
0.89544122 0.33127795 0.00000000
0.92505503 0.33293063 0.00000000
0.95468127 0.33463538 0.00000000
0.05299534 0.33686939 0.00000000
0.08138894 0.33705835 0.00000000
0.10725611 0.33724720 0.00000000
0.12984047 0.33743758 0.00000000
0.15344784 0.33766255 0.00000000
0.17834930 0.33792923 0.00000000
0.20421399 0.33823875 0.00000000
0.23080521 0.33859211 0.00000000
0.25795258 0.33899022 0.00000000
0.28553211 0.33943388 0.00000000
0.31345230 0.33992380 0.00000000
0.34164464 0.34046062 0.00000000
0.37005717 0.34104491 0.00000000
0.39864987 0.34167718 0.00000000
0.42739156 0.34235787 0.00000000
0.45625764 0.34308737 0.00000000
0.48522851 0.34386602 0.00000000
0.51428836 0.34469411 0.00000000
0.54342431 0.34557188 0.00000000
0.57262582 0.34649952 0.00000000
0.60188415 0.34747720 0.00000000
0.63119201 0.34850502 0.00000000
0.66054328 0.34958305 0.00000000
0.68993280 0.35071134 0.00000000
0.71935615 0.35188988 0.00000000
0.74880958 0.35311864 0.00000000
0.77828985 0.35439756 0.00000000
0.80779416 0.35572652 0.00000000
0.83732009 0.35710542 0.00000000
0.86686551 0.35853407 0.00000000
0.89642857 0.36001231 0.00000000
0.92600764 0.36153991 0.00000000
0.95560127 0.36311664 0.00000000
0.06166794 0.36763374 0.00000000
0.08982336 0.36780759 0.00000000
0.11446715 0.36798137 0.00000000
0.13621867 0.36815655 0.00000000
0.15912326 0.36836359 0.00000000
0.18342116 0.36860902 0.00000000
0.20877119 0.36889392 0.00000000
0.23492378 0.36921922 0.00000000
0.26169617 0.36958577 0.00000000
0.28895351 0.36999432 0.00000000
0.31659523 0.37044555 0.00000000
0.34454542 0.37094008 0.00000000
0.37274604 0.37147845 0.00000000
0.40115222 0.37206117 0.00000000
0.42972878 0.37268867 0.00000000
0.45844789 0.37336135 0.00000000
0.48728729 0.37407955 0.00000000
0.51622896 0.37484359 0.00000000
0.54525824 0.37565372 0.00000000
0.57436306 0.37651017 0.00000000
0.60353340 0.37741313 0.00000000
0.63276091 0.37836275 0.00000000
0.66203857 0.37935915 0.00000000
0.69136042 0.38040241 0.00000000
0.72072141 0.38149260 0.00000000
0.75011720 0.38262973 0.00000000
0.77954405 0.38381379 0.00000000
0.80899875 0.38504477 0.00000000
0.83847848 0.38632259 0.00000000
0.86798079 0.38764716 0.00000000
0.89750355 0.38901839 0.00000000
0.92704487 0.39043613 0.00000000
0.95660308 0.39190023 0.00000000
0.07106850 0.39839810 0.00000000
0.09847401 0.39855890 0.00000000
0.12196132 0.39871965 0.00000000
0.14290165 0.39888170 0.00000000
0.16510762 0.39907324 0.00000000
0.18879589 0.39930032 0.00000000
0.21361953 0.39956393 0.00000000
0.23931905 0.39986496 0.00000000
0.26570107 0.40020420 0.00000000
0.29262091 0.40058236 0.00000000
0.31996949 0.40100009 0.00000000
0.34766371 0.40145798 0.00000000
0.37563962 0.40195655 0.00000000
0.40384745 0.40249628 0.00000000
0.43224801 0.40307762 0.00000000
0.46081017 0.40370094 0.00000000
0.48950894 0.40436661 0.00000000
0.51832404 0.40507493 0.00000000
0.54723893 0.40582618 0.00000000
0.57623994 0.40662060 0.00000000
0.60531575 0.40745841 0.00000000
0.63445687 0.40833977 0.00000000
0.66365532 0.40926484 0.00000000
0.69290433 0.41023374 0.00000000
0.72219814 0.41124656 0.00000000
0.75153180 0.41230337 0.00000000
0.78090106 0.41340420 0.00000000
0.81030224 0.41454908 0.00000000
0.83973212 0.41573799 0.00000000
0.86918792 0.41697090 0.00000000
0.89866717 0.41824776 0.00000000
0.92816772 0.41956848 0.00000000
0.95768767 0.42093299 0.00000000
0.08145552 0.42916245 0.00000000
0.10731264 0.42931189 0.00000000
0.12971052 0.42946128 0.00000000
0.14986533 0.42961189 0.00000000
0.17138156 0.42978991 0.00000000
0.19445853 0.43000098 0.00000000
0.21874772 0.43024603 0.00000000
0.24398263 0.43052588 0.00000000
0.26996115 0.43084128 0.00000000
0.29652990 0.43119291 0.00000000
0.32357194 0.43158138 0.00000000
0.35099738 0.43200725 0.00000000
0.37873651 0.43247103 0.00000000
0.40673472 0.43297317 0.00000000
0.43494885 0.43351411 0.00000000
0.46334442 0.43409423 0.00000000
0.49189365 0.43471387 0.00000000
0.52057398 0.43537335 0.00000000
0.54936690 0.43607295 0.00000000
0.57825713 0.43681292 0.00000000
0.60723194 0.43759349 0.00000000
0.63628069 0.43841484 0.00000000
0.66539438 0.43927715 0.00000000
0.69456540 0.44018057 0.00000000
0.72378723 0.44112520 0.00000000
0.75305430 0.44211115 0.00000000
0.78236180 0.44313849 0.00000000
0.81170556 0.44420726 0.00000000
0.84108194 0.44531751 0.00000000
0.87048779 0.44646923 0.00000000
0.89992033 0.44766241 0.00000000
0.92937709 0.44889703 0.00000000
0.95885592 0.45017304 0.00000000
0.09196668 0.45992681 0.00000000
0.11631507 0.46006626 0.00000000
0.13768925 0.46020566 0.00000000
0.15708703 0.46034622 0.00000000
0.17792620 0.46051237 0.00000000
0.20039402 0.46070937 0.00000000
0.22414406 0.46093809 0.00000000
0.24890561 0.46119932 0.00000000
0.27446968 0.46149376 0.00000000
0.30067548 0.46182205 0.00000000
0.32739893 0.46218476 0.00000000
0.35454380 0.46258244 0.00000000
0.38203486 0.46301557 0.00000000
0.40981282 0.46348460 0.00000000
0.43783055 0.46398993 0.00000000
0.46605025 0.46453194 0.00000000
0.49444135 0.46511098 0.00000000
0.52297892 0.46572734 0.00000000
0.55164247 0.46638132 0.00000000
0.58041505 0.46707317 0.00000000
0.60928251 0.46780312 0.00000000
0.63823297 0.46857137 0.00000000
0.66725642 0.46937811 0.00000000
0.69634434 0.47022349 0.00000000
0.72548944 0.47110766 0.00000000
0.75468548 0.47203073 0.00000000
0.78392706 0.47299279 0.00000000
0.81320951 0.47399392 0.00000000
0.84252876 0.47503418 0.00000000
0.87188124 0.47611361 0.00000000
0.90126383 0.47723223 0.00000000
0.93067378 0.47839004 0.00000000
0.96010864 0.47958703 0.00000000
0.10247784 0.49069116 0.00000000
0.12546070 0.49082177 0.00000000
0.14587452 0.49095235 0.00000000
0.16454549 0.49108401 0.00000000
0.18472329 0.49123964 0.00000000
0.20658742 0.49142419 0.00000000
0.22979667 0.49163846 0.00000000
0.25407868 0.49188320 0.00000000
0.27921953 0.49215907 0.00000000
0.30505220 0.49246667 0.00000000
0.33144636 0.49280657 0.00000000
0.35829992 0.49317927 0.00000000
0.38553246 0.49358523 0.00000000
0.41308017 0.49402488 0.00000000
0.44089204 0.49449862 0.00000000
0.46892699 0.49500680 0.00000000
0.49715165 0.49554978 0.00000000
0.52553872 0.49612784 0.00000000
0.55406571 0.49674127 0.00000000
0.58271393 0.49739032 0.00000000
0.61146779 0.49807524 0.00000000
0.64031417 0.49879622 0.00000000
0.66924197 0.49955346 0.00000000
0.69824173 0.50034713 0.00000000
0.72730538 0.50117738 0.00000000
0.75642598 0.50204433 0.00000000
0.78559752 0.50294811 0.00000000
0.81481480 0.50388880 0.00000000
0.84407327 0.50486648 0.00000000
0.87336898 0.50588122 0.00000000
0.90269841 0.50693306 0.00000000
0.93205852 0.50802203 0.00000000
0.96144655 0.50914814 0.00000000
0.11298899 0.52145552 0.00000000
0.13473188 0.52157826 0.00000000
0.15424573 0.52170097 0.00000000
0.17222102 0.52182471 0.00000000
0.19175541 0.52197098 0.00000000
0.21302405 0.52214442 0.00000000
0.23569358 0.52234582 0.00000000
0.25949232 0.52257586 0.00000000
0.28420317 0.52283518 0.00000000
0.30965422 0.52312436 0.00000000
0.33570972 0.52344391 0.00000000
0.36226232 0.52379432 0.00000000
0.38922673 0.52417604 0.00000000
0.41653485 0.52458948 0.00000000
0.44413195 0.52503502 0.00000000
0.47197369 0.52551301 0.00000000
0.50002395 0.52602377 0.00000000
0.52825305 0.52656761 0.00000000
0.55663647 0.52714479 0.00000000
0.58515381 0.52775558 0.00000000
0.61378798 0.52840021 0.00000000
0.64252457 0.52907888 0.00000000
0.67135138 0.52979180 0.00000000
0.70025801 0.53053914 0.00000000
0.72923555 0.53132105 0.00000000
0.75827634 0.53213768 0.00000000
0.78737375 0.53298914 0.00000000
0.81652201 0.53387556 0.00000000
0.84571610 0.53479702 0.00000000
0.87495162 0.53575360 0.00000000
0.90422471 0.53674536 0.00000000
0.93353194 0.53777236 0.00000000
0.96287030 0.53883464 0.00000000
0.12350015 0.55221987 0.00000000
0.14411351 0.55233557 0.00000000
0.16278441 0.55245124 0.00000000
0.18009541 0.55256787 0.00000000
0.19900601 0.55270575 0.00000000
0.21968965 0.55286926 0.00000000
0.24182291 0.55305912 0.00000000
0.26513685 0.55327599 0.00000000
0.28941286 0.55352048 0.00000000
0.31447540 0.55379313 0.00000000
0.34018419 0.55409444 0.00000000
0.36642722 0.55442487 0.00000000
0.39311476 0.55478485 0.00000000
0.42017468 0.55517477 0.00000000
0.44754862 0.55559500 0.00000000
0.47518915 0.55604588 0.00000000
0.50305739 0.55652772 0.00000000
0.53112134 0.55704082 0.00000000
0.55935445 0.55758544 0.00000000
0.58773456 0.55816183 0.00000000
0.61624307 0.55877023 0.00000000
0.64486429 0.55941085 0.00000000
0.67358489 0.56008388 0.00000000
0.70239349 0.56078950 0.00000000
0.73128033 0.56152788 0.00000000
0.76023699 0.56229916 0.00000000
0.78925621 0.56310347 0.00000000
0.81833164 0.56394093 0.00000000
0.84745776 0.56481165 0.00000000
0.87662973 0.56571572 0.00000000
0.90584327 0.56665321 0.00000000
0.93509463 0.56762419 0.00000000
0.96438047 0.56862871 0.00000000
0.13401130 0.58298423 0.00000000
0.15359262 0.58309358 0.00000000
0.17147411 0.58320291 0.00000000
0.18815195 0.58331315 0.00000000
0.20645950 0.58344348 0.00000000
0.22657044 0.58359803 0.00000000
0.24817294 0.58377750 0.00000000
0.27100253 0.58398251 0.00000000
0.29484065 0.58421364 0.00000000
0.31950933 0.58447140 0.00000000
0.34486466 0.58475627 0.00000000
0.37079059 0.58506869 0.00000000
0.39719338 0.58540907 0.00000000
0.42399715 0.58577779 0.00000000
0.45114016 0.58617519 0.00000000
0.47857192 0.58660162 0.00000000
0.50625092 0.58705736 0.00000000
0.53414284 0.58754271 0.00000000
0.56221912 0.58805793 0.00000000
0.59045585 0.58860327 0.00000000
0.61883293 0.58917894 0.00000000
0.64733334 0.58978517 0.00000000
0.67594260 0.59042214 0.00000000
0.70464836 0.59109004 0.00000000
0.73343997 0.59178903 0.00000000
0.76230826 0.59251927 0.00000000
0.79124528 0.59328088 0.00000000
0.82024411 0.59407401 0.00000000
0.84929870 0.59489874 0.00000000
0.87840375 0.59575520 0.00000000
0.90755458 0.59664346 0.00000000
0.93674707 0.59756360 0.00000000
0.96597755 0.59851569 0.00000000
0.14452246 0.61374858 0.00000000
0.16315806 0.61385219 0.00000000
0.18030016 0.61395579 0.00000000
0.19637534 0.61406024 0.00000000
0.21410126 0.61418374 0.00000000
0.23365324 0.61433019 0.00000000
0.25473222 0.61450026 0.00000000
0.27707969 0.61469454 0.00000000
0.30047852 0.61491357 0.00000000
0.32474944 0.61515785 0.00000000
0.34974579 0.61542784 0.00000000
0.37534813 0.61572396 0.00000000
0.40145916 0.61604659 0.00000000
0.42799957 0.61639610 0.00000000
0.45490442 0.61677283 0.00000000
0.48212034 0.61717710 0.00000000
0.50960327 0.61760919 0.00000000
0.53731660 0.61806939 0.00000000
0.56522979 0.61855795 0.00000000
0.59331722 0.61907511 0.00000000
0.62155725 0.61962110 0.00000000
0.64993155 0.62019611 0.00000000
0.67842449 0.62080035 0.00000000
0.70702268 0.62143400 0.00000000
0.73571462 0.62209722 0.00000000
0.76449034 0.62279016 0.00000000
0.79334122 0.62351296 0.00000000
0.82225972 0.62426576 0.00000000
0.85123927 0.62504867 0.00000000
0.88027408 0.62586180 0.00000000
0.90935905 0.62670523 0.00000000
0.93848969 0.62757907 0.00000000
0.96766200 0.62848338 0.00000000
0.15503362 0.64451294 0.00000000
0.17280019 0.64461133 0.00000000
0.18924948 0.64470971 0.00000000
0.20475160 0.64480892 0.00000000
0.22191762 0.64492620 0.00000000
0.24092545 0.64506529 0.00000000
0.26148962 0.64522682 0.00000000
0.28335876 0.64541134 0.00000000
0.30631840 0.64561938 0.00000000
0.33018902 0.64585142 0.00000000
0.35482208 0.64610787 0.00000000
0.38009534 0.64638916 0.00000000
0.40590846 0.64669565 0.00000000
0.43217899 0.64702770 0.00000000
0.45883906 0.64738562 0.00000000
0.48583256 0.64776973 0.00000000
0.51311297 0.64818030 0.00000000
0.54064149 0.64861761 0.00000000
0.56838563 0.64908190 0.00000000
0.59631804 0.64957340 0.00000000
0.62441560 0.65009235 0.00000000
0.65265865 0.65063893 0.00000000
0.68103039 0.65121334 0.00000000
0.70951642 0.65181576 0.00000000
0.73810433 0.65244636 0.00000000
0.76678338 0.65310528 0.00000000
0.79554422 0.65379268 0.00000000
0.82437872 0.65450867 0.00000000
0.85327974 0.65525339 0.00000000
0.88224102 0.65602694 0.00000000
0.91125702 0.65682943 0.00000000
