BT601_NTSC-J_to_BT601_NTSC.cube
TITLE "BT601_NTSC-J_to_BT601_NTSC_v3"
LUT_3D_SIZE 33
# BT601 NTSC-J Japan (1953) to BT601 NTSC SMPTE C (1987) standard (smpte170m) by Francesco Bucciantini
0.00000000 0.00000000 0.00000000
0.04868529 0.00000000 0.00000000
0.09681437 0.00000000 0.00000000
0.13631027 0.00000000 0.00000000
0.17446044 0.00000000 0.00000000
0.21261061 0.00000000 0.00000000
0.25076079 0.00000000 0.00000000
0.28891096 0.00000000 0.00000000
0.32706113 0.00000000 0.00000000
0.36521131 0.00000000 0.00000000
0.40336148 0.00000000 0.00000000
0.44151165 0.00000000 0.00000000
0.47966182 0.00000000 0.00000000
0.51781200 0.00000000 0.00000000
0.55596217 0.00000000 0.00000000
0.59411234 0.00000000 0.00000000
0.63226252 0.00000000 0.00000000
0.67041269 0.00000000 0.00000000
0.70856286 0.00000000 0.00000000
0.74671304 0.00000000 0.00000000
0.78486321 0.00000000 0.00000000
0.82301338 0.00000000 0.00000000
0.86116355 0.00000000 0.00000000
0.89931373 0.00000000 0.00000000
0.93746390 0.00000000 0.00000000
0.97561407 0.00000000 0.00000000
1.00000000 0.00000000 0.00000000
1.00000000 0.00000000 0.00000000
1.00000000 0.00000000 0.00000000
1.00000000 0.00000000 0.00000000
1.00000000 0.00000000 0.00000000
1.00000000 0.00000000 0.00000000
1.00000000 0.00000000 0.00000000
0.00000000 0.03152251 0.00000000
0.03422363 0.02977810 0.00000000
0.08314725 0.02803370 0.00000000
0.12555607 0.02627440 0.00000000
0.16558388 0.02419408 0.00000000
0.20508242 0.02172647 0.00000000
0.24424597 0.01886015 0.00000000
0.28318410 0.01558473 0.00000000
0.32196341 0.01189068 0.00000000
0.36062673 0.00776916 0.00000000
0.39920285 0.00321195 0.00000000
0.43771182 0.00000000 0.00000000
0.47616802 0.00000000 0.00000000
0.51458205 0.00000000 0.00000000
0.55296186 0.00000000 0.00000000
0.59131355 0.00000000 0.00000000
0.62964187 0.00000000 0.00000000
0.66795055 0.00000000 0.00000000
0.70624259 0.00000000 0.00000000
0.74452042 0.00000000 0.00000000
0.78278601 0.00000000 0.00000000
0.82104100 0.00000000 0.00000000
0.85928674 0.00000000 0.00000000
0.89752437 0.00000000 0.00000000
0.93575486 0.00000000 0.00000000
0.97397903 0.00000000 0.00000000
1.00000000 0.00000000 0.00000000
1.00000000 0.00000000 0.00000000
1.00000000 0.00000000 0.00000000
1.00000000 0.00000000 0.00000000
1.00000000 0.00000000 0.00000000
1.00000000 0.00000000 0.00000000
1.00000000 0.00000000 0.00000000
0.00000000 0.06304502 0.00000000
0.01976197 0.06130061 0.00000000
0.06844726 0.05955621 0.00000000
0.11413221 0.05779691 0.00000000
0.15632751 0.05571659 0.00000000
0.19731924 0.05324898 0.00000000
0.23757640 0.05038266 0.00000000
0.27735038 0.04710724 0.00000000
0.31678910 0.04341319 0.00000000
0.35598558 0.03929167 0.00000000
0.39500136 0.03473446 0.00000000
0.43387881 0.02973384 0.00000000
0.47264808 0.02428252 0.00000000
0.51133118 0.01837362 0.00000000
0.54994458 0.01200061 0.00000000
0.58850083 0.00515724 0.00000000
0.62700965 0.00000000 0.00000000
0.66547871 0.00000000 0.00000000
0.70391412 0.00000000 0.00000000
0.74232082 0.00000000 0.00000000
0.78070282 0.00000000 0.00000000
0.81906343 0.00000000 0.00000000
0.85740542 0.00000000 0.00000000
0.89573109 0.00000000 0.00000000
0.93404237 0.00000000 0.00000000
0.97234093 0.00000000 0.00000000
1.00000000 0.00000000 0.00000000
1.00000000 0.00000000 0.00000000
1.00000000 0.00000000 0.00000000
1.00000000 0.00000000 0.00000000
1.00000000 0.00000000 0.00000000
1.00000000 0.00000000 0.00000000
1.00000000 0.00000000 0.00000000
0.00000000 0.09450457 0.00000000
0.00517687 0.09289472 0.00000000
0.05386216 0.09126818 0.00000000
0.10179764 0.08961036 0.00000000
0.14655691 0.08762676 0.00000000
0.18922951 0.08523995 0.00000000
0.23068216 0.08241914 0.00000000
0.27135273 0.07889881 0.00000000
0.31148966 0.07520476 0.00000000
0.35124545 0.07108324 0.00000000
0.39071930 0.06652603 0.00000000
0.42997866 0.06152541 0.00000000
0.46907106 0.05607409 0.00000000
0.50803100 0.05016520 0.00000000
0.54688408 0.04379218 0.00000000
0.58564977 0.03694881 0.00000000
0.62434310 0.02962913 0.00000000
0.66297584 0.02182743 0.00000000
0.70155739 0.01353823 0.00000000
0.74009530 0.00475626 0.00000000
0.77859572 0.00000000 0.00000000
0.81706370 0.00000000 0.00000000
0.85550345 0.00000000 0.00000000
0.89391848 0.00000000 0.00000000
0.93231174 0.00000000 0.00000000
0.97068574 0.00000000 0.00000000
1.00000000 0.00000000 0.00000000
1.00000000 0.00000000 0.00000000
1.00000000 0.00000000 0.00000000
1.00000000 0.00000000 0.00000000
1.00000000 0.00000000 0.00000000
1.00000000 0.00000000 0.00000000
1.00000000 0.00000000 0.00000000
0.00000000 0.12587691 0.00000000
0.00000000 0.12453908 0.00000000
0.03661567 0.12319139 0.00000000
0.08589752 0.12182199 0.00000000
0.13435238 0.12018921 0.00000000
0.17929029 0.11823298 0.00000000
0.22229542 0.11593328 0.00000000
0.26410382 0.11326797 0.00000000
0.30511327 0.11021207 0.00000000
0.34556046 0.10673684 0.00000000
0.38559607 0.10280877 0.00000000
0.42532099 0.09838806 0.00000000
0.46480549 0.09342681 0.00000000
0.50410009 0.08786623 0.00000000
0.54324209 0.08163284 0.00000000
0.58225964 0.07454150 0.00000000
0.62117438 0.06722182 0.00000000
0.66000324 0.05942011 0.00000000
0.69875963 0.05113091 0.00000000
0.73745434 0.04234894 0.00000000
0.77609612 0.03306912 0.00000000
0.81469217 0.02328653 0.00000000
0.85324843 0.01299644 0.00000000
0.89176989 0.00219425 0.00000000
0.93026072 0.00000000 0.00000000
0.96872447 0.00000000 0.00000000
1.00000000 0.00000000 0.00000000
1.00000000 0.00000000 0.00000000
1.00000000 0.00000000 0.00000000
1.00000000 0.00000000 0.00000000
1.00000000 0.00000000 0.00000000
1.00000000 0.00000000 0.00000000
1.00000000 0.00000000 0.00000000
0.00000000 0.15724925 0.00000000
0.00000000 0.15610984 0.00000000
0.01615846 0.15496417 0.00000000
0.06525931 0.15380229 0.00000000
0.11877938 0.15241992 0.00000000
0.16690712 0.15076806 0.00000000
0.21198673 0.14883238 0.00000000
0.25526923 0.14659754 0.00000000
0.29738664 0.14404688 0.00000000
0.33869974 0.14116188 0.00000000
0.37943191 0.13792178 0.00000000
0.41972981 0.13430293 0.00000000
0.45969410 0.13027811 0.00000000
0.49939640 0.12581559 0.00000000
0.53888909 0.12087792 0.00000000
0.57821146 0.11542032 0.00000000
0.61739353 0.10938841 0.00000000
0.65645868 0.10271503 0.00000000
0.69542539 0.09531553 0.00000000
0.73430844 0.08708062 0.00000000
0.77311982 0.07766028 0.00000000
0.81186934 0.06787769 0.00000000
0.85056511 0.05758760 0.00000000
0.88921390 0.04678541 0.00000000
0.92782138 0.03546667 0.00000000
0.96639237 0.02362704 0.00000000
1.00000000 0.01126234 0.00000000
1.00000000 0.00000000 0.00000000
1.00000000 0.00000000 0.00000000
1.00000000 0.00000000 0.00000000
1.00000000 0.00000000 0.00000000
1.00000000 0.00000000 0.00000000
1.00000000 0.00000000 0.00000000
0.00000000 0.18862159 0.00000000
0.00000000 0.18763279 0.00000000
0.00000000 0.18663980 0.00000000
0.04149664 0.18563405 0.00000000
0.09878098 0.18443914 0.00000000
0.15157436 0.18301375 0.00000000
0.19946186 0.18134692 0.00000000
0.24465662 0.17942722 0.00000000
0.28817386 0.17724258 0.00000000
0.33056171 0.17477994 0.00000000
0.37214762 0.17202506 0.00000000
0.41314130 0.16896221 0.00000000
0.45368413 0.16557381 0.00000000
0.49387532 0.16184005 0.00000000
0.53378671 0.15773839 0.00000000
0.57347172 0.15324292 0.00000000
0.61297091 0.14832357 0.00000000
0.65231571 0.14294507 0.00000000
0.69153080 0.13706558 0.00000000
0.73063591 0.13063475 0.00000000
0.76964696 0.12359108 0.00000000
0.80857692 0.11585813 0.00000000
0.84743654 0.10733880 0.00000000
0.88623473 0.09790657 0.00000000
0.92497897 0.08739116 0.00000000
0.96367558 0.07542323 0.00000000
1.00000000 0.06305853 0.00000000
1.00000000 0.05016467 0.00000000
1.00000000 0.03673766 0.00000000
1.00000000 0.02277362 0.00000000
1.00000000 0.00826878 0.00000000
1.00000000 0.00000000 0.00000000
1.00000000 0.00000000 0.00000000
0.00000000 0.21999392 0.00000000
0.00000000 0.21912303 0.00000000
0.00000000 0.21824920 0.00000000
0.01434242 0.21736493 0.00000000
0.07240286 0.21631540 0.00000000
0.13251415 0.21506491 0.00000000
0.18431310 0.21360468 0.00000000
0.23201660 0.21192577 0.00000000
0.27730680 0.21001888 0.00000000
0.32102518 0.20787421 0.00000000
0.36365143 0.20548130 0.00000000
0.40548328 0.20282883 0.00000000
0.44671707 0.19990446 0.00000000
0.48748829 0.19669460 0.00000000
0.52789383 0.19318420 0.00000000
0.56800501 0.18935639 0.00000000
0.60787561 0.18519221 0.00000000
0.64754697 0.18067010 0.00000000
0.68705145 0.17576538 0.00000000
0.72641474 0.17044958 0.00000000
0.76565753 0.16468947 0.00000000
0.80479663 0.15844592 0.00000000
0.84384590 0.15167225 0.00000000
0.88281682 0.14431205 0.00000000
0.92171902 0.13629602 0.00000000
0.96056061 0.12753739 0.00000000
0.99934848 0.11792514 0.00000000
1.00000000 0.10731311 0.00000000
1.00000000 0.09550218 0.00000000
1.00000000 0.08220862 0.00000000
1.00000000 0.06745764 0.00000000
1.00000000 0.05240831 0.00000000
1.00000000 0.03681086 0.00000000
0.00000000 0.25136626 0.00000000
0.00000000 0.25058995 0.00000000
0.00000000 0.24981152 0.00000000
0.00000000 0.24902429 0.00000000
0.04177804 0.24809060 0.00000000
0.10840801 0.24697909 0.00000000
0.16594336 0.24568248 0.00000000
0.21701330 0.24419347 0.00000000
0.26457134 0.24250462 0.00000000
0.30994193 0.24060821 0.00000000
0.35383456 0.23849615 0.00000000
0.39667237 0.23615984 0.00000000
0.43872678 0.23359007 0.00000000
0.48018137 0.23077691 0.00000000
0.52116547 0.22770954 0.00000000
0.56177315 0.22437610 0.00000000
0.60207468 0.22076352 0.00000000
0.64212368 0.21685731 0.00000000
0.68196186 0.21264126 0.00000000
0.72162218 0.20809717 0.00000000
0.76113104 0.20320442 0.00000000
0.80050985 0.19793952 0.00000000
0.83977617 0.19227548 0.00000000
0.87894453 0.18618098 0.00000000
0.91802707 0.17961942 0.00000000
0.95703402 0.17254746 0.00000000
0.99597404 0.16491321 0.00000000
1.00000000 0.15665361 0.00000000
1.00000000 0.14769074 0.00000000
1.00000000 0.13792639 0.00000000
1.00000000 0.12723375 0.00000000
1.00000000 0.11544419 0.00000000
1.00000000 0.10232482 0.00000000
0.00000000 0.28273860 0.00000000
0.00000000 0.28203970 0.00000000
0.00000000 0.28133923 0.00000000
0.00000000 0.28063118 0.00000000
0.00760942 0.27979184 0.00000000
0.07647874 0.27879329 0.00000000
0.14341164 0.27762933 0.00000000
0.19917366 0.27629383 0.00000000
0.24968594 0.27478065 0.00000000
0.29712608 0.27308347 0.00000000
0.34256532 0.27119580 0.00000000
0.38661033 0.26911083 0.00000000
0.42963705 0.26682138 0.00000000
0.47189361 0.26431982 0.00000000
0.51355164 0.26159795 0.00000000
0.55473427 0.25864696 0.00000000
0.59553245 0.25545727 0.00000000
0.63601500 0.25201845 0.00000000
0.67623505 0.24831906 0.00000000
0.71623435 0.24434647 0.00000000
0.75604616 0.24008671 0.00000000
0.79569736 0.23552417 0.00000000
0.83520990 0.23064138 0.00000000
0.87460192 0.22541864 0.00000000
0.91388848 0.21983357 0.00000000
0.95308229 0.21386057 0.00000000
0.99219405 0.20747014 0.00000000
1.00000000 0.20062799 0.00000000
1.00000000 0.19329381 0.00000000
1.00000000 0.18541975 0.00000000
1.00000000 0.17694823 0.00000000
1.00000000 0.16780890 0.00000000
1.00000000 0.15791430 0.00000000
0.00000000 0.31411093 0.00000000
0.00000000 0.31347646 0.00000000
0.00000000 0.31284079 0.00000000
0.00000000 0.31219848 0.00000000
0.00000000 0.31143738 0.00000000
0.03869809 0.31053234 0.00000000
0.11506573 0.30947799 0.00000000
0.17779183 0.30826908 0.00000000
0.23226640 0.30690036 0.00000000
0.28233818 0.30536657 0.00000000
0.32968083 0.30366232 0.00000000
0.37517936 0.30178205 0.00000000
0.41935874 0.29971996 0.00000000
0.46255512 0.29746995 0.00000000
0.50499599 0.29502558 0.00000000
0.54684187 0.29238001 0.00000000
0.58820981 0.28952589 0.00000000
0.62918750 0.28645534 0.00000000
0.66984204 0.28315982 0.00000000
0.71022583 0.27963007 0.00000000
0.75038037 0.27585598 0.00000000
0.79033903 0.27182647 0.00000000
0.83012896 0.26752934 0.00000000
0.86977251 0.26295110 0.00000000
0.90928820 0.25807674 0.00000000
0.94869158 0.25288949 0.00000000
0.98799576 0.24737050 0.00000000
1.00000000 0.24149846 0.00000000
1.00000000 0.23524908 0.00000000
1.00000000 0.22859456 0.00000000
1.00000000 0.22150270 0.00000000
1.00000000 0.21393599 0.00000000
1.00000000 0.20585018 0.00000000
0.00000000 0.34548327 0.00000000
0.00000000 0.34490318 0.00000000
0.00000000 0.34432215 0.00000000
0.00000000 0.34373523 0.00000000
0.00000000 0.34303997 0.00000000
0.00000000 0.34221355 0.00000000
0.07723860 0.34125121 0.00000000
0.15172635 0.34014836 0.00000000
0.21176345 0.33890048 0.00000000
0.26525993 0.33750305 0.00000000
0.31497491 0.33595151 0.00000000
0.36223557 0.33424118 0.00000000
0.40778584 0.33236725 0.00000000
0.45208458 0.33032472 0.00000000
0.49543412 0.32810836 0.00000000
0.53804363 0.32571266 0.00000000
0.58006336 0.32313181 0.00000000
0.62160451 0.32035960 0.00000000
0.66275139 0.31738941 0.00000000
0.70356931 0.31421413 0.00000000
0.74410966 0.31082612 0.00000000
0.78441356 0.30721708 0.00000000
0.82451429 0.30337803 0.00000000
0.86443911 0.29929917 0.00000000
0.90421061 0.29496975 0.00000000
0.94384764 0.29037799 0.00000000
0.98336605 0.28551085 0.00000000
1.00000000 0.28035389 0.00000000
1.00000000 0.27489101 0.00000000
1.00000000 0.26910420 0.00000000
1.00000000 0.26297312 0.00000000
1.00000000 0.25647476 0.00000000
1.00000000 0.24958285 0.00000000
0.00000000 0.37685561 0.00000000
0.00000000 0.37632197 0.00000000
0.00000000 0.37578759 0.00000000
0.00000000 0.37524791 0.00000000
0.00000000 0.37460879 0.00000000
0.00000000 0.37384931 0.00000000
0.03204554 0.37296523 0.00000000
0.11889114 0.37195249 0.00000000
0.18734115 0.37080711 0.00000000
0.24545162 0.36952515 0.00000000
0.29817950 0.36810266 0.00000000
0.34759955 0.36653565 0.00000000
0.39479031 0.36482003 0.00000000
0.44038613 0.36295160 0.00000000
0.48479160 0.36092600 0.00000000
0.52828006 0.35873869 0.00000000
0.57104440 0.35638491 0.00000000
0.61322539 0.35385965 0.00000000
0.65492863 0.35115760 0.00000000
0.69623513 0.34827313 0.00000000
0.73720821 0.34520022 0.00000000
0.77789821 0.34193244 0.00000000
0.81834565 0.33846289 0.00000000
0.85858362 0.33478411 0.00000000
0.89863937 0.33088805 0.00000000
0.93853560 0.32676598 0.00000000
0.97829135 0.32240837 0.00000000
1.00000000 0.31780483 0.00000000
1.00000000 0.31294395 0.00000000
1.00000000 0.30781314 0.00000000
1.00000000 0.30239852 0.00000000
1.00000000 0.29668462 0.00000000
1.00000000 0.29065420 0.00000000
0.00000000 0.40822795 0.00000000
0.00000000 0.40773441 0.00000000
0.00000000 0.40724028 0.00000000
0.00000000 0.40674134 0.00000000
0.00000000 0.40615058 0.00000000
0.00000000 0.40544875 0.00000000
0.00000000 0.40463200 0.00000000
0.07447391 0.40369671 0.00000000
0.15760862 0.40263931 0.00000000
0.22227467 0.40145633 0.00000000
0.27893459 0.40014430 0.00000000
0.33104242 0.39869975 0.00000000
0.38021459 0.39711914 0.00000000
0.42734505 0.39539888 0.00000000
0.47298127 0.39353526 0.00000000
0.51748273 0.39152445 0.00000000
0.56109777 0.38936248 0.00000000
0.60400471 0.38704518 0.00000000
0.64633562 0.38456819 0.00000000
0.68819079 0.38192693 0.00000000
0.72964796 0.37911652 0.00000000
0.77076847 0.37613183 0.00000000
0.81160146 0.37296736 0.00000000
0.85218680 0.36961727 0.00000000
0.89255722 0.36607528 0.00000000
0.93273987 0.36233467 0.00000000
0.97275747 0.35838817 0.00000000
1.00000000 0.35422796 0.00000000
1.00000000 0.34984553 0.00000000
1.00000000 0.34523165 0.00000000
1.00000000 0.34037623 0.00000000
1.00000000 0.33526824 0.00000000
1.00000000 0.32989554 0.00000000
0.00000000 0.43960028 0.00000000
0.00000000 0.43914168 0.00000000
0.00000000 0.43868261 0.00000000
0.00000000 0.43821913 0.00000000
0.00000000 0.43767044 0.00000000
0.00000000 0.43701872 0.00000000
0.00000000 0.43626048 0.00000000
0.02163969 0.43539241 0.00000000
0.11990319 0.43441131 0.00000000
0.19473622 0.43331407 0.00000000
0.25673648 0.43209762 0.00000000
0.31226397 0.43075888 0.00000000
0.36386097 0.42929475 0.00000000
0.41282190 0.42770210 0.00000000
0.45989979 0.42597773 0.00000000
0.50557209 0.42411836 0.00000000
0.55016036 0.42212059 0.00000000
0.59389117 0.41998090 0.00000000
0.63692984 0.41769563 0.00000000
0.67940044 0.41526096 0.00000000
0.72139823 0.41267286 0.00000000
0.76299778 0.40992710 0.00000000
0.80425843 0.40701923 0.00000000
0.84522806 0.40394450 0.00000000
0.88594581 0.40069790 0.00000000
0.92644398 0.39727408 0.00000000
0.96674952 0.39366732 0.00000000
1.00000000 0.38987150 0.00000000
1.00000000 0.38588006 0.00000000
1.00000000 0.38168593 0.00000000
1.00000000 0.37728148 0.00000000
1.00000000 0.37265844 0.00000000
1.00000000 0.36780784 0.00000000
0.00000000 0.47097262 0.00000000
0.00000000 0.47054471 0.00000000
0.00000000 0.47011640 0.00000000
0.00000000 0.46968404 0.00000000
0.00000000 0.46917227 0.00000000
0.00000000 0.46856449 0.00000000
0.00000000 0.46785751 0.00000000
0.00000000 0.46704830 0.00000000
0.06800477 0.46613396 0.00000000
0.16113032 0.46511168 0.00000000
0.23084129 0.46397869 0.00000000
0.29085674 0.46273225 0.00000000
0.34547526 0.46136961 0.00000000
0.39664413 0.45988799 0.00000000
0.44542286 0.45828461 0.00000000
0.49245453 0.45655658 0.00000000
0.53815924 0.45470099 0.00000000
0.58282638 0.45271479 0.00000000
0.62666349 0.45059486 0.00000000
0.66982421 0.44833794 0.00000000
0.71242524 0.44594066 0.00000000
0.75455711 0.44339946 0.00000000
0.79629134 0.44071063 0.00000000
0.83768527 0.43787026 0.00000000
0.87878552 0.43487423 0.00000000
0.91963039 0.43171817 0.00000000
0.96025173 0.42839747 0.00000000
1.00000000 0.42490721 0.00000000
1.00000000 0.42124217 0.00000000
1.00000000 0.41739677 0.00000000
1.00000000 0.41336503 0.00000000
1.00000000 0.40914054 0.00000000
1.00000000 0.40471641 0.00000000
0.00000000 0.50234496 0.00000000
0.00000000 0.50194419 0.00000000
0.00000000 0.50154310 0.00000000
0.00000000 0.50113825 0.00000000
0.00000000 0.50065910 0.00000000
0.00000000 0.50009013 0.00000000
0.00000000 0.49942841 0.00000000
0.00000000 0.49867114 0.00000000
0.00732239 0.49781568 0.00000000
0.11800807 0.49685945 0.00000000
0.20006474 0.49579995 0.00000000
0.26624292 0.49463470 0.00000000
0.32472109 0.49336123 0.00000000
0.37859375 0.49197708 0.00000000
0.42939858 0.49047976 0.00000000
0.47801856 0.48886674 0.00000000
0.52500927 0.48713544 0.00000000
0.57074327 0.48528322 0.00000000
0.61548238 0.48330736 0.00000000
0.65941741 0.48120507 0.00000000
0.70269150 0.47897343 0.00000000
0.74541456 0.47660943 0.00000000
0.78767269 0.47410992 0.00000000
0.82953445 0.47147159 0.00000000
0.87105524 0.46869101 0.00000000
0.91228037 0.46576455 0.00000000
0.95324731 0.46268838 0.00000000
0.99398737 0.45945847 0.00000000
1.00000000 0.45607057 0.00000000
1.00000000 0.45252015 0.00000000
1.00000000 0.44880240 0.00000000
1.00000000 0.44491221 0.00000000
1.00000000 0.44084412 0.00000000
0.00000000 0.53371729 0.00000000
0.00000000 0.53334070 0.00000000
0.00000000 0.53296382 0.00000000
0.00000000 0.53258346 0.00000000
0.00000000 0.53213332 0.00000000
0.00000000 0.53159888 0.00000000
0.00000000 0.53097738 0.00000000
0.00000000 0.53026626 0.00000000
0.00000000 0.52946307 0.00000000
0.05767281 0.52856546 0.00000000
0.16229622 0.52757113 0.00000000
0.23755345 0.52647782 0.00000000
0.30113683 0.52528332 0.00000000
0.35838838 0.52398538 0.00000000
0.41163793 0.52258178 0.00000000
0.46212943 0.52107027 0.00000000
0.51060985 0.51944855 0.00000000
0.55756401 0.51771429 0.00000000
0.60332459 0.51586511 0.00000000
0.64812964 0.51389856 0.00000000
0.69215518 0.51181210 0.00000000
0.73553484 0.50960314 0.00000000
0.77837230 0.50726895 0.00000000
0.82074948 0.50480673 0.00000000
0.86273214 0.50221352 0.00000000
0.90437376 0.49948627 0.00000000
0.94571836 0.49662176 0.00000000
0.98680254 0.49361661 0.00000000
1.00000000 0.49046728 0.00000000
1.00000000 0.48717003 0.00000000
1.00000000 0.48372090 0.00000000
1.00000000 0.48011572 0.00000000
1.00000000 0.47635006 0.00000000
0.00000000 0.56508963 0.00000000
0.00000000 0.56473467 0.00000000
0.00000000 0.56437949 0.00000000
0.00000000 0.56402103 0.00000000
0.00000000 0.56359686 0.00000000
0.00000000 0.56309330 0.00000000
0.00000000 0.56250778 0.00000000
0.00000000 0.56183791 0.00000000
0.00000000 0.56108143 0.00000000
0.00000000 0.56023616 0.00000000
0.11298088 0.55929999 0.00000000
0.20336771 0.55827086 0.00000000
0.27405825 0.55714672 0.00000000
0.33565083 0.55592557 0.00000000
0.39190049 0.55460536 0.00000000
0.44462166 0.55318409 0.00000000
0.49484064 0.55165968 0.00000000
0.54319741 0.55003007 0.00000000
0.59011875 0.54829314 0.00000000
0.63590357 0.54644671 0.00000000
0.68076926 0.54448857 0.00000000
0.72487869 0.54241642 0.00000000
0.76835689 0.54022791 0.00000000
0.81130179 0.53792059 0.00000000
0.85379140 0.53549192 0.00000000
0.89588880 0.53293926 0.00000000
0.93764559 0.53025988 0.00000000
0.97910453 0.52745089 0.00000000
1.00000000 0.52450930 0.00000000
1.00000000 0.52143196 0.00000000
1.00000000 0.51821556 0.00000000
1.00000000 0.51485662 0.00000000
1.00000000 0.51135147 0.00000000
0.00000000 0.59646197 0.00000000
0.00000000 0.59612649 0.00000000
0.00000000 0.59579082 0.00000000
0.00000000 0.59545208 0.00000000
0.00000000 0.59505127 0.00000000
0.00000000 0.59457548 0.00000000
0.00000000 0.59402231 0.00000000
0.00000000 0.59338952 0.00000000
0.00000000 0.59267501 0.00000000
0.00000000 0.59187675 0.00000000
0.04333646 0.59099279 0.00000000
0.16104529 0.59002122 0.00000000
0.24246610 0.58896018 0.00000000
0.30985729 0.58780781 0.00000000
0.36987235 0.58656228 0.00000000
0.42528810 0.58522173 0.00000000
0.47755555 0.58378432 0.00000000
0.52753532 0.58224816 0.00000000
0.57578178 0.58061136 0.00000000
0.62267349 0.57887199 0.00000000
0.66848051 0.57702807 0.00000000
0.71340215 0.57507756 0.00000000
0.75758955 0.57301840 0.00000000
0.80115994 0.57084843 0.00000000
0.84420592 0.56856543 0.00000000
0.88680186 0.56616712 0.00000000
0.92900825 0.56365111 0.00000000
0.97087493 0.56101493 0.00000000
1.00000000 0.55825600 0.00000000
1.00000000 0.55537162 0.00000000
1.00000000 0.55235899 0.00000000
1.00000000 0.54921517 0.00000000
1.00000000 0.54593705 0.00000000
0.00000000 0.62783430 0.00000000
0.00000000 0.62751645 0.00000000
0.00000000 0.62719843 0.00000000
0.00000000 0.62687752 0.00000000
0.00000000 0.62649783 0.00000000
0.00000000 0.62604713 0.00000000
0.00000000 0.62552319 0.00000000
0.00000000 0.62492389 0.00000000
0.00000000 0.62424728 0.00000000
0.00000000 0.62349145 0.00000000
0.00000000 0.62265459 0.00000000
0.10441407 0.62173494 0.00000000
0.20464417 0.62073077 0.00000000
0.28024207 0.61964038 0.00000000
0.34513009 0.61846206 0.00000000
0.40386348 0.61719415 0.00000000
0.45857424 0.61583494 0.00000000
0.51044784 0.61438273 0.00000000
0.56021597 0.61283582 0.00000000
0.60836341 0.61119244 0.00000000
0.65522823 0.60945084 0.00000000
0.70105565 0.60760920 0.00000000
0.74602907 0.60566567 0.00000000
0.79028913 0.60361834 0.00000000
0.83394593 0.60146526 0.00000000
0.87708719 0.59920440 0.00000000
0.91978381 0.59683368 0.00000000
0.96209386 0.59435095 0.00000000
1.00000000 0.59175396 0.00000000
1.00000000 0.58904037 0.00000000
1.00000000 0.58620778 0.00000000
1.00000000 0.58325364 0.00000000
1.00000000 0.58017533 0.00000000
0.00000000 0.65920664 0.00000000
0.00000000 0.65890480 0.00000000
0.00000000 0.65860280 0.00000000
0.00000000 0.65829808 0.00000000
0.00000000 0.65793757 0.00000000
0.00000000 0.65750966 0.00000000
0.00000000 0.65701224 0.00000000
0.00000000 0.65644334 0.00000000
0.00000000 0.65580110 0.00000000
0.00000000 0.65508375 0.00000000
0.00000000 0.65428959 0.00000000
0.02486756 0.65341699 0.00000000
0.15724266 0.65246433 0.00000000
0.24560397 0.65143003 0.00000000
0.31707810 0.65031254 0.00000000
0.37999855 0.64911030 0.00000000
0.43766962 0.64782176 0.00000000
0.49177654 0.64644537 0.00000000
0.54330504 0.64497956 0.00000000
0.59288460 0.64342275 0.00000000
0.64094265 0.64177334 0.00000000
0.68778297 0.64002970 0.00000000
0.73362921 0.63819015 0.00000000
0.77865069 0.63625300 0.00000000
0.82297861 0.63421651 0.00000000
0.86671658 0.63207887 0.00000000
0.90994777 0.62983824 0.00000000
0.95273986 0.62749272 0.00000000
0.99514861 0.62504034 0.00000000
