BT601_NTSC_to_BT601_NTSC-J.cube
TITLE "BT601_NTSC_to_BT601_NTSC-J_v3"
LUT_3D_SIZE 5
# BT601 NTSC SMPTE C (1987) standard (smpte170m) to BT601 NTSC-J Japan (1953) by Francesco Bucciantini
0.00000000 0.00000000 0.00000000
0.18916938 0.01245343 0.00562350
0.39559444 0.04136429 0.01867854
0.60201950 0.08980541 0.04054778
0.80844456 0.14540181 0.07195418
0.10445146 0.25094954 0.01491069
0.24281176 0.25643955 0.02053419
0.42540547 0.26880114 0.03358924
0.62185981 0.28844109 0.05545848
0.82302476 0.31468392 0.08700814
0.25019033 0.50162973 0.04952611
0.33875942 0.50448552 0.05514961
0.48766260 0.51105242 0.06820466
0.66552289 0.52186345 0.09006955
0.85583103 0.53699829 0.11731154
0.39592919 0.75230992 0.10574266
0.45807030 0.75417743 0.11049429
0.57686461 0.75849372 0.12104661
0.73251343 0.76566528 0.13745540
0.90789398 0.77583896 0.15883664
0.54166806 1.00000000 0.16603202
0.58841183 1.00000000 0.16951932
0.68420248 1.00000000 0.17740896
0.81853185 1.00000000 0.19004132
0.97736427 1.00000000 0.20708303
0.01589479 0.00000000 0.24067851
0.19797457 0.00000000 0.24326218
0.40020325 0.02678094 0.24917015
0.60503787 0.07521115 0.25880128
0.81064886 0.13507025 0.27210247
0.11765251 0.24438369 0.24747766
0.25000000 0.25000000 0.25000000
0.42969906 0.26263021 0.25577140
0.62477740 0.28265689 0.26519028
0.82518664 0.30935167 0.27821782
0.25719744 0.49826428 0.26266487
0.34410041 0.50113964 0.26505932
0.49141016 0.50775077 0.27054518
0.66823897 0.51863235 0.27951818
0.85790269 0.53386144 0.29196713
0.40053423 0.75011663 0.28649114
0.46206071 0.75199002 0.28870715
0.58002014 0.75631980 0.29379288
0.73496541 0.76351344 0.30213645
0.90983577 0.77371775 0.31376030
0.54503554 1.00000000 0.31785311
0.59150302 1.00000000 0.31986821
0.68683989 1.00000000 0.32450120
0.82070664 1.00000000 0.33212634
0.97915429 1.00000000 0.34279689
0.05279481 0.00000000 0.48400123
0.21727612 0.00000000 0.48534062
0.41070707 0.00000000 0.48843566
0.61198477 0.04135566 0.49357614
0.81574116 0.10862624 0.50086444
0.14502959 0.22851605 0.48754444
0.26602661 0.23446023 0.48887397
0.43950595 0.24778335 0.49194642
0.63149584 0.26879753 0.49704996
0.83018180 0.29663234 0.50428707
0.27284772 0.49036055 0.49567083
0.35620584 0.49328285 0.49697825
0.50000000 0.50000000 0.50000000
0.67449950 0.51105047 0.50502057
0.86269109 0.52650490 0.51214265
0.41102974 0.74499799 0.50898771
0.47119331 0.74688524 0.51026029
0.58727752 0.75124680 0.51320216
0.74062401 0.75849244 0.51809190
0.91432615 0.76876886 0.52503232
0.55277139 0.99766863 0.52751085
0.59861485 0.99903978 0.52873770
0.69292134 1.00000000 0.53157462
0.82573137 1.00000000 0.53629225
0.98329591 1.00000000 0.54299328
0.11171671 0.00000000 0.72732394
0.24672219 0.00000000 0.72819911
0.42773296 0.00000000 0.73022648
0.62343957 0.00000000 0.73360913
0.82419478 0.05419300 0.73843778
0.18393839 0.19959520 0.72964198
0.29109810 0.20623401 0.73051416
0.45546189 0.22100331 0.73253464
0.64258409 0.24403081 0.73590587
0.83847671 0.27412684 0.74071839
0.29739698 0.47682222 0.73499302
0.37564646 0.47982824 0.73585837
0.51406129 0.48673424 0.73786309
0.68485030 0.49808496 0.74120822
0.87064774 0.51393886 0.74598389
0.42804293 0.73633740 0.74386400
0.48610355 0.73824853 0.74471825
0.59922890 0.74266482 0.74669734
0.75000000 0.75000000 0.75000000
0.92179422 0.76040052 0.75471566
0.56548449 0.99139775 0.75640754
0.61033365 0.99277852 0.75724652
0.70298276 0.99597581 0.75919036
0.83407462 1.00000000 0.76243460
0.99019070 1.00000000 0.76706770
0.17376521 0.00000000 0.97064666
0.28430614 0.00000000 0.97128524
0.45106818 0.00000000 0.97276592
0.63951172 0.00000000 0.97524071
0.83617207 0.00000000 0.97878261
0.23044250 0.15076812 0.97233883
0.32399062 0.15897326 0.97297618
0.47744015 0.17688811 0.97445402
0.65816227 0.20406543 0.97692406
0.85023445 0.23855234 0.98045922
0.32970526 0.45667014 0.97625471
0.40197249 0.45980912 0.97688923
0.53359105 0.46701447 0.97836050
0.69942930 0.47883955 0.98081964
0.88193664 0.49532157 0.98433927
0.45136217 0.72370446 0.98277565
0.50673747 0.72565142 0.98340549
0.61596731 0.73014981 0.98486597
0.76324758 0.73761920 0.98730712
0.93240375 0.74820555 0.99080116
0.58323814 0.98231426 0.99205717
0.62676043 0.98370920 0.99268048
0.71716774 0.98693914 0.99412583
0.84589925 0.99232364 0.99654179
1.00000000 1.00000000 1.00000000
