BT601_NTSC_to_BT2020.cube
TITLE "BT601_NTSC_to_BT2020"
LUT_3D_SIZE 5
# BT601 NTSC SDR to BT2020 SDR by Francesco Bucciantini
0.00000000 0.00000000 0.00000000
0.17711403 0.02857278 0.00545557
0.37511834 0.09432018 0.01812078
0.57312266 0.17512994 0.03933698
0.77112697 0.25593970 0.06980554
0.11816587 0.23221203 0.02880771
0.24095063 0.24548146 0.03426328
0.41115450 0.27410342 0.04692848
0.59722030 0.31680740 0.06814468
0.78886986 0.37010729 0.09768876
0.27394372 0.46968483 0.09503494
0.35040222 0.47665751 0.09994506
0.48468318 0.49245959 0.11080917
0.64956634 0.51783249 0.12760967
0.82847533 0.55218447 0.14936739
0.42972157 0.70715763 0.17614301
0.48271540 0.71172849 0.17937530
0.58730845 0.72222026 0.18670782
0.72841572 0.73943772 0.19850081
0.89054531 0.76343356 0.21450067
0.58549941 0.94463043 0.25725109
0.62513226 0.94796971 0.25961624
0.70820684 0.95567216 0.26503482
0.82775710 0.96842317 0.27389741
0.97214827 0.98641584 0.28619245
0.01949497 0.00958469 0.23405860
0.18841410 0.03815747 0.23662473
0.38105827 0.10288717 0.24249155
0.57701684 0.18080341 0.25205265
0.77397200 0.26010082 0.26525161
0.13306784 0.23673469 0.24734791
0.24979527 0.24979527 0.24979527
0.41659217 0.27802140 0.25539752
0.60095144 0.32024436 0.26454717
0.79164581 0.37307697 0.27721520
0.28186521 0.47203540 0.27602048
0.35673753 0.47897351 0.27824285
0.48930386 0.49470054 0.28334143
0.65298290 0.51996179 0.29170109
0.83110761 0.55417783 0.30333769
0.43492946 0.70869444 0.31881542
0.48735502 0.71325474 0.32076452
0.59110513 0.72372277 0.32524731
0.73144048 0.74090269 0.33262971
0.89297784 0.76484898 0.34296944
0.58930828 0.94575204 0.37224749
0.62868943 0.94908695 0.37393128
0.71132398 0.95677946 0.37781226
0.83039186 0.96951434 0.38422843
0.97435685 0.98748498 0.39326470
0.06475287 0.03183570 0.47285416
0.21275356 0.06040849 0.47418451
0.39451302 0.12123768 0.47725849
0.58595323 0.19346096 0.48236348
0.78053347 0.26954080 0.48960037
0.16380523 0.24695739 0.47983683
0.26933951 0.25956679 0.48114765
0.42895325 0.28693061 0.48417688
0.60952101 0.32809355 0.48920868
0.79804982 0.37988464 0.49634420
0.29952044 0.47744723 0.49566303
0.37104537 0.48430689 0.49693147
0.49986351 0.49986351 0.49986351
0.66084226 0.52487081 0.50473623
0.83718366 0.55877704 0.51165105
0.44678661 0.71224846 0.52107872
0.49795671 0.71678452 0.52228407
0.59982226 0.72719801 0.52507136
0.73841111 0.74429167 0.52970673
0.89859708 0.76812403 0.53629145
0.59805283 0.94835022 0.55549559
0.63686662 0.95167506 0.55662412
0.71850458 0.95934460 0.55923491
0.83647359 0.97204228 0.56358027
0.97946282 0.98996205 0.56976041
0.13175641 0.06910964 0.71164973
0.24899948 0.09684985 0.71251900
0.41609884 0.14836677 0.71453265
0.60061195 0.21328179 0.71789225
0.79139292 0.28472428 0.72268766
0.20722158 0.26330068 0.71622705
0.29950514 0.27524393 0.71709037
0.44890273 0.30131657 0.71909028
0.62359929 0.34086119 0.72242714
0.80865414 0.39103094 0.72719043
0.32712475 0.48637636 0.72673414
0.39388830 0.49311004 0.72758407
0.51706005 0.50839251 0.72955310
0.67378986 0.53299009 0.73283877
0.84725541 0.56639462 0.73752977
0.46597305 0.71815976 0.74397815
0.51521829 0.72265600 0.74480692
0.61413432 0.73297990 0.74672707
0.74993176 0.74993176 0.74993176
0.90792449 0.77357663 0.75450831
0.61240829 0.95268501 0.76801373
0.65032131 0.95599318 0.76881454
0.73036350 0.96362469 0.77067015
0.84655457 0.97626072 0.77376780
0.98795056 0.99409618 0.77819297
0.19979423 0.11799662 0.95044529
0.29415657 0.13947218 0.95107956
0.44529254 0.18193314 0.95255025
0.62102954 0.23931559 0.95500827
0.80671087 0.30532590 0.95852602
0.25885381 0.28530714 0.95378927
0.33848948 0.29644718 0.95442109
0.47608979 0.32093485 0.95588609
0.64324974 0.35844208 0.95833463
0.82362338 0.40651656 0.96183891
0.36331775 0.49891581 0.96150277
0.42459410 0.50547948 0.96212899
0.54077654 0.52039107 0.96358101
0.69193316 0.54443205 0.96600796
0.86149442 0.57715143 0.96948153
0.49220987 0.72655869 0.97427269
0.53901809 0.73099944 0.97488981
0.63409430 0.74119840 0.97632082
0.76614997 0.75795230 0.97871277
0.92113780 0.78133505 0.98213654
0.63242566 0.95887229 0.99229328
0.66914260 0.96215691 0.99289798
0.74704032 0.96973472 0.99430024
0.86080627 0.98228368 0.99664433
1.00000000 1.00000000 1.00000000
