BT601_NTSC_to_BT601_NTSC-J.cube
TITLE "BT601_NTSC_to_BT601_NTSC-J_v3"
LUT_3D_SIZE 33
# BT601 NTSC SMPTE C (1987) standard (smpte170m) to BT601 NTSC-J Japan (1953) by Francesco Bucciantini
0.00000000 0.00000000 0.00000000
0.02041789 0.00110656 0.00049968
0.04083579 0.00221313 0.00099936
0.06142796 0.00332913 0.00150331
0.08595685 0.00464878 0.00209921
0.11175999 0.00621411 0.00280605
0.13756312 0.00803235 0.00362711
0.16336625 0.01011011 0.00456534
0.18916938 0.01245343 0.00562350
0.21497252 0.01506791 0.00680410
0.24077565 0.01795877 0.00810950
0.26657878 0.02113092 0.00954192
0.29238191 0.02458895 0.01110344
0.31818505 0.02833725 0.01279603
0.34398818 0.03237997 0.01462157
0.36979131 0.03672105 0.01658183
0.39559444 0.04136429 0.01867854
0.42139758 0.04631329 0.02091332
0.44720071 0.05157153 0.02328775
0.47300384 0.05714237 0.02580333
0.49880697 0.06302902 0.02846151
0.52461011 0.06923459 0.03126371
0.55041324 0.07576210 0.03421129
0.57621637 0.08285585 0.03730555
0.60201950 0.08980541 0.04054778
0.62782264 0.09675496 0.04393922
0.65362577 0.10370451 0.04748106
0.67942890 0.11065406 0.05117448
0.70523203 0.11760361 0.05502062
0.73103517 0.12455316 0.05902059
0.75683830 0.13150271 0.06317547
0.78264143 0.13845226 0.06748632
0.80844456 0.14540181 0.07195418
0.00941976 0.03143926 0.00132491
0.02983765 0.03254582 0.00182459
0.05025555 0.03365238 0.00232427
0.07084772 0.03476839 0.00282822
0.09483552 0.03608804 0.00342412
0.11938266 0.03765336 0.00413096
0.14421444 0.03947161 0.00495201
0.16924725 0.04154937 0.00589025
0.19442659 0.04389269 0.00694840
0.21971560 0.04650717 0.00812900
0.24508859 0.04939803 0.00943441
0.27052718 0.05257017 0.01086682
0.29601786 0.05602821 0.01242834
0.32155056 0.05977651 0.01412093
0.34711758 0.06381923 0.01594647
0.37271297 0.06816031 0.01790674
0.39833207 0.07280354 0.02000345
0.42397115 0.07775254 0.02223823
0.44962722 0.08324793 0.02461265
0.47529785 0.08865351 0.02712823
0.50098104 0.09416603 0.02978642
0.52667515 0.09977628 0.03258862
0.55237879 0.10547593 0.03553619
0.57809080 0.11125741 0.03863046
0.60381019 0.11711387 0.04187269
0.62953614 0.12303913 0.04526412
0.65526793 0.12902755 0.04880597
0.68100493 0.13507406 0.05249939
0.70674661 0.14117405 0.05634553
0.73249251 0.14732334 0.06034550
0.75824222 0.15351813 0.06450038
0.78399539 0.15975497 0.06881123
0.80975169 0.16603074 0.07327908
0.01883952 0.06287851 0.00264981
0.03925741 0.06398507 0.00314949
0.05967530 0.06509164 0.00364917
0.08026747 0.06620764 0.00415312
0.10324295 0.06752729 0.00474902
0.12669324 0.06909262 0.00545587
0.15065053 0.07091087 0.00627692
0.17497473 0.07298863 0.00721515
0.19957111 0.07533194 0.00827331
0.22437394 0.07794642 0.00945391
0.24933646 0.08083729 0.01075931
0.27442467 0.08423130 0.01219173
0.29961336 0.08758770 0.01375325
0.32488347 0.09114439 0.01544584
0.35022038 0.09489147 0.01727138
0.37561269 0.09881896 0.01923165
0.40105140 0.10291696 0.02132835
0.42652933 0.10717574 0.02356313
0.45204068 0.11158588 0.02593756
0.47758071 0.11613825 0.02845314
0.50314553 0.12082411 0.03111132
0.52873190 0.12563515 0.03391352
0.55433711 0.13056346 0.03686110
0.57995890 0.13560160 0.03995536
0.60559532 0.14074252 0.04319760
0.63124474 0.14597965 0.04658903
0.65690573 0.15130679 0.05013087
0.68257707 0.15671817 0.05382429
0.70825772 0.16220840 0.05767043
0.73394674 0.16777245 0.06167040
0.75964334 0.17340563 0.06582528
0.78534681 0.17910357 0.07013614
0.81105652 0.18486223 0.07460399
0.02833968 0.09427443 0.00398602
0.04875757 0.09528867 0.00448571
0.06917546 0.09629649 0.00498539
0.08977999 0.09730652 0.00548933
0.11131017 0.09849271 0.00608524
0.13378416 0.09988853 0.00679208
0.15694241 0.10149500 0.00761313
0.18060656 0.10331172 0.00855137
0.20465208 0.10533699 0.00960952
0.22899041 0.10756804 0.01079012
0.25355740 0.11000115 0.01209553
0.27830571 0.11263176 0.01352794
0.30319984 0.11545467 0.01508946
0.32821270 0.11846410 0.01678205
0.35332336 0.12165387 0.01860759
0.37851538 0.12501746 0.02056786
0.40377575 0.12854814 0.02266457
0.42909403 0.13223905 0.02489935
0.45446173 0.13608329 0.02727377
0.47987192 0.14007396 0.02978935
0.50531890 0.14420423 0.03244754
0.53079789 0.14846741 0.03524974
0.55630492 0.15285697 0.03819731
0.58183661 0.15736656 0.04129158
0.60739011 0.16199003 0.04453381
0.63296298 0.16672150 0.04792524
0.65855312 0.17155530 0.05146709
0.68415873 0.17648602 0.05516051
0.70977822 0.18150849 0.05900665
0.73541024 0.18661782 0.06300662
0.76105359 0.19180934 0.06716150
0.78670721 0.19707864 0.07147235
0.81237017 0.20242153 0.07594020
0.03957336 0.12560945 0.00556606
0.05999126 0.12645431 0.00606574
0.08040915 0.12729531 0.00656543
0.10006699 0.12813965 0.00706937
0.12038635 0.12913312 0.00766528
0.14184235 0.13030474 0.00837212
0.16414665 0.13165654 0.00919317
0.18709212 0.13318953 0.01013141
0.21052921 0.13490373 0.01118956
0.23434879 0.13679835 0.01237016
0.25847018 0.13887183 0.01367556
0.28283289 0.14112192 0.01510798
0.30739095 0.14354581 0.01666950
0.33210896 0.14614016 0.01836209
0.35695930 0.14890117 0.02018763
0.38192015 0.15182471 0.02214790
0.40697413 0.15490632 0.02424460
0.43210720 0.15814132 0.02647939
0.45730795 0.16152482 0.02885381
0.48256700 0.16505183 0.03136939
0.50787658 0.16871727 0.03402757
0.53323024 0.17251602 0.03682978
0.55862251 0.17644297 0.03977735
0.58404881 0.18049304 0.04287162
0.60950523 0.18466121 0.04611385
0.63498842 0.18894256 0.04950528
0.66049549 0.19333225 0.05304712
0.68602397 0.19782560 0.05674055
0.71157169 0.20241803 0.06058668
0.73713676 0.20710512 0.06458665
0.76271754 0.21188262 0.06874153
0.78831256 0.21674640 0.07305239
0.81392056 0.22169252 0.07752024
0.05289838 0.15694447 0.00744025
0.07331627 0.15766510 0.00793993
0.09348909 0.15838327 0.00843961
0.11148342 0.15910509 0.00894356
0.13058986 0.15995546 0.00953946
0.15099270 0.16095973 0.01024630
0.17239117 0.16212035 0.01106736
0.19455934 0.16343895 0.01200559
0.21732828 0.16491643 0.01306375
0.24057129 0.16655304 0.01424435
0.26419262 0.16834842 0.01554975
0.28811923 0.17030169 0.01698217
0.31229481 0.17241145 0.01854369
0.33667548 0.17467590 0.02023628
0.36122670 0.17709282 0.02206181
0.38592096 0.17965965 0.02402208
0.41073618 0.18237353 0.02611879
0.43565446 0.18523133 0.02835357
0.46066114 0.18822972 0.03072800
0.48574414 0.19136518 0.03324357
0.51089345 0.19463403 0.03590176
0.53610065 0.19803250 0.03870396
0.56135868 0.20155672 0.04165154
0.58666155 0.20520280 0.04474580
0.61200415 0.20896678 0.04798803
0.63738210 0.21284472 0.05137947
0.66279163 0.21683271 0.05492131
0.68822946 0.22092684 0.05861473
0.71369277 0.22512328 0.06246087
0.73917907 0.22941825 0.06646084
0.76468618 0.23380804 0.07061572
0.79021219 0.23828904 0.07492657
0.81575541 0.24285771 0.07939443
0.06837645 0.18827950 0.00961727
0.08885616 0.18890550 0.01011695
0.10719311 0.18952984 0.01061663
0.12386009 0.19015785 0.01112058
0.14178634 0.19089830 0.01171648
0.16113239 0.19177362 0.01242332
0.18159906 0.19278634 0.01324437
0.20295160 0.19393837 0.01418261
0.22500821 0.19523103 0.01524076
0.24762861 0.19666513 0.01642136
0.27070432 0.19824100 0.01772677
0.29415104 0.19995854 0.01915919
0.31790278 0.20181723 0.02072070
0.34190747 0.20381622 0.02241329
0.36612368 0.20595429 0.02423883
0.39051814 0.20822995 0.02619910
0.41506394 0.21064141 0.02829581
0.43973910 0.21318665 0.03053059
0.46452556 0.21586344 0.03290501
0.48940836 0.21866934 0.03542059
0.51437503 0.22160176 0.03807878
0.53941509 0.22465797 0.04088098
0.56451967 0.22783512 0.04382855
0.58968126 0.23113026 0.04692282
0.61489344 0.23454039 0.05016505
0.64015067 0.23806244 0.05355649
0.66544819 0.24169329 0.05709833
0.69078187 0.24542983 0.06079175
0.71614811 0.24926893 0.06463789
0.74154375 0.25320745 0.06863786
0.76696604 0.25724230 0.07279274
0.79241254 0.26137041 0.07710359
0.81788110 0.26558874 0.08181907
0.08623410 0.21961452 0.01210500
0.10485694 0.22016627 0.01260468
0.12160173 0.22071686 0.01310436
0.13704638 0.22127097 0.01360831
0.15384796 0.22192469 0.01420421
0.17215762 0.22269800 0.01491105
0.19168838 0.22359343 0.01573211
0.21220541 0.22461295 0.01667034
0.23352045 0.22575808 0.01772850
0.25548403 0.22702993 0.01890910
0.27797784 0.22842920 0.02021450
0.30090813 0.22995626 0.02164692
0.32420033 0.23161114 0.02320844
0.34779481 0.23339357 0.02490103
0.37164356 0.23530300 0.02672657
0.39570769 0.23733862 0.02868683
0.41995549 0.23949939 0.03078354
0.44436086 0.24178404 0.03301832
0.46890225 0.24419111 0.03539275
0.49356171 0.24671897 0.03790832
0.51832419 0.24936582 0.04056651
0.54317701 0.25212971 0.04336871
0.56810943 0.25500857 0.04631629
0.59311227 0.25800023 0.04941055
0.61817770 0.26110243 0.05265278
0.64329895 0.26431281 0.05604422
0.66847017 0.26762897 0.05958606
0.69368629 0.27104844 0.06327948
0.71894287 0.27456873 0.06712562
0.74423603 0.27818731 0.07112559
0.76956236 0.28190165 0.07528047
0.79491885 0.28570919 0.07959132
0.82030283 0.28960739 0.08428013
0.10445146 0.25094954 0.01491069
0.12123361 0.25144162 0.01541037
0.13658176 0.25193286 0.01591006
0.15091252 0.25242744 0.01641400
0.16665796 0.25301117 0.01700991
0.18396857 0.25370205 0.01771675
0.20257657 0.25450248 0.01853780
0.22225397 0.25541445 0.01947604
0.24281176 0.25643955 0.02053419
0.26409561 0.25757903 0.02171479
0.28598043 0.25883380 0.02302019
0.30836517 0.26020451 0.02445261
0.33116807 0.26169150 0.02601413
0.35432283 0.26329489 0.02770672
0.37777548 0.26501456 0.02953226
0.40148181 0.26685016 0.03149253
0.42540547 0.26880114 0.03358924
0.44951634 0.27086677 0.03582402
0.47378938 0.27304614 0.03819844
0.49820361 0.27533816 0.04071402
0.52274137 0.27774163 0.04337220
0.54738769 0.28025519 0.04617441
0.57212987 0.28287736 0.04912198
0.59695703 0.28560655 0.05221625
0.62185981 0.28844109 0.05545848
0.64683014 0.29137919 0.05884991
0.67186103 0.29441902 0.06239176
0.69694639 0.29755866 0.06608518
0.72208089 0.30079615 0.06993132
0.74725986 0.30412948 0.07393128
0.77247918 0.30755660 0.07808617
0.79773522 0.31107545 0.08264031
0.82302476 0.31468392 0.08700814
0.12266882 0.28228457 0.01804105
0.13790425 0.28272775 0.01854073
0.15202705 0.28317030 0.01904041
0.16534903 0.28361600 0.01954436
0.18011265 0.28414220 0.02014026
0.19647242 0.28476523 0.02084711
0.21418363 0.28548737 0.02166816
0.23303007 0.28631056 0.02260639
0.25282667 0.28723639 0.02366455
0.27341812 0.28826616 0.02484515
0.29467560 0.28940091 0.02615055
0.31649292 0.29064143 0.02758297
0.33878275 0.29198827 0.02914449
0.36147323 0.29344179 0.03083708
0.38450513 0.29500214 0.03266262
0.40782946 0.29666928 0.03462289
0.43140552 0.29844301 0.03671959
0.45519937 0.30032296 0.03895437
0.47918257 0.30230859 0.04132880
0.50333115 0.30439925 0.04384438
0.52762484 0.30659413 0.04650256
0.55204639 0.30889231 0.04930476
0.57658108 0.31129277 0.05225234
0.60121627 0.31379436 0.05534660
0.62594104 0.31639584 0.05858884
0.65074598 0.31909590 0.06198027
0.67562288 0.32189314 0.06552211
0.70056458 0.32478610 0.06921553
0.72556482 0.32777323 0.07306167
0.75061808 0.33085298 0.07706164
0.77571950 0.33402369 0.08146461
0.80086479 0.33728371 0.08571381
0.82605012 0.34063134 0.08999523
0.14088618 0.31361959 0.02150232
0.15480779 0.31402204 0.02200201
0.16785335 0.31442400 0.02250169
0.18026466 0.31482892 0.02300563
0.19412172 0.31530709 0.02360154
0.20958488 0.31587342 0.02430838
0.22643413 0.31653006 0.02512943
0.24446817 0.31727888 0.02606767
0.26350938 0.31812143 0.02712582
0.28340476 0.31905904 0.02830642
0.30402447 0.32009277 0.02961183
0.32525938 0.32122351 0.03104424
0.34701820 0.32245194 0.03260576
0.36922473 0.32377857 0.03429835
0.39181535 0.32520371 0.03612389
0.41473688 0.32672754 0.03808416
0.43794472 0.32835010 0.04018087
0.46140137 0.33007125 0.04241565
0.48507518 0.33189076 0.04479007
0.50893932 0.33380824 0.04730565
0.53297096 0.33582320 0.04996384
0.55715059 0.33793505 0.05276604
0.58146148 0.34014308 0.05571361
0.60588920 0.34244648 0.05880788
0.63042127 0.34484438 0.06205011
0.65504688 0.34733580 0.06544154
0.67975658 0.34991969 0.06898339
0.70454210 0.35259495 0.07267681
0.72939621 0.35536039 0.07652295
0.75431251 0.35821477 0.08052292
0.77928537 0.36115683 0.08488587
0.80430977 0.36418522 0.08904104
0.82938128 0.36729857 0.09323229
0.15910353 0.34495461 0.02530038
0.17189817 0.34532265 0.02580006
0.18399370 0.34569032 0.02629974
0.19558389 0.34606075 0.02680369
0.20860744 0.34649828 0.02739959
0.22323078 0.34701659 0.02810643
0.23925851 0.34761773 0.02892749
0.25650591 0.34830345 0.02986572
0.27480529 0.34907528 0.03092388
0.29400850 0.34993451 0.03210448
0.31398705 0.35088224 0.03340988
0.33463083 0.35191938 0.03484230
0.35584619 0.35304668 0.03640382
0.37755383 0.35426474 0.03809641
0.39968668 0.35557400 0.03992195
0.42218805 0.35697479 0.04188221
0.44500995 0.35846727 0.04397892
0.46811168 0.36005150 0.04621370
0.49145864 0.36172745 0.04858813
0.51502129 0.36349493 0.05110370
0.53877436 0.36535368 0.05376189
0.56269616 0.36730335 0.05656409
0.58676797 0.36934346 0.05951167
0.61097361 0.37147348 0.06260593
0.63529904 0.37369278 0.06584816
0.65973201 0.37600067 0.06923960
0.68426184 0.37839637 0.07278144
0.70887913 0.38087904 0.07647486
0.73357563 0.38344780 0.08032100
0.75834405 0.38610168 0.08453677
0.78317794 0.38883968 0.08855265
0.80807157 0.39166074 0.09261109
0.83301984 0.39456379 0.09670934
0.17732089 0.37628964 0.02944074
0.18914021 0.37662827 0.02994042
0.20039474 0.37696660 0.03044011
0.21124440 0.37730752 0.03094405
0.22350348 0.37771027 0.03153996
0.23734383 0.37818746 0.03224680
0.25259353 0.37874102 0.03306785
0.26908501 0.37937263 0.03400609
0.28666201 0.38008374 0.03506424
0.30518313 0.38087562 0.03624484
0.32452313 0.38174936 0.03755024
0.34457266 0.38270589 0.03898266
0.36523718 0.38374599 0.04054418
0.38643547 0.38487030 0.04223677
0.40809796 0.38607936 0.04406231
0.43016519 0.38737357 0.04602258
0.45258634 0.38875321 0.04811928
0.47531792 0.39021847 0.05035407
0.49832267 0.39176944 0.05272849
0.52156860 0.39340610 0.05524407
0.54502815 0.39512835 0.05790225
0.56867752 0.39693599 0.06070446
0.59249612 0.39882877 0.06365203
0.61646605 0.40080632 0.06674630
0.64057170 0.40286823 0.06998853
0.66479945 0.40501401 0.07337996
0.68913734 0.40724309 0.07692180
0.71357485 0.40955487 0.08061523
0.73810271 0.41194866 0.08467422
0.76271271 0.41442374 0.08853880
0.78739756 0.41697932 0.09245258
0.81215080 0.41961459 0.09641250
0.83696664 0.42232867 0.10041570
0.19553825 0.40762466 0.03392864
0.20650668 0.40793789 0.03442832
0.21701372 0.40825088 0.03492801
0.22719474 0.40856630 0.03543195
0.23875349 0.40893897 0.03602786
0.25186608 0.40938058 0.03673470
0.26638237 0.40989296 0.03755575
0.28215175 0.41047771 0.03849399
0.29903010 0.41113620 0.03955214
0.31688407 0.41186967 0.04073274
0.33559313 0.41267918 0.04203814
0.35505013 0.41356566 0.04347056
0.37516095 0.41452990 0.04503208
0.39584354 0.41557259 0.04672467
0.41702676 0.41669429 0.04855021
0.43864913 0.41789547 0.05051048
0.46065756 0.41917649 0.05260718
0.48300624 0.42053761 0.05484197
0.50565560 0.42197903 0.05721639
0.52857144 0.42350084 0.05973197
0.55172410 0.42510306 0.06239015
0.57508785 0.42678562 0.06519236
0.59864029 0.42854840 0.06813993
0.62236189 0.43039120 0.07123420
0.64623553 0.43231374 0.07447643
0.67024623 0.43431570 0.07786786
0.69438078 0.43639668 0.08165764
0.71862754 0.43855625 0.08530094
0.74297623 0.44079389 0.08900358
0.76741769 0.44310908 0.09276206
0.79194382 0.44550119 0.09657304
0.81654738 0.44796961 0.10043344
0.84122189 0.45051363 0.10434034
0.21375561 0.43895969 0.03876905
0.22397630 0.43925077 0.03926873
0.23381619 0.43954167 0.03976841
0.24339242 0.43983485 0.04027236
0.25430968 0.44018128 0.04086826
0.26674714 0.44059185 0.04157510
0.28057443 0.44106828 0.04239616
0.29565712 0.44161208 0.04333439
0.31186347 0.44222459 0.04439255
0.32906891 0.44290697 0.04557315
0.34715868 0.44366027 0.04687855
0.36602898 0.44448540 0.04831097
0.38558718 0.44538315 0.04987249
0.40575143 0.44635422 0.05156508
0.42644989 0.44739920 0.05339062
0.44761974 0.44851859 0.05535088
0.46920622 0.44971281 0.05744759
0.49116167 0.45098218 0.05968237
0.51344457 0.45232695 0.06205680
0.53601880 0.45374731 0.06457238
0.55885284 0.45524336 0.06723056
0.58191919 0.45681514 0.07003276
0.60519377 0.45846261 0.07298034
0.62865550 0.46018570 0.07607460
0.65228585 0.46198425 0.07931683
0.67606848 0.46385805 0.08294875
0.69998901 0.46580685 0.08641459
0.72403468 0.46783034 0.08994636
0.74819418 0.46992816 0.09354038
0.77245748 0.47209990 0.09719315
0.79681560 0.47434510 0.10090139
0.82126055 0.47666329 0.10466198
0.84578514 0.47905393 0.10847200
0.23197297 0.47029471 0.04396670
0.24153219 0.47056635 0.04446638
0.25077418 0.47083782 0.04496606
0.25980218 0.47111146 0.04547001
0.27013158 0.47143482 0.04606591
0.28194337 0.47181809 0.04677275
0.29512487 0.47226289 0.04759381
0.30955681 0.47277066 0.04853204
0.32511957 0.47334266 0.04959020
0.34169774 0.47398004 0.05077080
0.35918302 0.47468378 0.05207620
0.37747581 0.47545479 0.05350862
0.39648589 0.47629384 0.05507014
0.41613246 0.47720164 0.05676273
0.43634373 0.47817879 0.05858826
0.45705624 0.47922581 0.06054853
0.47821413 0.48034314 0.06264524
0.49976833 0.48153117 0.06488002
0.52167578 0.48279018 0.06725445
0.54389873 0.48412041 0.06977002
0.56640405 0.48552203 0.07242821
0.58916264 0.48699516 0.07523041
0.61214892 0.48853985 0.07817799
0.63534036 0.49015608 0.08152032
0.65871708 0.49184381 0.08472619
0.68226150 0.49360292 0.08800801
0.70595806 0.49543326 0.09136186
0.72979294 0.49733462 0.09478400
0.75375386 0.49930676 0.09827083
0.77782986 0.50134939 0.10181895
0.80201113 0.50346216 0.10542512
0.82628893 0.50564472 0.10908626
0.85065538 0.50789665 0.11279944
0.25019033 0.50162973 0.04952611
0.25916087 0.50188416 0.05002580
0.26786487 0.50213845 0.05052548
0.27639470 0.50239478 0.05102943
0.28618485 0.50269772 0.05162533
0.29741698 0.50305681 0.05233217
0.30999412 0.50347359 0.05315322
0.32381093 0.50394942 0.05409146
0.33875942 0.50448552 0.05514961
0.35473337 0.50508297 0.05633021
0.37163132 0.50574274 0.05763562
0.38935850 0.50646570 0.05906803
0.40782780 0.50725261 0.06062955
0.42696020 0.50810416 0.06232214
0.44668461 0.50902097 0.06414768
0.46693756 0.51000357 0.06610795
0.48766260 0.51105242 0.06820466
0.50880973 0.51216791 0.07043944
0.53033472 0.51335039 0.07281386
0.55219851 0.51460012 0.07532944
0.57436660 0.51591734 0.07798763
0.59680851 0.51730219 0.08078983
0.61949730 0.51875479 0.08396408
0.64240914 0.52027521 0.08697614
0.66552289 0.52186345 0.09006955
0.68881982 0.52351948 0.09324047
0.71228326 0.52524323 0.09648516
0.73589836 0.52703458 0.09980005
0.75965188 0.52889336 0.10318167
0.78353198 0.53081938 0.10662672
0.80752806 0.53281239 0.11013204
0.83163059 0.53487213 0.11369461
0.85583103 0.53699829 0.11731154
0.26840768 0.53296476 0.05545163
0.27685143 0.53320386 0.05595131
0.28506946 0.53344285 0.05645100
0.29314549 0.53368376 0.05695494
0.30244031 0.53396850 0.05755085
0.31313531 0.53430604 0.05825769
0.32514736 0.53469784 0.05907874
0.33838377 0.53514520 0.06001698
0.35274752 0.53564928 0.06107513
0.36814135 0.53621110 0.06225573
0.38447084 0.53683162 0.06356113
0.40164642 0.53751166 0.06499355
0.41958462 0.53825198 0.06655507
0.43820875 0.53905325 0.06824766
0.45744905 0.53991609 0.07007320
0.47724253 0.54084102 0.07203347
0.49753267 0.54182853 0.07413017
0.51826895 0.54287902 0.07636496
0.53940635 0.54399286 0.07873938
0.56090481 0.54517035 0.08150303
0.58272870 0.54641173 0.08413677
0.60484640 0.54771722 0.08686398
0.62722977 0.54908697 0.08968086
0.64985382 0.55052108 0.09258366
0.67269629 0.55201964 0.09556868
0.69573735 0.55358266 0.09863231
0.71895930 0.55521013 0.10177104
0.74234632 0.55690200 0.10498145
0.76588427 0.55865817 0.10826025
0.78956045 0.56047852 0.11160424
0.81336346 0.56236289 0.11501038
0.83728307 0.56431109 0.11847571
0.86131002 0.56632288 0.12199743
0.28662504 0.56429978 0.06174741
0.29459500 0.56452515 0.06224709
0.30237242 0.56475043 0.06274678
0.31003398 0.56497754 0.06325072
0.31887310 0.56524597 0.06384663
0.32907011 0.56556419 0.06455347
0.34055399 0.56593361 0.06537452
0.35324346 0.56635544 0.06631276
0.36705166 0.56683079 0.06737091
0.38188999 0.56736066 0.06855151
0.39767101 0.56794594 0.06985691
0.41431056 0.56858745 0.07128933
0.43172919 0.56928592 0.07285085
0.44985300 0.57004201 0.07454344
0.46861399 0.57085633 0.07636898
0.48795016 0.57172939 0.07832925
0.50780533 0.57266169 0.08042595
0.52812888 0.57365365 0.08290169
0.54887531 0.57470563 0.08523469
0.57000387 0.57581797 0.08766761
0.59147809 0.57699093 0.09019704
0.61326540 0.57822476 0.09281951
0.63533665 0.57951963 0.09553154
0.65766584 0.58087571 0.09832969
0.68022969 0.58229309 0.10121053
0.70300739 0.58377186 0.10417071
0.72598029 0.58531204 0.10720690
0.74913166 0.58691363 0.11031591
0.77244650 0.58857661 0.11349458
0.79591131 0.59030090 0.11673987
0.81951393 0.59208640 0.12004884
0.84324340 0.59393299 0.12341866
0.86708981 0.59584050 0.12684658
0.30484240 0.59563480 0.06841746
0.31238426 0.59584782 0.06891714
0.31976080 0.59606075 0.06941682
0.32704284 0.59627542 0.06992077
0.33546200 0.59652916 0.07051668
0.34519692 0.59682999 0.07122352
0.35618712 0.59717923 0.07204457
0.36836156 0.59757805 0.07298281
0.38164275 0.59802752 0.07404096
0.39595024 0.59852857 0.07522156
0.41120343 0.59908208 0.07652696
0.42732365 0.59968883 0.07795938
0.44423570 0.60034953 0.07952090
0.46186877 0.60106482 0.08146157
0.48015702 0.60183531 0.08327583
0.49903981 0.60266150 0.08519972
0.51846171 0.60354389 0.08723069
0.53837233 0.60448289 0.08936603
0.55872603 0.60547890 0.09160284
0.57948166 0.60653224 0.09393814
0.60060215 0.60764321 0.09636886
0.62205418 0.60881206 0.09889188
0.64380780 0.61003901 0.10150404
0.66583613 0.61132424 0.10420218
0.68811501 0.61266788 0.10698313
0.71062275 0.61407005 0.10984379
0.73333984 0.61553081 0.11278106
0.75624872 0.61705021 0.11579191
0.77933358 0.61862826 0.11887339
0.80258016 0.62026493 0.12202259
0.82597558 0.62196019 0.12523671
0.84950819 0.62371395 0.12851302
0.87316745 0.62552611 0.13184888
0.32305976 0.62696983 0.07546564
0.33021316 0.62717166 0.07596532
0.33722373 0.62737343 0.07646500
0.34415736 0.62757685 0.07696895
0.35218881 0.62781730 0.07756485
0.36149449 0.62810238 0.07827169
0.37202313 0.62843336 0.07909274
0.38371280 0.62881135 0.08003098
0.39649454 0.62923737 0.08133718
0.41029556 0.62971232 0.08251399
0.42504185 0.63023704 0.08380445
0.44066018 0.63081229 0.08520777
0.45707969 0.63143875 0.08672284
0.47423291 0.63211706 0.08834820
0.49205645 0.63284778 0.09008212
0.51049134 0.63363144 0.09192263
0.52948322 0.63446851 0.09386753
0.54898223 0.63535942 0.09591446
0.56894293 0.63630456 0.09806090
0.58932400 0.63730427 0.10030419
0.61008802 0.63835885 0.10264159
0.63120112 0.63946857 0.10507030
0.65263273 0.64063367 0.10758745
0.67435524 0.64185434 0.11019015
0.69634377 0.64313075 0.11287551
0.71857584 0.64446304 0.11564064
0.74103116 0.64585130 0.11848267
0.76369143 0.64729562 0.12139876
0.78654009 0.64879603 0.12438614
0.80956217 0.65035256 0.12744205
0.83274412 0.65196521 0.13056384
0.85607364 0.65363392 0.13374889
0.87953957 0.65535865 0.13699467
0.34127712 0.65830485 0.08313415
0.34807664 0.65849653 0.08362738
0.35475206 0.65868815 0.08411899
0.36136504 0.65888134 0.08461316
0.36903789 0.65910971 0.08519541
0.37794438 0.65938049 0.08588316
0.38804125 0.65969487 0.08667813
0.39927465 0.66005392 0.08758150
0.41158339 0.66045862 0.08859396
0.42490179 0.66090983 0.08971575
0.43916208 0.66140837 0.09094672
0.45429636 0.66195495 0.09228633
0.47023814 0.66255025 0.09373374
0.48692342 0.66319487 0.09528778
0.50429145 0.66388938 0.09694703
0.52228521 0.66463429 0.09870983
0.54085166 0.66543006 0.10057430
0.55994177 0.66627713 0.10253840
0.57951051 0.66717587 0.10459991
0.59951667 0.66812664 0.10675649
0.61992269 0.66912974 0.10900571
0.64069437 0.67018545 0.11134505
0.66180067 0.67129403 0.11377190
0.68321344 0.67245569 0.11628366
0.70490715 0.67367060 0.11887765
0.72685868 0.67493893 0.12155123
0.74904706 0.67626081 0.12430174
0.77145332 0.67763632 0.12712652
0.79406022 0.67906556 0.13002298
