BT601_NTSC_to_BT601_PAL.cube
TITLE "Custom LUT"
LUT_3D_SIZE 5
# BT601 NTSC to BT601 PAL by Francesco Bucciantini
0.00000000 0.00000000 0.00000000
0.23394858 0.00625036 0.00000000
0.47245043 0.02076066 0.00000000
0.71095228 0.04506770 0.00000000
0.94945412 0.07997500 0.00000000
0.03123263 0.24457632 0.00000000
0.24834044 0.24740713 0.00000000
0.48002284 0.25387227 0.00000000
0.71591789 0.26438932 0.00000000
0.95308224 0.27887250 0.00000000
0.10247784 0.49069116 0.00000000
0.27921953 0.49215907 0.00000000
0.49715165 0.49554978 0.00000000
0.72730538 0.50117738 0.00000000
0.96144655 0.50914814 0.00000000
0.18656708 0.73680600 0.00000000
0.32497024 0.73776521 0.00000000
0.52456915 0.73998685 0.00000000
0.74596285 0.74369242 0.00000000
0.97528021 0.74897941 0.00000000
0.27065633 0.98292085 0.00000000
0.38169294 0.98362076 0.00000000
0.56154330 0.98524349 0.00000000
0.77190792 0.98795519 0.00000000
0.99477406 0.99183506 0.00000000
0.00370556 0.00578004 0.25278206
0.23569573 0.01203039 0.25249371
0.47335526 0.02654070 0.25182317
0.71154336 0.05084773 0.25069639
0.94988538 0.08593491 0.24907041
0.03493819 0.24719510 0.25029087
0.25000000 0.25000000 0.25000000
0.48091326 0.25640766 0.24932359
0.71650457 0.26683599 0.24818688
0.95351168 0.28120584 0.24654646
0.10568514 0.49204877 0.24442214
0.28071577 0.49351256 0.24412517
0.49801094 0.49689387 0.24343455
0.72788221 0.50250612 0.24227381
0.96187186 0.51045568 0.24059839
0.18867209 0.73769308 0.23430660
0.32627228 0.73865104 0.23399857
0.52538256 0.74086982 0.23328213
0.74652416 0.74457065 0.23207773
0.97569883 0.74985096 0.23033867
0.27219485 0.98356811 0.21908638
0.38281025 0.98426752 0.21876022
0.56230149 0.98588907 0.21800146
0.77244888 0.98859880 0.21672541
0.99518358 0.99247587 0.21488178
0.01230809 0.01919848 0.50477494
0.23970939 0.02544884 0.50462599
0.47544912 0.03995915 0.50428003
0.71291354 0.06426618 0.50369994
0.95088571 0.09843770 0.50286568
0.04354071 0.25318319 0.50349157
0.25381598 0.25593041 0.50334223
0.48297395 0.26221000 0.50299536
0.71786460 0.27244024 0.50241376
0.95450780 0.28655636 0.50157732
0.11290374 0.49518587 0.50049923
0.28416183 0.49664025 0.50034899
0.50000000 0.50000000 0.50000000
0.72921944 0.50557707 0.49941484
0.96285841 0.51347801 0.49857326
0.19348772 0.73974801 0.49544529
0.32927636 0.74070311 0.49529348
0.52726593 0.74291528 0.49494086
0.74782551 0.74660518 0.49434960
0.97666991 0.75187008 0.49349922
0.27573684 0.98506893 0.48809410
0.38539196 0.98576715 0.48793996
0.56405754 0.98738597 0.48758193
0.77370314 0.99009115 0.48698157
0.99613359 0.99396176 0.48611809
0.02671866 0.04167648 0.75676782
0.24630565 0.04792684 0.75667058
0.47893592 0.06243715 0.75644477
0.71520251 0.08689179 0.75606635
0.95255882 0.11744866 0.75552254
0.05795128 0.26294441 0.75593047
0.26009769 0.26560209 0.75583311
0.48640608 0.27168243 0.75560704
0.72013667 0.28160339 0.75522816
0.95617390 0.29532140 0.75468370
0.12436463 0.50039611 0.75398268
0.28985114 0.50183510 0.75388505
0.50331402 0.50515960 0.75365835
0.73145361 0.51067910 0.75327841
0.96450853 0.51850045 0.75273242
0.20134437 0.74317663 0.75070760
0.33425175 0.74412698 0.75060950
0.53040546 0.74632821 0.75038173
0.75000000 0.75000000 0.75000000
0.97829421 0.75523935 0.74945143
0.28158023 0.98757737 0.74597708
0.38967944 0.98827362 0.74587831
0.56698655 0.98988788 0.74564898
0.77579930 0.99258549 0.74526463
0.99772274 0.99644533 0.74471230
0.04741367 0.07395711 1.00000000
0.25551762 0.08020747 1.00000000
0.48389879 0.09439544 1.00000000
0.71847599 0.11533295 1.00000000
0.95495590 0.14163025 1.00000000
0.07864629 0.27642428 1.00000000
0.26889072 0.27896668 1.00000000
0.49129237 0.28478978 1.00000000
0.72338617 0.29430946 1.00000000
0.95856096 0.30750751 1.00000000
0.13966573 0.50778314 1.00000000
0.29784792 0.50920080 1.00000000
0.50803465 0.51247645 1.00000000
0.73464930 0.51791613 1.00000000
0.96687281 0.52562702 1.00000000
0.21220656 0.74807083 1.00000000
0.34127711 0.74901448 1.00000000
0.53488094 0.75120026 1.00000000
0.75311093 0.75484647 1.00000000
0.98062166 0.76004974 1.00000000
0.28978499 0.99116739 1.00000000
0.39575746 0.99186084 1.00000000
0.57116556 0.99346863 1.00000000
0.77879889 0.99615547 1.00000000
1.00000000 1.00000000 1.00000000
