BT601_NTSC_to_BT2100_PQ.cube
TITLE "BT601_NTSC_to_BT2100_PQ"
LUT_3D_SIZE 9
# BT601 NTSC SDR to BT2100 PQ HDR by Francesco Bucciantini
0.00000073 0.00000073 0.00000073
0.05123148 0.00441148 0.00043209
0.12650976 0.01609206 0.00173073
0.18983052 0.03596286 0.00447163
0.24158213 0.06262156 0.00899189
0.28541228 0.09438439 0.01542080
0.32346468 0.12508405 0.02373045
0.35710360 0.15279042 0.03379359
0.38725334 0.17802398 0.04542980
0.02840713 0.07709303 0.00446130
0.08151170 0.08383210 0.00565075
0.14440361 0.09496739 0.00776258
0.20007633 0.10996030 0.01124635
0.24812194 0.12761075 0.01630330
0.28991112 0.14668976 0.02303520
0.32673052 0.16629334 0.03144111
0.35957181 0.18583402 0.04143884
0.38917790 0.20496240 0.05289301
0.08078291 0.16347956 0.01625652
0.12289186 0.16662473 0.01768777
0.16892335 0.17170520 0.02010920
0.21537982 0.17915571 0.02390413
0.25831763 0.18867453 0.02917401
0.29709244 0.19984978 0.03596512
0.33201799 0.21224691 0.04426517
0.36360432 0.22546703 0.05400918
0.39234153 0.23917582 0.06509193
0.13977073 0.22978503 0.03629347
0.16560654 0.23151103 0.03774306
0.19850927 0.23435027 0.04016896
0.23563856 0.23862713 0.04391902
0.27255548 0.24428374 0.04905265
0.30744687 0.25119345 0.05558645
0.33979696 0.25918688 0.06349770
0.36961658 0.26807510 0.07272872
0.39710185 0.27766832 0.08319349
0.18858261 0.28358459 0.06314292
0.20568668 0.28466349 0.06449976
0.22951273 0.28645246 0.06676516
0.25872245 0.28918037 0.07025634
0.28971861 0.29284855 0.07501957
0.32040067 0.29742063 0.08106418
0.34977376 0.30283188 0.08836830
0.37746060 0.30899791 0.09695022
0.40338829 0.31582266 0.10589271
0.23022527 0.32892392 0.09507622
0.24225122 0.32965700 0.09625026
0.25994227 0.33087759 0.09819105
0.28294336 0.33275081 0.10113655
0.30868295 0.33529233 0.10507187
0.33526287 0.33849590 0.10993818
0.36153350 0.34233782 0.11564569
0.38688830 0.34678059 0.12208582
0.41105260 0.35177647 0.12914192
0.26657494 0.36813286 0.12581291
0.27543163 0.36866065 0.12668243
0.28892120 0.36954155 0.12812595
0.30720257 0.37089854 0.13033119
0.32853027 0.37274944 0.13330423
0.35137174 0.37509836 0.13702192
0.37462726 0.37793832 0.14143883
0.39760205 0.38125312 0.14649345
0.41989876 0.38501912 0.15211409
0.29885117 0.40268095 0.15354857
0.30561370 0.40307746 0.15421580
0.31615508 0.40374023 0.15532659
0.33087094 0.40476364 0.15703091
0.34859996 0.40616426 0.15934258
0.36817261 0.40794951 0.16225537
0.38863352 0.41011942 0.16574715
0.40929620 0.41266778 0.16978338
0.42970979 0.41558313 0.17432036
0.32788917 0.43355835 0.17880646
0.33320305 0.43386609 0.17933338
0.34162043 0.43438102 0.18021227
0.35362769 0.43517739 0.18156479
0.36845682 0.43626977 0.18340698
0.38524025 0.43766624 0.18574060
0.40319165 0.43936975 0.18855595
0.42168606 0.44137889 0.19183393
0.44026916 0.44368849 0.19554802
0.00259574 0.00095300 0.07802036
0.05622282 0.00653314 0.07931479
0.12956342 0.01861062 0.08147559
0.19152206 0.03850868 0.08480492
0.24264554 0.06500540 0.08960335
0.28613796 0.09645202 0.09525288
0.32398901 0.12661756 0.10182138
0.35749869 0.15396823 0.10916390
0.38756080 0.17895471 0.11713170
0.03362143 0.07937040 0.08479361
0.08605927 0.08605927 0.08605927
0.14698082 0.09702320 0.08817208
0.20161743 0.11173563 0.09166684
0.24912582 0.12910744 0.09598126
0.29060924 0.14793743 0.10129302
0.32724056 0.16733114 0.10749203
0.35995884 0.18670013 0.11444938
0.38948050 0.20568980 0.12203020
0.08534149 0.16454498 0.09594287
0.12605289 0.16765933 0.09710691
0.17097315 0.17269204 0.09903144
0.21672236 0.18007677 0.10195288
0.25923567 0.18951835 0.10585720
0.29774883 0.20061174 0.11068691
0.33250574 0.21292795 0.11635383
0.36397854 0.22607186 0.12275098
0.39263632 0.23971119 0.12976322
0.14246309 0.23036698 0.11091561
0.16772032 0.23208411 0.11192049
0.20007242 0.23490905 0.11358558
0.23675934 0.23916511 0.11612188
0.27336649 0.24479545 0.11952744
0.30804765 0.25167492 0.12376467
0.34025377 0.25963573 0.12876958
0.36997251 0.26849042 0.13446044
0.39738527 0.27805043 0.14074574
0.19029351 0.28394763 0.12854780
0.20715155 0.28502316 0.12939468
0.23069612 0.28680662 0.13080107
0.25963725 0.28952630 0.13295063
0.29041789 0.29318372 0.13585056
0.32093879 0.29774289 0.13947991
0.35019385 0.30313955 0.14379614
0.37779406 0.30928978 0.14874095
0.40365739 0.31609804 0.15424592
0.23140118 0.32917034 0.14761273
0.24330837 0.32990189 0.14831851
0.26084738 0.33111997 0.14949286
0.28368466 0.33298938 0.15129322
0.30927743 0.33552584 0.15373234
0.33573746 0.33872319 0.15680123
0.36191425 0.34255787 0.16047380
0.38719669 0.34699257 0.16471072
0.41130524 0.35197975 0.16946320
0.26742920 0.36831016 0.16720685
0.27622266 0.36883718 0.16779377
0.28962529 0.36971678 0.16877194
0.30780461 0.37107181 0.17027533
0.32903260 0.37292006 0.17231937
0.35178625 0.37526568 0.17490279
0.37496866 0.37810173 0.17801100
0.39788430 0.38141210 0.18161869
0.42013369 0.38517321 0.18569227
0.29949774 0.40281410 0.18674214
0.30622396 0.40321018 0.18723187
0.31671295 0.40387223 0.18804911
0.33136344 0.40489453 0.18930775
0.34902421 0.40629365 0.19102395
0.36853285 0.40807700 0.19320105
0.38893749 0.41024465 0.19583204
0.40955253 0.41279042 0.19890137
0.42992657 0.41570286 0.20238660
0.32839424 0.43366166 0.20586831
0.33368595 0.43396915 0.20627954
0.34207029 0.43448364 0.20696650
0.35403444 0.43527935 0.20802622
0.36881620 0.43637082 0.20947452
0.38555288 0.43776614 0.21131725
0.40346119 0.43946827 0.21355219
0.42191757 0.44147581 0.21617037
0.44046801 0.44378359 0.21915720
0.00989285 0.00380777 0.16463866
0.06444709 0.01039371 0.16523984
0.13449575 0.02288655 0.16624158
0.19430411 0.04275746 0.16778074
0.24440861 0.06896875 0.16987251
0.28734614 0.09983063 0.17251484
0.32486407 0.12914194 0.17569187
0.35815908 0.15591656 0.17937671
0.38807523 0.18049944 0.18353405
0.04230194 0.08315571 0.16777552
0.09373432 0.09001659 0.16835934
0.15117024 0.10038306 0.16933236
0.20415702 0.11464834 0.17082796
0.25079144 0.13157247 0.17286158
0.29177191 0.14999935 0.17543214
0.32809191 0.16905110 0.17852532
0.36060581 0.18813883 0.18211612
0.38998683 0.20690029 0.18617137
0.09305267 0.16631006 0.17284327
0.13115128 0.16937406 0.17340016
0.17432865 0.17432865 0.17432865
0.21894038 0.18160563 0.17575662
0.26076051 0.19092044 0.17769983
0.29884255 0.20187917 0.18015863
0.33332011 0.21406198 0.18312094
0.36460419 0.22707996 0.18656464
0.39312962 0.24060430 0.19045975
0.14683298 0.23133726 0.18027656
0.17117765 0.23303969 0.18079637
0.20264760 0.23584097 0.18166347
0.23861619 0.24006254 0.18299805
0.27471531 0.24564935 0.18481619
0.30904940 0.25247867 0.18711997
0.34101675 0.26038534 0.18990021
0.37056771 0.26918433 0.19313853
0.39785961 0.27868910 0.19680920
0.19310672 0.28455457 0.18977567
0.20956789 0.28562449 0.19025193
0.23265514 0.28739878 0.19104685
0.26115677 0.29010474 0.19227146
0.29158248 0.29374427 0.19394192
0.32183672 0.29828193 0.19606207
0.35089582 0.30365425 0.19862583
0.37835183 0.30977816 0.20161884
0.40410784 0.31655892 0.20502011
0.23334802 0.32958288 0.20093073
0.24506120 0.33031189 0.20136083
0.26235097 0.33152577 0.20207913
0.28491861 0.33338883 0.20318677
0.31026875 0.33591683 0.20469974
0.33652997 0.33910379 0.20662336
0.36255075 0.34292639 0.20895439
0.38771267 0.34734762 0.21168239
0.41172822 0.35232025 0.21479099
0.26884920 0.36860725 0.21330875
0.27753860 0.36913296 0.21369321
0.29079783 0.37001041 0.21433567
0.30880843 0.37136214 0.21532729
0.32987117 0.37320596 0.21668359
0.35247892 0.37554606 0.21841101
0.37553967 0.37837558 0.22050867
0.39835669 0.38167853 0.22296956
0.42052710 0.38543146 0.22578147
0.30057524 0.40303732 0.22651181
0.30724138 0.40343266 0.22685327
0.31764360 0.40409350 0.22742420
0.33218568 0.40511395 0.22830618
0.34973309 0.40651055 0.22951403
0.36913522 0.40829075 0.23105486
0.38944609 0.41045462 0.23292965
0.40998164 0.41299604 0.23513416
0.43028964 0.41590361 0.23765971
0.32923734 0.43383493 0.24020602
0.33449227 0.43414198 0.24050828
0.34282172 0.43465575 0.24101392
0.35471422 0.43545034 0.24179567
0.36941716 0.43654029 0.24286746
0.38607593 0.43793369 0.24423675
0.40391236 0.43963350 0.24590581
0.42230526 0.44163835 0.24787256
0.44080111 0.44394310 0.25013114
0.02312599 0.00951737 0.23103195
0.07683697 0.01680566 0.23135990
0.14172835 0.02958213 0.23190833
0.19849380 0.04928869 0.23275580
0.24709652 0.07503476 0.23391684
0.28920007 0.10486942 0.23539871
0.32621194 0.13294869 0.23720287
0.35917872 0.15887651 0.23932588
0.38887079 0.18285828 0.24176006
0.05549099 0.08894798 0.23275292
0.10432209 0.09555657 0.23307588
0.15737066 0.10539508 0.23361600
0.20799286 0.11901861 0.23445071
0.25333370 0.13529256 0.23559442
0.29355694 0.15312732 0.23705446
0.32940360 0.17167173 0.23883246
0.36160488 0.19033869 0.24092523
0.39076993 0.20875645 0.24332548
0.10370855 0.16899789 0.23558408
0.13861187 0.17198689 0.23589900
0.17934650 0.17682492 0.23642574
0.22230356 0.18394071 0.23723990
0.26309174 0.19306530 0.23835571
0.30052305 0.20382128 0.23978056
0.33457536 0.21580252 0.24151634
0.36557056 0.22862962 0.24356032
0.39389267 0.24197910 0.24590576
0.15328597 0.23282944 0.23984926
0.17634127 0.23450953 0.24015249
0.20653552 0.23727482 0.24065972
0.24144392 0.24144392 0.24144392
0.27678168 0.24696442 0.24251905
0.31059019 0.25371724 0.24389254
0.34219346 0.26154121 0.24556666
0.37148737 0.27025501 0.24753926
0.39859349 0.27967519 0.24980443
0.19734171 0.28549201 0.24549127
0.21322303 0.28655334 0.24577973
0.23563485 0.28831355 0.24626235
0.26348000 0.29099849 0.24700871
0.29337040 0.29461052 0.24803239
0.32321946 0.29911516 0.24934088
0.35197916 0.30445009 0.25093685
0.37921401 0.31053352 0.25281888
0.40480492 0.31727197 0.25498201
0.23630962 0.33022150 0.25238440
0.24773382 0.33094660 0.25265585
0.26465028 0.33215401 0.25311010
0.28681150 0.33400728 0.25381284
0.31179369 0.33652224 0.25477716
0.33775182 0.33969318 0.25601055
0.36353377 0.34349715 0.25751610
0.38851062 0.34789758 0.25929313
0.41238300 0.35284778 0.26133773
0.27102282 0.36906773 0.26036023
0.27955535 0.36959143 0.26061332
0.29259779 0.37046554 0.26103696
0.31035237 0.37181218 0.26169257
0.33116336 0.37364916 0.26259268
0.35354804 0.37598073 0.26374475
0.37642217 0.37880016 0.26515220
0.39908757 0.38209163 0.26681510
0.42113629 0.38583191 0.26873055
0.30223112 0.40338358 0.26923071
0.30880600 0.40377780 0.26946492
0.31907621 0.40443677 0.26985706
0.33345296 0.40545434 0.27046416
0.35082701 0.40684705 0.27129811
0.37006588 0.40862235 0.27236624
0.39023270 0.41078037 0.27367227
0.41064588 0.41331506 0.27521692
0.43085206 0.41621511 0.27699825
0.33053644 0.43410385 0.27880675
0.33573521 0.43441022 0.27902227
0.34398076 0.43492287 0.27938318
0.35576357 0.43571573 0.27994212
0.37034564 0.43680333 0.28071034
0.38688474 0.43819374 0.28169496
0.40461057 0.43988997 0.28289991
0.42290565 0.44189065 0.28432645
0.44131726 0.44419070 0.28597348
0.04187761 0.01838783 0.28489167
0.09338018 0.02599833 0.28509613
0.15096781 0.03880289 0.28543857
0.20403334 0.05814332 0.28596903
0.25071000 0.08322801 0.28669832
0.29171494 0.11144649 0.28763343
0.32805013 0.13799100 0.28877836
0.36057403 0.16283672 0.29013466
0.38996195 0.18603652 0.29170167
0.07295848 0.09684390 0.28596722
0.11734621 0.10274518 0.28616979
0.16538488 0.11193929 0.28650907
0.21308463 0.12476860 0.28703466
0.25675681 0.14022517 0.28775729
0.29598014 0.15730405 0.28868391
0.33119314 0.17519194 0.28981857
0.36297233 0.19330818 0.29116281
0.39184414 0.21127190 0.29271609
0.11680654 0.17260553 0.28775074
0.14811798 0.17549694 0.28795021
0.18591957 0.18018295 0.28828432
0.22679141 0.18708779 0.28880193
0.26623790 0.19596238 0.28951365
0.30280687 0.20645062 0.29042640
0.33628889 0.21816440 0.29154420
0.36689371 0.23073700 0.29286872
0.39493960 0.24385235 0.29439949
0.16160278 0.23485997 0.29047052
0.18309417 0.23651016 0.29066536
0.21169344 0.23922725 0.29099175
0.24523958 0.24332601 0.29149744
0.27957836 0.24875747 0.29219286
0.31268724 0.25540742 0.29308484
0.34380110 0.26311998 0.29417746
0.37274715 0.27171879 0.29547244
0.39960068 0.28102457 0.29696952
0.20293832 0.28677549 0.29412813
0.21808471 0.28782516 0.29431694
0.23962783 0.28956630 0.29463324
0.26661564 0.29222271 0.29512334
0.29579745 0.29579745 0.29579745
0.32510452 0.30025724 0.29666229
0.35346068 0.30554135 0.29772194
0.38039574 0.31156972 0.29897827
0.40576198 0.31825058 0.30043121
0.24027914 0.33109865 0.29868760
0.25132735 0.33181840 0.29886916
0.26775443 0.33301698 0.29917333
0.28937817 0.33485689 0.29964472
0.31386950 0.33735406 0.30029321
0.33942034 0.34050313 0.30112541
0.36487948 0.34428163 0.30214541
0.38960503 0.34865366 0.30335519
0.41328235 0.35357318 0.30475493
0.27396126 0.36970137 0.30408470
0.28228634 0.37022231 0.30425805
0.29504086 0.37109186 0.30454850
0.31245364 0.37243153 0.30499870
0.33292666 0.37425913 0.30561819
0.35501031 0.37657901 0.30641340
0.37763151 0.37938461 0.30738842
0.40009068 0.38266036 0.30854537
0.42197342 0.38638330 0.30988467
0.30448206 0.40386061 0.31023555
0.31093495 0.40425329 0.31040002
0.32102824 0.40490968 0.31067563
0.33518270 0.40592331 0.31110290
0.35232282 0.40731068 0.31169097
0.37134059 0.40907926 0.31244610
0.39131168 0.41122924 0.31337234
0.41155813 0.41375468 0.31447195
0.43162526 0.41664438 0.31574557
0.33230904 0.43447461 0.31704462
0.33743216 0.43478006 0.31719983
0.34556456 0.43529116 0.31745993
0.35719911 0.43608164 0.31786323
0.37161740 0.43716600 0.31841845
0.38799392 0.43855232 0.31913165
0.40556916 0.44024361 0.32000682
0.42373074 0.44223857 0.32104631
0.44202718 0.44453215 0.32225100
0.06512793 0.03030805 0.33027499
0.11162762 0.03792738 0.33041371
0.16181429 0.05049542 0.33064625
0.21079767 0.06925472 0.33100692
0.25521254 0.09368301 0.33150368
0.29488419 0.11935716 0.33214216
0.33038251 0.14416157 0.33292622
0.36235227 0.16774235 0.33385832
0.39135671 0.19000788 0.33493966
0.09433480 0.10592370 0.33100569
0.13203552 0.11133235 0.33114357
0.17491675 0.11981334 0.33137467
0.21933169 0.13174924 0.33173313
0.26103057 0.14626898 0.33222686
0.29903671 0.16246536 0.33286145
0.33346490 0.17957397 0.33364078
0.36471553 0.19702724 0.33456729
0.39321746 0.21443800 0.33564220
0.13156775 0.17709203 0.33222238
0.15924581 0.17986683 0.33235884
0.19385836 0.18437063 0.33258759
0.23233262 0.19102157 0.33294239
0.27017714 0.19959366 0.33343110
0.30569171 0.20975596 0.33405928
0.33846580 0.22114216 0.33483079
0.36858116 0.23340119 0.33574807
0.39627839 0.24622649 0.33681236
0.17146266 0.23742914 0.33408969
0.19123456 0.23904230 0.33422402
0.21801722 0.24169966 0.33444919
0.24996016 0.24571112 0.33479846
0.28309263 0.25103190 0.33527959
0.31534116 0.25755371 0.33589806
0.34584564 0.26512714 0.33665771
0.37435480 0.27358201 0.33756101
0.40088915 0.28274420 0.33860921
0.20976820 0.28841227 0.33662337
0.22406395 0.28944728 0.33675486
0.24458362 0.29116439 0.33697527
0.27054214 0.29378488 0.33731719
0.29885876 0.29731260 0.33778821
0.32749525 0.30171582 0.33839375
0.35534717 0.30693576 0.33913763
0.38190494 0.31289452 0.34002229
0.40698692 0.31950248 0.34104906
0.24520701 0.33222190 0.33981735
0.25580596 0.33293486 0.33994534
0.27164277 0.33412225 0.34015990
0.29261098 0.33594518 0.34049277
0.31649711 0.33841976 0.34095137
0.34154102 0.34154102 0.34154102
0.36659534 0.34528717 0.34226548
0.39100389 0.34962306 0.34312722
0.41443407 0.35450352 0.34412760
0.27764831 0.37051477 0.34364814
0.28572036 0.37103220 0.34377207
0.29812188 0.37189592 0.34397984
0.31511280 0.37322670 0.34430218
0.33516567 0.37504233 0.34474633
0.35687265 0.37734728 0.34531748
0.37917555 0.38013523 0.34601934
0.40137398 0.38339090 0.34685438
0.42304609 0.38709169 0.34782401
0.30732632 0.40447392 0.34807856
0.31362837 0.40486461 0.34819796
0.32350223 0.40551771 0.34839815
0.33737984 0.40652629 0.34870875
0.35422725 0.40790682 0.34913677
0.37296706 0.40966680 0.34968728
0.39269103 0.41180650 0.35036391
0.41272623 0.41432008 0.35116912
0.43261664 0.41719654 0.35210438
0.33455966 0.43495178 0.35306120
0.33958837 0.43525604 0.35317571
0.34757925 0.43576516 0.35336771
0.35902788 0.43655259 0.35366564
0.37324014 0.43763279 0.35407625
0.38941147 0.43901386 0.35460446
0.40679603 0.44069882 0.35525382
0.42478812 0.44268643 0.35602678
0.44293797 0.44497171 0.35692486
0.09199452 0.04494219 0.36951733
0.13042432 0.05235394 0.36961712
0.17384652 0.06447358 0.36978448
0.21862014 0.08246644 0.37004424
0.26053973 0.10512069 0.37040240
0.29868392 0.12835640 0.37086336
0.33320187 0.15131487 0.37143042
0.36451329 0.17350756 0.37210595
0.39305791 0.19472207 0.37289153
0.11625390 0.11612380 0.37004336
0.14770969 0.12103018 0.37014272
0.18563323 0.12877448 0.37030934
0.22659400 0.13977085 0.37056797
0.26609866 0.15328495 0.37092456
0.30270541 0.16851435 0.37138353
0.33621258 0.18475287 0.37194815
0.36683469 0.20145381 0.37262077
0.39489285 0.21822849 0.37340301
0.14730731 0.18238847 0.37092133
0.17155487 0.18503204 0.37101996
0.20292994 0.18933014 0.37118538
0.23882056 0.19569303 0.37144213
0.27486416 0.20391976 0.37179614
0.30916014 0.21370737 0.37225179
0.34110120 0.22471422 0.37281234
0.37063364 0.23660759 0.37348016
0.39791218 0.24909240 0.37425684
0.18251091 0.24052421 0.37227386
0.20051742 0.24209395 0.37237139
0.22536301 0.24468117 0.37253495
0.25553313 0.24858995 0.37278884
0.28729168 0.25378027 0.37313890
0.31853917 0.26015064 0.37358950
0.34832394 0.26755919 0.37414386
0.37631170 0.27584295 0.37480433
0.40246229 0.28483396 0.37557253
0.21766123 0.29040299 0.37411878
0.23103380 0.29142045 0.37421482
0.25042046 0.29310882 0.37437589
0.27521458 0.29568628 0.37462592
0.30253298 0.29915765 0.37497068
0.33038351 0.30349298 0.37541447
0.35763737 0.30863582 0.37596049
0.38374373 0.31451083 0.37661108
0.40848337 0.32103094 0.37736785
0.25101260 0.33359504 0.37646025
0.26110610 0.33429980 0.37655444
0.27627155 0.33547364 0.37671241
0.29648450 0.33727604 0.37695762
0.31966424 0.33972327 0.37729577
0.34410974 0.34281087 0.37773108
0.36868180 0.34651781 0.37826670
0.39271003 0.35080989 0.37890497
0.41584204 0.35564298 0.37964749
0.28204626 0.37151212 0.37929141
0.28982679 0.37202528 0.37938341
0.30181904 0.37288191 0.37953771
0.31831695 0.37420187 0.37977724
0.33787462 0.37600293 0.38010757
0.35913405 0.37828971 0.38053283
0.38105616 0.38105616 0.38105616
0.40294087 0.38428736 0.38167984
0.42435840 0.38796115 0.38240549
0.31074732 0.40522735 0.38259625
0.31687273 0.40561563 0.38268576
0.32648867 0.40626471 0.38283589
0.34003921 0.40726713 0.38306895
0.35653883 0.40863930 0.38339038
0.37494650 0.41038877 0.38380423
0.39437367 0.41251589 0.38431357
0.41415401 0.41501500 0.38492066
0.43383041 0.41787526 0.38562711
0.33728235 0.43553874 0.38635130
0.34219922 0.43584154 0.38643806
0.35002208 0.43634822 0.38658359
0.36124924 0.43713192 0.38680953
0.37521513 0.43820704 0.38712115
0.39114010 0.43958167 0.38752241
0.40829483 0.44125888 0.38801631
0.42608190 0.44323748 0.38860509
0.44405390 0.44551259 0.38929035
0.11826395 0.06186656 0.40409143
0.14919764 0.06893826 0.40416636
0.18667847 0.08046644 0.40429205
0.22731547 0.09759156 0.40448724
0.26660789 0.11730996 0.40475653
0.30307663 0.13819344 0.40510343
0.33649187 0.15928715 0.40553064
0.36705074 0.18002699 0.40604023
0.39506401 0.20011164 0.40663376
0.13751027 0.12713443 0.40448657
0.16384167 0.13155361 0.40456126
0.19721080 0.13857377 0.40468654
0.23471123 0.14862967 0.40488109
0.27188626 0.16111546 0.40514952
0.30695198 0.17533442 0.40549530
0.33942112 0.19064522 0.40592113
0.36932396 0.20652964 0.40642909
0.39686898 0.22260349 0.40702072
0.16349632 0.18840717 0.40514708
0.18464644 0.19090966 0.40522136
0.21289051 0.19498576 0.40534597
0.24612757 0.20103611 0.40553946
0.28023641 0.20888553 0.40580643
0.31318260 0.21826057 0.40615035
0.34418188 0.22884633 0.40657389
0.37304609 0.24033053 0.40707913
0.39984000 0.25243148 0.40766761
0.19440800 0.24412196 0.40616702
0.21068878 0.24564277 0.40624068
0.23356683 0.24815087 0.40636424
0.26186606 0.25194364 0.40655612
0.29212740 0.25698619 0.40682086
0.32225761 0.26318451 0.40716192
0.35122528 0.27040513 0.40758195
0.37861385 0.27849317 0.40808302
0.40431958 0.28728766 0.40866666
0.22642889 0.29274269 0.40756293
0.23884656 0.29373994 0.40763575
0.25703617 0.29539516 0.40775790
0.28057088 0.29792296 0.40794759
0.30678571 0.30132925 0.40820932
0.33375170 0.30558606 0.40854650
0.36032324 0.31063960 0.40896178
0.38590931 0.31641745 0.40945719
0.41025137 0.32283548 0.41003429
0.25759490 0.33521862 0.40934227
0.26714503 0.33591381 0.40941403
0.28158005 0.33707184 0.40953441
0.30095933 0.33885027 0.40972135
0.32334784 0.34126556 0.40997928
0.34711436 0.34431382 0.41031159
0.37113341 0.34797490 0.41072088
0.39472187 0.35221569 0.41120918
0.41750687 0.35699327 0.41177803
0.28710131 0.37269561 0.41150513
0.29456007 0.37320375 0.41157562
0.30609738 0.37405204 0.41169388
0.32204231 0.37535927 0.41187752
0.34103908 0.37714320 0.41213092
0.36178688 0.37940861 0.41245740
0.38327014 0.38214975 0.41285954
0.40479090 0.38535214 0.41333934
0.42591147 0.38899412 0.41389832
0.31471658 0.40612345 0.41404540
0.32064340 0.40650888 0.41411443
0.32996809 0.40715321 0.41423024
0.34314721 0.40814834 0.41441009
0.35924924 0.40951064 0.41465828
0.37727469 0.41124769 0.41497804
0.39635824 0.41335996 0.41537194
0.41584195 0.41584195 0.41584195
0.43526815 0.41868305 0.41638956
0.34046244 0.43623790 0.41695170
0.34525191 0.43653898 0.41701911
0.35288284 0.43704278 0.41713218
0.36385606 0.43782205 0.41730780
0.37753817 0.43889115 0.41755014
0.39317802 0.44025815 0.41786241
0.41006556 0.44192617 0.41824709
0.42761331 0.44389409 0.41870613
0.44537695 0.44615714 0.41924104
0.14231694 0.08064884 0.43498941
0.16760526 0.08730953 0.43504754
0.19998711 0.09816577 0.43514508
0.23669804 0.11272458 0.43529659
0.27332207 0.12994308 0.43550571
0.30801472 0.14863545 0.43577526
0.34022872 0.16791272 0.43610746
0.36995298 0.18718615 0.43650406
0.39736972 0.20609842 0.43696647
0.15787815 0.13868319 0.43529607
0.18005665 0.14264625 0.43535406
0.20936325 0.14897973 0.43545135
0.24351865 0.15812785 0.43560248
0.27830712 0.16959994 0.43581109
0.31173236 0.18280078 0.43607996
0.34306820 0.19715719 0.43641133
0.37217236 0.21218582 0.43680695
0.39914086 0.22751322 0.43726822
0.17975985 0.19505025 0.43580919
0.19819074 0.19740632 0.43586694
0.22350882 0.20125115 0.43596382
0.25411755 0.20697405 0.43611432
0.28622002 0.21442524 0.43632205
0.31772023 0.22336116 0.43658981
0.34768779 0.23349478 0.43691980
0.37580854 0.24453581 0.43731378
0.40205731 0.25621753 0.43777314
0.20685774 0.24819087 0.43660279
0.22150992 0.24965829 0.43666016
0.24246081 0.25207996 0.43675642
0.26885557 0.25574571 0.43690595
0.29754084 0.26062604 0.43711234
0.32646426 0.26663486 0.43737837
0.35453259 0.27364771 0.43770624
0.38125267 0.28151853 0.43809770
0.40645714 0.29009405 0.43855413
0.23588297 0.29542166 0.43769140
0.24734834 0.29639627 0.43774826
0.26431814 0.29801437 0.43784367
0.28653764 0.30048652 0.43799187
0.31157274 0.30381976 0.43819643
0.33757458 0.30798834 0.43846012
0.36339105 0.31294136 0.43878511
0.38839469 0.31860964 0.43917313
0.41228782 0.32491232 0.43962557
0.26484240 0.33709042 0.43908309
0.27382875 0.33777474 0.43913931
0.28749624 0.33891481 0.43923364
0.30598586 0.34066602 0.43938016
0.32751644 0.34304500 0.43958242
0.35053614 0.34604851 0.43984314
0.37393968 0.34965738 0.44016448
0.39703404 0.35383974 0.44054815
0.41942626 0.35855400 0.44099554
0.29274856 0.37406567 0.44078086
0.29986395 0.37456806 0.44083630
0.31091208 0.37540681 0.44092933
0.32625651 0.37669946 0.44107384
0.34463755 0.37846377 0.44127332
0.36481785 0.38070467 0.44153046
0.38580994 0.38341679 0.44184740
0.40692024 0.38658613 0.44222584
0.42770383 0.39019160 0.44266715
0.31919643 0.40716357 0.44278333
0.32490704 0.40754571 0.44283788
0.33391314 0.40818457 0.44292940
0.34668332 0.40917132 0.44307157
0.36234437 0.41052225 0.44326782
0.37994272 0.41224499 0.44352081
0.39863964 0.41434014 0.44383264
0.41778758 0.41680240 0.44420500
0.43692914 0.41962142 0.44463924
0.34407816 0.43705089 0.44508542
0.34872688 0.43734997 0.44513895
0.35614512 0.43785045 0.44522877
0.36683575 0.43862461 0.44536829
0.38020042 0.43968674 0.44556089
0.39551962 0.44104492 0.44580919
0.41210510 0.44270232 0.44611525
0.42938101 0.44465790 0.44648075
0.44690700 0.44690700 0.44690700
