BT601_NTSC_to_BT2020_HLG.cube
TITLE "BT601_NTSC_to_BT2020_HLG"
LUT_3D_SIZE 33
# BT601 NTSC SDR to BT2020 HLG HDR by Francesco Bucciantini
0.00000000 0.00000000 0.00000000
0.05399591 0.01994823 0.00871662
0.07636175 0.02821106 0.01232717
0.09365662 0.03460047 0.01511910
0.11067321 0.04088707 0.01786611
0.12795646 0.04727219 0.02065616
0.14547698 0.05374497 0.02348452
0.16321155 0.06029682 0.02634743
0.18114127 0.06692077 0.02924185
0.19925049 0.07361103 0.03216524
0.21752601 0.08036273 0.03511548
0.23595653 0.08717170 0.03809074
0.25453228 0.09403432 0.04108945
0.27324469 0.10094742 0.04411021
0.29208622 0.10790823 0.04715183
0.31105015 0.11491426 0.05021320
0.33013048 0.12196329 0.05329335
0.34932177 0.12905331 0.05639143
0.36861913 0.13618252 0.05950662
0.38801808 0.14334927 0.06263822
0.40751454 0.15055203 0.06578556
0.42710476 0.15778943 0.06894803
0.44678527 0.16506020 0.07212508
0.46655288 0.17236313 0.07531619
0.48640462 0.17969716 0.07852088
0.50626681 0.18706124 0.08173870
0.52518439 0.19445443 0.08496925
0.54298767 0.20187585 0.08821213
0.55981685 0.20932466 0.09146698
0.57578611 0.21680007 0.09473345
0.59098980 0.22430135 0.09801123
0.60550679 0.23182781 0.10130000
0.61940379 0.23937878 0.10459949
0.04136353 0.06608017 0.02003007
0.06801838 0.06902551 0.02184452
0.08684503 0.07185021 0.02351941
0.10238410 0.07459076 0.02509563
0.11815033 0.07770676 0.02684030
0.13447601 0.08124807 0.02877292
0.15124316 0.08517693 0.03086627
0.16837147 0.08945555 0.03309669
0.18580393 0.09404774 0.03544417
0.20349865 0.09892003 0.03789204
0.22142382 0.10404210 0.04042649
0.23955464 0.10938690 0.04303613
0.25787133 0.11493059 0.04571156
0.27635774 0.12065227 0.04844497
0.29500051 0.12653369 0.05122986
0.31378837 0.13255895 0.05406079
0.33271170 0.13871421 0.05693317
0.35176220 0.14498740 0.05984310
0.37093262 0.15136799 0.06278728
0.39021657 0.15784676 0.06576283
0.40960840 0.16441564 0.06876731
0.42910304 0.17106751 0.07179857
0.44869591 0.17779611 0.07485473
0.46838289 0.18459588 0.07793415
0.48816022 0.19146189 0.08103537
0.50791125 0.19838976 0.08415711
0.52666444 0.20537555 0.08729821
0.54432800 0.21241574 0.09045763
0.56103720 0.21950718 0.09363446
0.57690255 0.22664699 0.09682784
0.59201550 0.23383260 0.10003701
0.60645273 0.24106165 0.10326129
0.62027917 0.24833201 0.10650004
0.05849687 0.09345147 0.02832680
0.07960805 0.09555684 0.02963759
0.09619252 0.09761681 0.03089282
0.11042393 0.09965124 0.03210910
0.12518164 0.10200456 0.03349038
0.14069378 0.10472744 0.03505830
0.15679744 0.10780398 0.03679579
0.17337789 0.11121548 0.03868585
0.19035242 0.11494158 0.04071232
0.20765992 0.11896117 0.04286036
0.22525419 0.12325318 0.04511657
0.24309950 0.12779704 0.04746907
0.26116769 0.13257311 0.04990742
0.27943612 0.13756293 0.05242250
0.29788629 0.14274930 0.05500638
0.31650289 0.14811639 0.05765217
0.33527305 0.15364967 0.06035387
0.35418580 0.15933592 0.06310626
0.37323176 0.16516312 0.06590482
0.39240275 0.17112039 0.06874557
0.41169162 0.17719789 0.07162504
0.43109205 0.18338670 0.07454018
0.45059845 0.18967880 0.07748828
0.47020578 0.19606690 0.08046698
0.48990952 0.20254443 0.08347416
0.50954071 0.20910544 0.08650794
0.52813234 0.21574453 0.08956663
0.54565835 0.22245682 0.09264873
0.56224929 0.22923784 0.09575289
0.57801205 0.23608356 0.09887787
0.59303535 0.24299027 0.10202258
0.60739369 0.24995461 0.10518602
0.62115030 0.25697350 0.10836725
0.07174558 0.11461691 0.03474242
0.08979414 0.11633988 0.03581920
0.10477856 0.11803771 0.03686455
0.11797877 0.11972564 0.03788961
0.13189385 0.12169137 0.03906704
0.14669793 0.12398265 0.04041921
0.16220660 0.12659209 0.04193517
0.17828471 0.12950963 0.04360302
0.19483220 0.13272312 0.04541059
0.21177390 0.13621902 0.04734595
0.22905238 0.13998288 0.04939770
0.24662302 0.14399980 0.05155522
0.26445058 0.14825481 0.05380872
0.28250680 0.15273316 0.05614932
0.30076866 0.15742053 0.05856902
0.31921721 0.16230319 0.06106063
0.33783659 0.16736810 0.06361774
0.35661342 0.17260300 0.06623465
0.37553627 0.17799640 0.06890627
0.39459531 0.18353760 0.07162808
0.41378199 0.18921668 0.07439607
0.43308879 0.19502447 0.07720665
0.45250912 0.20095249 0.08005662
0.47203710 0.20699296 0.08294313
0.49166746 0.21313870 0.08586363
0.51116917 0.21938310 0.08881583
0.52960067 0.22572010 0.09179765
0.54699012 0.23214413 0.09480725
0.56346346 0.23865006 0.09784295
0.57912410 0.24523317 0.10090323
0.59405805 0.25188913 0.10398671
0.60833770 0.25861394 0.10709214
0.62202458 0.26540391 0.11021837
0.08478113 0.13544181 0.04105481
0.10051567 0.13690294 0.04196996
0.11410065 0.13834864 0.04286557
0.12633053 0.13979154 0.04375026
0.13941449 0.14147875 0.04477383
0.15349494 0.14345433 0.04595840
0.16837872 0.14571549 0.04729715
0.18391805 0.14825717 0.04878201
0.20000000 0.15107241 0.05040420
0.21653775 0.15415274 0.05215458
0.23346393 0.15748858 0.05402402
0.25072560 0.16106952 0.05600359
0.26828068 0.16488461 0.05808477
0.28609527 0.16892266 0.06025951
0.30414174 0.17317237 0.06252034
0.32239733 0.17762255 0.06486033
0.34084303 0.18226225 0.06727317
0.35946285 0.18708084 0.06975307
0.37824318 0.19206812 0.07229479
0.39717235 0.19721434 0.07489355
0.41624025 0.20251024 0.07754507
0.43543807 0.20794708 0.08024543
0.45475809 0.21351663 0.08299111
0.47419345 0.21921116 0.08577893
0.49373809 0.22502345 0.08860601
0.51307584 0.23094673 0.09146974
0.53132151 0.23697470 0.09436774
0.54855220 0.24310151 0.09729788
0.56488863 0.24932167 0.10025819
0.58043021 0.25563011 0.10324691
0.59525987 0.26202210 0.10626240
0.60944757 0.26849323 0.10930319
0.62305291 0.27503942 0.11236793
0.09802095 0.15659304 0.04746613
0.11190919 0.15785852 0.04825985
0.12425468 0.15911393 0.04904072
0.13557164 0.16037011 0.04981586
0.14784000 0.16184292 0.05071717
0.16118611 0.16357273 0.05176592
0.17541853 0.16555936 0.05295806
0.19038413 0.16780073 0.05428831
0.20596181 0.17029318 0.05575051
0.22205599 0.17303168 0.05733791
0.23859101 0.17601008 0.05904346
0.25550654 0.17922133 0.06085999
0.27275408 0.18265769 0.06278038
0.29029428 0.18631093 0.06479772
0.30809490 0.19017246 0.06690536
0.32612928 0.19423354 0.06909702
0.34437514 0.19848532 0.07136676
0.36281374 0.20291904 0.07370907
0.38142912 0.20752604 0.07611880
0.40020762 0.21229788 0.07859122
0.41913746 0.21722636 0.08112196
0.43820838 0.22230359 0.08370701
0.45741140 0.22752197 0.08634269
0.47673861 0.23287428 0.08902562
0.49618300 0.23835362 0.09175272
0.51531143 0.24395345 0.09452115
0.53334148 0.24966759 0.09732834
0.55038757 0.25549019 0.10017192
0.56656452 0.26141574 0.10304970
0.58196720 0.26743906 0.10595971
0.59667503 0.27355525 0.10890011
0.61075519 0.27975974 0.11186923
0.62426506 0.28604821 0.11486552
0.11144254 0.17803465 0.05396546
0.12383456 0.17914873 0.05466489
0.13509462 0.18025593 0.05535549
0.14557129 0.18136573 0.05604336
0.15706049 0.18266934 0.05684601
0.16968292 0.18420368 0.05778363
0.18325663 0.18597004 0.05885400
0.19762958 0.18796819 0.06005379
0.21267722 0.19019654 0.06137880
0.22829848 0.19265233 0.06282415
0.24441155 0.19533178 0.06438453
0.26095004 0.19823027 0.06605434
0.27785989 0.20134247 0.06782782
0.29509676 0.20466245 0.06969922
0.31262405 0.20818387 0.07166286
0.33041132 0.21190003 0.07371320
0.34843302 0.21580403 0.07584492
0.36666762 0.21988882 0.07805296
0.38509675 0.22414731 0.08033249
0.40370469 0.22857241 0.08267900
0.42247786 0.23315714 0.08508825
0.44140448 0.23789460 0.08755627
0.46047423 0.24277810 0.09007939
0.47967805 0.24780110 0.09265419
0.49900791 0.25295732 0.09527748
0.51787363 0.25824067 0.09794634
0.53565954 0.26364534 0.10065805
0.55249612 0.26916574 0.10341011
0.56849168 0.27479656 0.10620018
0.58373611 0.28053272 0.10902613
0.59830491 0.28636940 0.11188597
0.61226219 0.29230201 0.11477788
0.62566284 0.29832623 0.11770015
0.12502809 0.19973820 0.06054419
0.13618951 0.20073186 0.06116844
0.14650304 0.20172063 0.06178639
0.15621647 0.20271295 0.06240341
0.16697480 0.20388011 0.06312525
0.17889907 0.20525595 0.06397090
0.19182173 0.20684262 0.06493937
0.20559677 0.20864097 0.06602868
0.22010039 0.21065074 0.06723604
0.23522921 0.21287069 0.06855802
0.25089757 0.21529867 0.06999068
0.26703466 0.21793176 0.07152974
0.28358192 0.22076639 0.07317063
0.30049074 0.22379841 0.07490868
0.31772061 0.22702320 0.07673913
0.33523756 0.23043575 0.07865725
0.35301297 0.23403075 0.08065842
0.37102254 0.23780266 0.08273809
0.38924554 0.24174579 0.08489191
0.40766415 0.24585435 0.08711570
0.42626298 0.25012249 0.08940547
0.44502865 0.25454440 0.09175745
0.46394946 0.25911429 0.09416807
0.48301513 0.26382645 0.09663398
0.50220780 0.26867530 0.09915204
0.52075728 0.27365536 0.10171929
0.53827218 0.27876132 0.10433299
0.55487556 0.28398804 0.10699055
0.57066877 0.28933054 0.10968959
0.58573630 0.29478402 0.11242787
0.60014942 0.30034387 0.11520329
0.61396887 0.30600568 0.11801394
0.62724685 0.31176521 0.12085799
0.13876314 0.22168058 0.06719531
0.14889851 0.22257630 0.06775832
0.15838663 0.22346844 0.06831668
0.16741198 0.22436459 0.06887523
0.17749301 0.22541968 0.06952991
0.18875398 0.22666481 0.07029856
0.20104418 0.22810261 0.07118099
0.21422702 0.22973460 0.07217616
0.22818275 0.23156137 0.07328230
0.24280850 0.23358267 0.07449707
0.25801700 0.23579747 0.07581759
0.27373471 0.23820408 0.07724063
0.28989979 0.24080019 0.07876264
0.30646022 0.24358296 0.08037986
0.32337218 0.24654911 0.08208840
0.34059860 0.24969494 0.08388430
0.35810800 0.25301645 0.08576358
0.37587353 0.25650933 0.08772231
0.39387215 0.26016910 0.08975661
0.41208402 0.26399108 0.09186271
0.43049194 0.26797051 0.09403696
0.44908093 0.27210252 0.09627586
0.46783788 0.27638225 0.09857605
0.48675127 0.28080479 0.10093432
0.50575119 0.28536529 0.10334766
0.52395465 0.29005893 0.10581316
0.54117365 0.29488100 0.10832813
0.55752168 0.29982685 0.11088999
0.57309273 0.30489193 0.11349633
0.58796561 0.31007184 0.11614489
0.60220710 0.31536229 0.11883354
0.61587434 0.32075912 0.12156028
0.62901664 0.32625830 0.12432322
0.15263569 0.24384263 0.07391303
0.16190495 0.24465723 0.07442523
0.17067153 0.24546913 0.07493393
0.17907880 0.24628524 0.07544350
0.18853704 0.24724680 0.07604165
0.19917457 0.24838255 0.07674511
0.21085827 0.24969532 0.07755423
0.22346289 0.25118705 0.07846861
0.23687510 0.25285889 0.07948724
0.25099485 0.25471124 0.08060855
0.26573525 0.25674384 0.08183051
0.28102160 0.25895585 0.08315071
0.29679005 0.26134590 0.08456641
0.31298613 0.26391213 0.08607466
0.32956337 0.26665224 0.08767229
0.34648211 0.26956357 0.08935603
0.36370838 0.27264312 0.09112254
0.38121301 0.27588764 0.09296843
0.39897082 0.27929359 0.09489032
0.41696006 0.28285728 0.09688489
0.43516176 0.28657485 0.09894885
0.45355940 0.29044231 0.10107901
0.47213847 0.29445560 0.10327227
0.49088618 0.29861058 0.10552565
0.50962347 0.30290312 0.10783628
0.52745582 0.30732904 0.11020141
0.54435627 0.31188420 0.11261842
0.56042850 0.31656451 0.11508482
0.57575896 0.32136590 0.11759823
0.59042052 0.32628438 0.12015640
0.60447528 0.33131605 0.12275722
0.61797661 0.33645707 0.12539867
0.63097076 0.34170372 0.12807884
0.16663564 0.26620820 0.08069243
0.17516563 0.26695456 0.08116186
0.18329909 0.26769884 0.08162859
0.19115177 0.26844739 0.08209662
0.20003999 0.26932984 0.08264663
0.21009591 0.27037283 0.08329433
0.22120351 0.27157932 0.08404041
0.23324975 0.27295149 0.08488495
0.24612923 0.27449080 0.08582746
0.25974641 0.27619810 0.08686697
0.27401643 0.27807369 0.08800207
0.28886489 0.28011732 0.08923101
0.30422708 0.28232828 0.09055170
0.32004703 0.28470544 0.09196183
0.33627637 0.28724727 0.09345888
0.35287340 0.28995188 0.09504016
0.36980207 0.29281710 0.09670289
0.38703119 0.29584044 0.09844420
0.40453368 0.29901921 0.10026119
0.42228601 0.30235049 0.10215094
0.44026758 0.30583120 0.10411055
0.45846037 0.30945810 0.10613717
0.47684853 0.31322783 0.10822797
0.49541803 0.31713697 0.11038023
0.51380970 0.32118200 0.11259128
0.53124893 0.32535936 0.11485854
0.54781062 0.32966549 0.11717952
0.56358855 0.33409679 0.11955186
0.57866149 0.33864970 0.12197326
0.59309628 0.34332066 0.12444153
0.60695019 0.34810617 0.12695459
0.62027270 0.35300275 0.12951046
0.63310690 0.35800699 0.13210724
0.18075433 0.28876347 0.08752933
0.18864699 0.28945167 0.08796228
0.19622244 0.29013825 0.08839311
0.20357724 0.29082904 0.08882550
0.21194501 0.29164378 0.08933410
0.22146102 0.29260724 0.08993364
0.23202517 0.29372242 0.09062508
0.24353673 0.29499160 0.09140881
0.25589898 0.29641648 0.09228472
0.26902209 0.29799819 0.09325227
0.28282449 0.29973740 0.09431055
0.29723327 0.30163429 0.09545830
0.31218393 0.30368864 0.09669398
0.32761989 0.30589986 0.09801578
0.34349161 0.30826697 0.09942172
0.35975593 0.31078872 0.10090960
0.37637516 0.31346353 0.10247714
0.39331645 0.31628958 0.10412193
0.41055108 0.31926481 0.10584149
0.42805392 0.32238696 0.10763331
0.44580291 0.32565358 0.10949485
0.46377862 0.32906207 0.11142358
0.48196391 0.33260969 0.11341697
0.50034339 0.33629361 0.11547255
0.51829322 0.34011087 0.11758789
0.53532058 0.34405849 0.11976059
0.55152584 0.34813340 0.12198834
0.56699300 0.35233251 0.12426891
0.58179315 0.35665270 0.12660012
0.59598705 0.36109086 0.12897988
0.60962707 0.36564386 0.13140618
0.62275874 0.37030862 0.13387708
0.63542188 0.37508204 0.13639075
0.19498427 0.31149645 0.09442010
0.20232257 0.31213454 0.09482159
0.20940387 0.31277133 0.09522139
0.21631095 0.31341224 0.09562292
0.22420398 0.31416841 0.09609554
0.23322032 0.31506301 0.09665315
0.24327437 0.31609897 0.09729685
0.25427716 0.31727866 0.09802725
0.26614098 0.31860387 0.09884453
0.27878239 0.32007596 0.09974847
0.29212400 0.32169583 0.10073853
0.30609533 0.32346398 0.10181385
0.32063304 0.32538053 0.10297329
0.33568069 0.32744530 0.10421548
0.35118830 0.32965774 0.10553885
0.36711179 0.33201706 0.10694167
0.38341231 0.33452217 0.10842203
0.40005570 0.33717176 0.10997794
0.41701190 0.33996429 0.11160732
0.43425442 0.34289802 0.11330799
0.45175986 0.34597103 0.11507777
0.46950755 0.34918125 0.11691444
0.48747917 0.35252646 0.11881575
0.50560180 0.35600434 0.12077948
0.52305608 0.35961244 0.12280343
0.53965607 0.36334824 0.12488543
0.55548986 0.36720916 0.12702334
0.57063190 0.37119254 0.12921507
0.58514571 0.37529569 0.13145860
0.59908601 0.37951589 0.13375194
0.61250028 0.38385041 0.13609319
0.62543004 0.38829650 0.13848049
0.63791183 0.39285142 0.14091206
0.20931890 0.33439669 0.10136157
0.21617114 0.33499116 0.10173567
0.22281274 0.33558458 0.10210840
0.22931630 0.33618200 0.10248295
0.23677618 0.33688707 0.10292407
0.24533091 0.33772149 0.10344488
0.25490774 0.33868816 0.10404658
0.26542873 0.33978942 0.10472991
0.27681503 0.34102718 0.10549527
0.28898989 0.34240288 0.10634270
0.30188072 0.34391760 0.10727192
0.31542017 0.34557206 0.10828237
0.32954678 0.34736666 0.10937326
0.34420497 0.34930149 0.11054356
0.35934491 0.35137634 0.11179205
0.37492212 0.35359077 0.11311734
0.39089709 0.35594408 0.11451790
0.40723470 0.35843536 0.11599207
0.42390384 0.36106347 0.11753810
0.44087689 0.36382710 0.11915416
0.45812935 0.36672478 0.12083835
0.47563944 0.36975485 0.12258873
0.49338776 0.37291556 0.12440335
0.51113220 0.37620499 0.12628022
0.52807937 0.37962115 0.12821737
0.54423972 0.38316192 0.13021284
0.55968965 0.38682512 0.13226466
0.57449438 0.39060851 0.13437093
0.58871008 0.39450977 0.13652976
0.60238553 0.39852656 0.13873930
0.61556339 0.40265648 0.14099776
0.62828119 0.40689714 0.14330338
0.64057219 0.41124609 0.14565446
0.22375244 0.35745494 0.10835093
0.23017540 0.35801113 0.10870098
0.23642392 0.35856645 0.10904991
0.24256281 0.35912565 0.10940069
0.24962715 0.35978576 0.10981403
0.25775572 0.36056719 0.11030232
0.26688707 0.36147276 0.11086680
0.27695336 0.36250482 0.11150835
0.28788420 0.36366527 0.11222749
0.29960960 0.36495564 0.11302445
0.31206204 0.36637714 0.11389917
0.32517786 0.36793062 0.11485133
0.33889797 0.36961668 0.11588040
0.35316825 0.37143562 0.11698562
0.36793955 0.37338750 0.11816607
0.38316753 0.37547214 0.11942064
0.39881234 0.37768913 0.12074811
0.41483835 0.38003789 0.12214711
0.43121366 0.38251760 0.12361619
0.44790980 0.38512732 0.12515379
0.46490134 0.38786589 0.12675829
0.48216556 0.39073206 0.12842801
0.49968213 0.39372440 0.13016125
0.51691132 0.39684139 0.13195625
0.53334359 0.40008137 0.13381126
0.54905516 0.40344262 0.13572450
0.56411142 0.40692329 0.13769422
0.57856880 0.41052149 0.13971866
0.59247642 0.41423526 0.14179609
0.60587728 0.41806256 0.14392481
0.61880932 0.42200134 0.14610313
0.63130618 0.42604949 0.14832941
0.64339784 0.43020488 0.15060205
0.23827975 0.38066300 0.11538570
0.24432109 0.38118532 0.11571448
0.25021662 0.38170693 0.11604232
0.25602500 0.38223227 0.11637202
0.26272761 0.38285254 0.11676069
0.27046274 0.38358699 0.11722004
0.27917878 0.38443834 0.11775136
0.28881698 0.38540890 0.11835560
0.29931488 0.38650059 0.11903338
0.31060907 0.38771497 0.11978507
0.32263726 0.38905332 0.12061077
0.33533971 0.39051661 0.12151035
0.34866018 0.39210556 0.12248348
0.36254641 0.39382064 0.12352964
0.37695039 0.39566211 0.12464812
0.39182832 0.39762998 0.12583809
0.40714048 0.39972410 0.12709855
0.42285097 0.40194412 0.12842840
0.43892744 0.40428950 0.12982642
0.45534083 0.40675955 0.13129131
0.47206498 0.40935343 0.13282168
0.48907639 0.41207017 0.13441611
0.50628265 0.41490865 0.13607309
0.52291582 0.41786764 0.13779110
0.53882895 0.42094582 0.13956858
0.55408559 0.42414175 0.14140395
0.56874087 0.42745391 0.14329562
0.58284299 0.43088070 0.14524201
0.59643431 0.43442045 0.14724153
0.60955234 0.43807144 0.14929262
0.62223045 0.44183188 0.15139373
0.63449845 0.44569995 0.15354332
0.64638313 0.44967379 0.15573989
0.25289621 0.40401348 0.12246365
0.25859632 0.40450566 0.12277347
0.26417345 0.40499723 0.12308251
0.26968140 0.40549240 0.12339341
0.27605263 0.40607715 0.12376002
0.28342433 0.40676966 0.12419349
0.29175340 0.40757259 0.12469510
0.30098921 0.40848819 0.12526585
0.31107661 0.40951836 0.12590644
0.32195847 0.41066468 0.12661733
0.33357767 0.41192847 0.12739875
0.34587856 0.41331078 0.12825073
0.35880799 0.41481242 0.12917309
0.37231594 0.41643400 0.13016550
0.38635587 0.41817590 0.13122744
0.40088489 0.42003831 0.13235827
0.41586371 0.42202125 0.13355721
0.43125653 0.42412457 0.13482336
0.44703083 0.42634795 0.13615573
0.46315713 0.42869092 0.13755323
0.47960880 0.43115288 0.13901469
0.49636173 0.43373310 0.14053888
0.51308312 0.43643071 0.14212450
0.52912266 0.43924474 0.14377021
0.54451565 0.44217413 0.14547465
0.55931399 0.44521770 0.14723641
0.57356339 0.44837420 0.14905408
0.58730435 0.45164229 0.15092622
0.60057292 0.45502056 0.15285141
0.61340136 0.45850754 0.15482820
0.62581867 0.46210171 0.15685517
0.63785098 0.46580149 0.15893092
0.64952199 0.46960526 0.16105403
0.26759769 0.42749978 0.12958276
0.27299100 0.42796494 0.12987560
0.27827979 0.42842960 0.13016778
0.28351382 0.42889772 0.13046179
0.28958088 0.42945060 0.13080860
0.29661655 0.43010548 0.13121878
0.30458509 0.43086492 0.13169364
0.31344303 0.43173113 0.13223419
0.32314189 0.43270596 0.13284118
0.33363046 0.43379102 0.13351515
0.34485662 0.43498762 0.13425643
0.35676885 0.43629688 0.13506516
0.36931722 0.43771968 0.13594129
0.38245416 0.43925669 0.13688464
0.39613493 0.44090844 0.13789484
0.41031783 0.44267522 0.13897143
0.42496430 0.44455720 0.14011379
0.44003889 0.44655439 0.14132121
0.45550915 0.44866663 0.14259288
0.47134548 0.45089364 0.14392790
0.48752090 0.45323501 0.14532526
0.50398233 0.45569021 0.14678393
0.52005754 0.45825858 0.14830280
0.53550933 0.46093938 0.14988069
0.55038413 0.46373174 0.15151640
0.56472338 0.46663473 0.15320871
0.57856422 0.46964730 0.15495633
0.59194007 0.47276836 0.15675800
0.60488110 0.47599672 0.15861242
0.61741465 0.47933113 0.16051828
0.62956554 0.48277029 0.16247428
0.64135643 0.48631286 0.16447913
0.65280799 0.48995741 0.16653152
0.28238042 0.45111588 0.13674122
0.28749654 0.45155671 0.13701876
0.29252319 0.45199712 0.13729574
0.29750675 0.45244085 0.13757452
0.30329402 0.45296499 0.13790344
0.31001864 0.45358593 0.13829258
0.31765115 0.45430612 0.13874323
0.32615443 0.45512772 0.13925641
0.33548601 0.45605254 0.13983293
0.34560014 0.45708218 0.14047336
0.35644953 0.45821796 0.14117811
0.36798667 0.45946103 0.14194741
0.38016494 0.46081231 0.14278132
0.39293939 0.46227256 0.14367976
0.40626723 0.46384234 0.14464251
0.42010820 0.46552209 0.14566924
0.43442472 0.46731208 0.14675947
0.44918193 0.46921242 0.14791266
0.46434768 0.47122310 0.14912813
0.47989242 0.47334400 0.15040515
0.49578907 0.47557486 0.15174288
0.51176177 0.47791531 0.15314043
0.52718134 0.48036486 0.15459686
0.54205410 0.48292296 0.15611114
0.55641525 0.48558892 0.15768224
0.57029696 0.48836200 0.15930906
0.58372863 0.49124135 0.16099048
0.59673725 0.49422605 0.16272535
0.60934755 0.49731514 0.16451252
0.62158227 0.50050708 0.16635080
0.63346236 0.50377647 0.16823900
0.64500713 0.50710657 0.17017594
0.65623440 0.51049374 0.17216043
0.29724097 0.47485630 0.14393736
0.30210554 0.47527512 0.14420106
0.30689300 0.47569357 0.14446427
0.31164685 0.47611522 0.14472924
0.31717622 0.47661332 0.14504193
0.32361250 0.47720349 0.14541197
0.33093164 0.47788809 0.14584062
0.33910206 0.47866921 0.14632892
0.34808671 0.47954864 0.14687767
0.35784488 0.48052793 0.14748752
0.36833376 0.48160843 0.14815891
0.37950979 0.48279127 0.14889214
0.39132963 0.48407743 0.14968737
0.40375098 0.48546770 0.15054460
0.41673320 0.48696272 0.15146372
0.43023760 0.48856299 0.15244451
0.44422779 0.49026886 0.15348663
0.45866970 0.49208055 0.15458964
0.47353169 0.49399817 0.15575302
0.48878444 0.49602169 0.15697615
0.50436656 0.49815100 0.15825835
0.51965041 0.50038560 0.15959886
0.53443131 0.50271270 0.16099687
0.54873619 0.50512346 0.16245151
0.56259052 0.50761512 0.16396186
0.57601830 0.51018481 0.16552698
0.58904209 0.51282963 0.16714586
0.60168302 0.51554659 0.16881749
0.61396089 0.51833270 0.17054082
0.62589420 0.52118492 0.17231480
0.63750025 0.52410021 0.17413835
0.64879524 0.52707553 0.17601038
0.65979428 0.53010784 0.17792981
0.31217622 0.49871606 0.15116968
0.31681154 0.49911486 0.15142078
0.32138001 0.49951333 0.15167146
0.32592262 0.49991489 0.15192386
0.33121376 0.50038904 0.15222178
0.33738235 0.50094984 0.15257441
0.34440898 0.50159906 0.15298299
0.35226695 0.50233806 0.15344856
0.36092403 0.50316787 0.15397194
0.37034410 0.50408918 0.15455379
0.38048858 0.50510239 0.15519462
0.39131762 0.50620762 0.15589476
0.40279111 0.50740472 0.15665444
0.41486944 0.50869333 0.15747375
0.42751416 0.51007282 0.15835267
0.44068832 0.51154236 0.15929105
0.45435683 0.51310094 0.16028866
0.46848660 0.51474734 0.16134517
0.48304664 0.51648016 0.16246018
0.49800806 0.51829786 0.16363318
0.51303527 0.52019874 0.16486361
0.52762462 0.52218096 0.16615084
0.54178576 0.52424258 0.16749418
0.55553588 0.52638153 0.16889286
0.56889214 0.52859564 0.17034612
0.58187146 0.53088269 0.17185310
0.59449033 0.53324034 0.17341293
0.60676468 0.53566623 0.17502472
0.61870981 0.53815793 0.17668752
0.63034035 0.54071298 0.17840039
0.64167025 0.54332889 0.18016235
0.65271277 0.54600315 0.18197242
0.66348052 0.54873323 0.18382961
0.32718329 0.52181860 0.15843677
0.33160891 0.52217048 0.15867637
0.33597623 0.52252167 0.15891561
0.34032407 0.52287516 0.15915652
0.34539465 0.52329225 0.15944093
0.35131434 0.52378573 0.15977762
0.35806768 0.52435725 0.16016783
0.36563222 0.52500811 0.16061257
0.37398003 0.52573932 0.16111268
0.38307919 0.52655163 0.16166884
0.39289499 0.52744554 0.16228157
0.40339112 0.52842131 0.16295127
0.41453056 0.52947900 0.16367820
0.42627640 0.53061844 0.16446253
0.43859237 0.53183930 0.16530428
0.45144336 0.53314105 0.16620342
0.46479570 0.53452300 0.16715978
0.47861739 0.53598429 0.16817314
0.49287825 0.53752391 0.16924317
0.50744960 0.53914073 0.17036947
0.52174033 0.54083348 0.17155160
0.53566280 0.54260075 0.17278901
0.54922453 0.54444104 0.17408112
0.56243460 0.54635277 0.17542730
0.57530318 0.54833422 0.17682686
0.58784110 0.55038363 0.17827907
0.60005952 0.55249914 0.17978316
0.61196977 0.55467886 0.18133833
0.62358312 0.55692082 0.18294376
0.63491069 0.55922302 0.18459858
0.64596336 0.56158340 0.18630194
