BT601_NTSC_to_BT601_NTSC-J.cube
TITLE "BT601_NTSC_to_BT601_NTSC-J_v3"
LUT_3D_SIZE 9
# BT601 NTSC SMPTE C (1987) standard (smpte170m) to BT601 NTSC-J Japan (1953) by Francesco Bucciantini
0.00000000 0.00000000 0.00000000
0.08595685 0.00464878 0.00209921
0.18916938 0.01245343 0.00562350
0.29238191 0.02458895 0.01110344
0.39559444 0.04136429 0.01867854
0.49880697 0.06302902 0.02846151
0.60201950 0.08980541 0.04054778
0.70523203 0.11760361 0.05502062
0.80844456 0.14540181 0.07195418
0.03957336 0.12560945 0.00556606
0.12038635 0.12913312 0.00766528
0.21052921 0.13490373 0.01118956
0.30739095 0.14354581 0.01666950
0.40697413 0.15490632 0.02424460
0.50787658 0.16871727 0.03402757
0.60950523 0.18466121 0.04611385
0.71157169 0.20241803 0.06058668
0.81392056 0.22169252 0.07752024
0.10445146 0.25094954 0.01491069
0.16665796 0.25301117 0.01700991
0.24281176 0.25643955 0.02053419
0.33116807 0.26169150 0.02601413
0.42540547 0.26880114 0.03358924
0.52274137 0.27774163 0.04337220
0.62185981 0.28844109 0.05545848
0.72208089 0.30079615 0.06993132
0.82302476 0.31468392 0.08700814
0.17732089 0.37628964 0.02944074
0.22350348 0.37771027 0.03153996
0.28666201 0.38008374 0.03506424
0.36523718 0.38374599 0.04054418
0.45258634 0.38875321 0.04811928
0.54502815 0.39512835 0.05790225
0.64057170 0.40286823 0.06998853
0.73810271 0.41194866 0.08467422
0.83696664 0.42232867 0.10041570
0.25019033 0.50162973 0.04952611
0.28618485 0.50269772 0.05162533
0.33875942 0.50448552 0.05514961
0.40782780 0.50725261 0.06062955
0.48766260 0.51105242 0.06820466
0.57436660 0.51591734 0.07798763
0.66552289 0.52186345 0.09006955
0.75965188 0.52889336 0.10318167
0.85583103 0.53699829 0.11731154
0.32305976 0.62696983 0.07546564
0.35218881 0.62781730 0.07756485
0.39649454 0.62923737 0.08133718
0.45707969 0.63143875 0.08672284
0.52948322 0.63446851 0.09386753
0.61008802 0.63835885 0.10264159
0.69634377 0.64313075 0.11287551
0.78654009 0.64879603 0.12438614
0.87953957 0.65535865 0.13699467
0.39592919 0.75230992 0.10574266
0.42019256 0.75300763 0.10753205
0.45807030 0.75417743 0.11049429
0.51139131 0.75599246 0.11500120
0.57686461 0.75849372 0.12104661
0.65138978 0.76171087 0.12856582
0.73251343 0.76566528 0.13745540
0.81843977 0.77037164 0.14759016
0.90789398 0.77583896 0.15883664
0.46879863 0.87765002 0.13588734
0.48946806 0.87823998 0.13740231
0.52230208 0.87922947 0.13991937
0.56950955 0.88076561 0.14377003
0.62873742 0.88288424 0.14897314
0.69745447 0.88561213 0.15550150
0.77344202 0.88896957 0.16329454
0.85493885 0.89297171 0.17226921
0.94061292 0.89762940 0.18232939
0.54166806 1.00000000 0.16603202
0.55959227 1.00000000 0.16734033
0.58841183 1.00000000 0.16951932
0.63049746 1.00000000 0.17286514
0.68420248 1.00000000 0.17740896
0.74752224 1.00000000 0.18314540
0.81853185 1.00000000 0.19004132
0.89558620 1.00000000 0.19804309
0.97736427 1.00000000 0.20708303
0.00593342 0.00000000 0.11901715
0.09160832 0.00000000 0.12067544
0.19249435 0.00700957 0.12342557
0.29467695 0.01914509 0.12762106
0.39732100 0.03592042 0.13326892
0.50017752 0.05758515 0.14032351
0.60314809 0.08456581 0.14870264
0.70618646 0.11319394 0.15830145
0.80926818 0.14160849 0.16900408
0.04550678 0.12139526 0.12338108
0.12500000 0.12500000 0.12500000
0.21357906 0.13089733 0.12768624
0.30958345 0.13971635 0.13178746
0.40865352 0.15128866 0.13731422
0.50922220 0.16532970 0.14422617
0.61061929 0.18150787 0.15244725
0.71251701 0.19949276 0.16187868
0.81473814 0.21898277 0.17240996
0.10949899 0.24851628 0.13048092
0.17032541 0.25059545 0.13203930
0.24551654 0.25405250 0.13462709
0.33321416 0.25934717 0.13858267
0.42701325 0.26651247 0.14392160
0.52404786 0.27551960 0.15061137
0.62295061 0.28629429 0.15858506
0.72301146 0.29873064 0.16775310
0.82383250 0.31270330 0.17801334
0.18081855 0.37461941 0.14101573
0.22640555 0.37604615 0.14249150
0.28899844 0.37842973 0.14494461
0.36710212 0.38210736 0.14870019
0.45409812 0.38713519 0.15377985
0.54627972 0.39353590 0.16016097
0.64162892 0.40130585 0.16778858
0.73901158 0.41042026 0.17658540
0.83775971 0.42083751 0.18646076
0.25282599 0.50037613 0.15470957
0.28852480 0.50144684 0.15608917
0.34076245 0.50323919 0.15838504
0.40950375 0.50601324 0.16190600
0.48906495 0.50982249 0.16667959
0.57555198 0.51469932 0.17269358
0.66653816 0.52065971 0.17990593
0.76053299 0.52770611 0.18825321
0.85660501 0.53582954 0.19765803
0.32515374 0.62597588 0.17115885
0.35411957 0.62682476 0.17243705
0.39821728 0.62824720 0.17456656
0.45857660 0.63045224 0.17783809
0.53077265 0.63348698 0.18228411
0.61120096 0.63738365 0.18790193
0.69731123 0.64216323 0.19466197
0.78738865 0.64783747 0.20251459
0.88029071 0.65441029 0.21139617
0.39765433 0.75149199 0.18992738
0.42182002 0.75219052 0.19110530
0.45956397 0.75336168 0.19306983
0.51272748 0.75517884 0.19609281
0.57804465 0.75768300 0.20021029
0.65242843 0.76090385 0.20542753
0.73342977 0.76486278 0.21172594
0.81925244 0.76957445 0.21906854
0.90861938 0.77504786 0.22740478
0.47025797 0.87695860 0.21060504
0.49086517 0.87754907 0.21168792
0.52360970 0.87853942 0.21349562
0.57070544 0.88007688 0.21628132
0.62981566 0.88219732 0.22008326
0.69842028 0.88492754 0.22491288
0.77430615 0.88828782 0.23076068
0.85571371 0.89229333 0.23760057
0.94131053 0.89695489 0.24539372
0.54292764 1.00000000 0.23283533
0.56081017 1.00000000 0.23383053
0.58956774 1.00000000 0.23549318
0.63157252 1.00000000 0.23805858
0.68518828 1.00000000 0.24156600
0.74841878 1.00000000 0.24603141
0.81934442 1.00000000 0.25145246
0.89632257 1.00000000 0.25781203
0.97803290 1.00000000 0.26508130
0.01589479 0.00000000 0.24067851
0.10066113 0.00000000 0.24164578
0.19797457 0.00000000 0.24326218
0.29849364 0.01000561 0.24575716
0.40020325 0.02678094 0.24917015
0.50246991 0.04844567 0.25351829
0.60503787 0.07521115 0.25880128
0.70778570 0.10552776 0.26500462
0.81064886 0.13507025 0.27210247
0.05546815 0.11408983 0.24323591
0.13249471 0.11784332 0.24419438
0.21861908 0.12397224 0.24579619
0.31323234 0.13311272 0.24826896
0.41145781 0.14506706 0.25165212
0.51147316 0.15951996 0.25596319
0.61248484 0.17611416 0.26120246
0.71410105 0.19450126 0.26735623
0.81610875 0.21436891 0.27439961
0.11765251 0.24438369 0.24747766
0.17634889 0.24649328 0.24842185
0.25000000 0.25000000 0.25000000
0.33662289 0.25536865 0.25243669
0.42969906 0.26263021 0.25577140
0.52623379 0.27175246 0.26002218
0.62477740 0.28265689 0.26519028
0.72457087 0.29523314 0.27126331
0.82518664 0.30935167 0.27821782
0.18657338 0.37179903 0.25394992
0.23120782 0.37323619 0.25487305
0.29288276 0.37563702 0.25641628
0.37021273 0.37934088 0.25879972
0.45662490 0.38440387 0.26206282
0.54837429 0.39084816 0.26622439
0.64339972 0.39866935 0.27128707
0.74053475 0.40784162 0.27724027
0.83908933 0.41832223 0.28406267
0.25719744 0.49826428 0.26266487
0.29241486 0.49933961 0.26356097
0.34410041 0.50113964 0.26505932
0.41230234 0.50392550 0.26737427
0.49141016 0.50775077 0.27054518
0.57753636 0.51264778 0.27459172
0.66823897 0.51863235 0.27951818
0.76200977 0.52570667 0.28531621
0.85790269 0.53386144 0.29196713
0.32864109 0.62430342 0.27355368
0.35733862 0.62515470 0.27441795
0.40109322 0.62658114 0.27586347
0.46107872 0.62879235 0.27809768
0.53293018 0.63183551 0.28115972
0.61306465 0.63574289 0.28507018
0.69893223 0.64053541 0.28983512
0.78881102 0.64622480 0.29544869
0.88155019 0.65281484 0.30189516
0.40053423 0.75011663 0.28649114
0.42453841 0.75081655 0.28732018
0.46206071 0.75199002 0.28870715
0.51496275 0.75381075 0.29085180
0.58002014 0.75631980 0.29379288
0.65416825 0.75954691 0.29755182
0.73496541 0.76351344 0.30213645
0.82061482 0.76823407 0.30754348
0.90983577 0.77371775 0.31376030
0.47269778 0.87579645 0.30131687
0.49320167 0.87638778 0.30210863
0.52579750 0.87737957 0.30343359
0.57270734 0.87891926 0.30548325
0.63162150 0.88104277 0.30829585
0.70003854 0.88377690 0.31189345
0.77575456 0.88714197 0.31628560
0.85701288 0.89115314 0.32147145
0.94248043 0.89582124 0.32744147
0.54503554 1.00000000 0.31785311
0.56284869 1.00000000 0.31860672
0.59150302 1.00000000 0.31986821
0.63337307 1.00000000 0.32182053
0.68683989 1.00000000 0.32450120
0.74992135 1.00000000 0.32793280
0.82070664 1.00000000 0.33212634
0.89755734 1.00000000 0.33708324
0.97915429 1.00000000 0.34279689
0.03138381 0.00000000 0.36233987
0.11381646 0.00000000 0.36300579
0.20625835 0.00000000 0.36412114
0.30434082 0.00000000 0.36584892
0.40464491 0.01256988 0.36822444
0.50601329 0.03423461 0.37127066
0.60796404 0.06100009 0.37500111
0.71026470 0.09285622 0.37942149
0.81279062 0.12443573 0.38453088
0.07095718 0.10208007 0.36410299
0.14359204 0.10610351 0.36476581
0.22626722 0.11264946 0.36587601
0.31882888 0.12236256 0.36759585
0.41578120 0.13498852 0.36996057
0.51495319 0.15015533 0.37299311
0.61537379 0.16746087 0.37670707
0.71655662 0.18652705 0.38110828
0.81823494 0.20702516 0.38619600
0.12963323 0.23783435 0.36704470
0.18540729 0.23999383 0.36770243
0.25683478 0.24358195 0.36880411
0.34185932 0.24907165 0.37051086
0.43384244 0.25649040 0.37285774
0.52961427 0.26580017 0.37586771
0.62760676 0.27691536 0.37955444
0.72698846 0.28971825 0.38392399
0.82728740 0.30407237 0.38897589
0.19525012 0.36737212 0.37157425
0.23850979 0.36882591 0.37222426
0.29883074 0.37125427 0.37331307
0.37500000 0.37500000 0.37500000
0.46052614 0.38011905 0.37731989
0.55161480 0.38663280 0.38029567
0.64614293 0.39453557 0.38394117
0.74289646 0.40379992 0.38826273
0.84115219 0.41438124 0.39326033
0.26386728 0.49496229 0.37774922
0.29837138 0.49604491 0.37838897
0.34923042 0.49785710 0.37946066
0.41661709 0.50066159 0.38112124
0.49503429 0.50451215 0.38340523
0.58060785 0.50944101 0.38633550
0.67087444 0.51546373 0.38992608
0.76429989 0.52258210 0.39418370
0.85991621 0.53078627 0.39910887
0.33399560 0.62169346 0.38558217
0.36228952 0.62254851 0.38620931
0.40552532 0.62398124 0.38725998
0.46494237 0.62620213 0.38888819
0.53626719 0.62925853 0.39112805
0.61595074 0.63318271 0.39400235
0.70144478 0.63799558 0.39752534
0.79101717 0.64370873 0.40170420
0.88350465 0.65032580 0.40654008
0.40497233 0.74797265 0.39505060
0.42873132 0.74867473 0.39566311
0.46591616 0.74985182 0.39668935
0.51841877 0.75167814 0.39827991
0.58307797 0.75419486 0.40046843
0.65686379 0.75743175 0.40327758
0.73734634 0.76141020 0.40672183
0.82272832 0.76614485 0.41080883
0.91172361 0.77164461 0.41554045
0.47646638 0.87398605 0.40610468
0.49681250 0.87457873 0.40670087
0.52918085 0.87557276 0.40769986
0.57580569 0.87711594 0.40924843
0.63441863 0.87924423 0.41137962
0.70254685 0.88198449 0.41411599
0.77800091 0.88535705 0.41747218
0.85902868 0.88937707 0.42145634
0.94429634 0.89405536 0.42607108
0.54829648 0.99983056 0.41867403
0.56600325 1.00000000 0.41925259
0.59449911 1.00000000 0.42022215
0.63616207 1.00000000 0.42172535
0.68939960 1.00000000 0.42379457
0.75225128 1.00000000 0.42645218
0.82281988 1.00000000 0.42971298
0.89947358 1.00000000 0.43358561
0.98089513 1.00000000 0.43807343
0.05279481 0.00000000 0.48400123
0.13051268 0.00000000 0.48450165
0.21727612 0.00000000 0.48534062
0.31225696 0.00000000 0.48664221
0.41070707 0.00000000 0.48843566
0.51087007 0.01459019 0.49074196
0.61198477 0.04135566 0.49357614
0.71367631 0.07340627 0.49694830
0.81574116 0.10862624 0.50086444
0.09222168 0.08386896 0.48532695
0.15798105 0.08837475 0.48582599
0.23649100 0.09565503 0.48666264
0.32641758 0.10635622 0.48796066
0.42168550 0.12011361 0.48974919
0.51972441 0.13645355 0.49204924
0.61934393 0.15490064 0.49487580
0.71993623 0.17503363 0.49823900
0.82116416 0.19650404 0.50214487
0.14502959 0.22851605 0.48754444
0.19737708 0.23075029 0.48804117
0.26602661 0.23446023 0.48887397
0.34897505 0.24013064 0.49016604
0.43950595 0.24778335 0.49194642
0.53425095 0.25737116 0.49423607
0.63149584 0.26879753 0.49704996
0.73031621 0.28193354 0.50039826
0.83018180 0.29663234 0.50428707
0.20675301 0.36116672 0.49097221
0.24829651 0.36264442 0.49146542
0.30687816 0.36511235 0.49229233
0.38152189 0.36891821 0.49357529
0.46586484 0.37411770 0.49534321
0.55606204 0.38073105 0.49761694
0.64991476 0.38875065 0.50041145
0.74614785 0.39814667 0.50373697
0.84399468 0.40887180 0.50759964
0.27284772 0.49036055 0.49567083
0.30642993 0.49145349 0.49615929
0.35620584 0.49328285 0.49697825
0.42250984 0.49611371 0.49824892
0.50000000 0.50000000 0.50000000
0.58482594 0.50497386 0.50225223
0.67449950 0.51105047 0.50502057
0.76745343 0.51823102 0.50831529
0.86269109 0.52650490 0.51214265
0.34126672 0.61806650 0.50167261
0.36902824 0.61892683 0.50215512
0.41157472 0.62036838 0.50296411
0.47023055 0.62260287 0.50421940
0.54084507 0.62567782 0.50594938
0.61991698 0.62962557 0.50817468
0.70490217 0.63446696 0.51091022
0.79405584 0.64021343 0.51416632
0.88619857 0.64686838 0.51794940
0.41102974 0.74499799 0.50898771
0.43446115 0.74570309 0.50946314
0.47119331 0.74688524 0.51026029
0.52315756 0.74871937 0.51149727
0.58727752 0.75124680 0.51320216
0.66057070 0.75449735 0.51539541
0.74062401 0.75849244 0.51809190
0.82564017 0.76324667 0.52130201
0.91432615 0.76876886 0.52503232
0.48162670 0.87147667 0.51760814
0.50176026 0.87207122 0.51807546
0.53382141 0.87306839 0.51885906
0.58006024 0.87461642 0.52007508
0.63826386 0.87675137 0.52175122
0.70599846 0.87950016 0.52390776
0.78109458 0.88288315 0.52655949
0.86180669 0.88691550 0.52971687
0.94680019 0.89160800 0.53338664
0.55277139 0.99766863 0.52751085
0.57033403 0.99818072 0.52796917
0.59861485 0.99903978 0.52873770
0.63999622 1.00000000 0.52993042
0.69292134 1.00000000 0.53157462
0.75545923 1.00000000 0.53369031
0.82573137 1.00000000 0.53629225
0.90211509 1.00000000 0.53939093
0.98329591 1.00000000 0.54299328
0.08044632 0.00000000 0.60566258
0.15009454 0.00000000 0.60605960
0.23084610 0.00000000 0.60672553
0.32221274 0.00000000 0.60775947
0.41840809 0.00000000 0.60918568
0.51707332 0.00000000 0.61102239
0.61713664 0.01598561 0.61328356
0.71805654 0.04803622 0.61597973
0.81953455 0.08572237 0.61911861
0.11613728 0.05827064 0.60671469
0.17522052 0.06291942 0.60711099
0.24915631 0.07072407 0.60777570
0.33597983 0.08309848 0.60880777
0.42919168 0.09885056 0.61023140
0.52582052 0.11716674 0.61206482
0.62443187 0.13745898 0.61432194
0.72427581 0.15925593 0.61701334
0.82493037 0.18219828 0.62014671
0.16330906 0.21597971 0.60847672
0.21201200 0.21832224 0.60887182
0.27749451 0.22220818 0.60953452
0.35796524 0.22813881 0.61056345
0.44671417 0.23612682 0.61198279
0.54017836 0.24611086 0.61381071
0.63648131 0.25797794 0.61606110
0.73458988 0.27158260 0.61874453
0.83390358 0.28676306 0.62186871
0.22086840 0.35299806 0.61120592
0.26045759 0.35450835 0.61159916
0.31699110 0.35703017 0.61225876
0.38978788 0.36091786 0.61328289
0.47266964 0.36622672 0.61469562
0.56175146 0.37297526 0.61651507
0.65475186 0.38115320 0.61875511
0.75032441 0.39072733 0.62142628
0.84765022 0.40164661 0.62453633
0.28406744 0.48435179 0.61495761
0.31655617 0.48545848 0.61534833
0.36502550 0.48731072 0.61600370
0.43000175 0.49017666 0.61702129
0.50633953 0.49411052 0.61842503
0.59022683 0.49914425 0.62023296
0.67915062 0.50529251 0.62245891
0.77150548 0.51255567 0.62511340
0.86626032 0.52092210 0.62820419
0.35044533 0.61334897 0.61976742
0.37755941 0.61421626 0.62015494
0.41926001 0.61566943 0.62080497
0.47697245 0.61792182 0.62181428
0.54669865 0.62102122 0.62320665
0.62500000 0.62500000 0.62500000
0.70934054 0.62987894 0.62720811
0.79796158 0.63566927 0.62984148
0.88966440 0.64237406 0.63290790
0.41872490 0.74113726 0.62565586
0.44175154 0.74184632 0.62603954
0.47792148 0.74303509 0.62668313
0.52921302 0.74487945 0.62768248
0.59265504 0.74742089 0.62906114
0.66532556 0.75068933 0.63083693
0.74483400 0.75470620 0.63302355
0.82938420 0.75948605 0.63563147
0.91767520 0.76503762 0.63866851
0.48820925 0.86822411 0.63263099
0.50807736 0.86882111 0.63301021
0.53975368 0.86982237 0.63364632
0.58550709 0.87137672 0.63463409
0.64319387 0.87352037 0.63599683
0.71042949 0.87628029 0.63775222
0.78507038 0.87967689 0.63991386
0.86537992 0.88372531 0.64249221
0.95002301 0.88843634 0.64549509
0.55849560 0.99486885 0.64069024
0.57587690 0.99538254 0.64106441
0.60388665 0.99624428 0.64169209
0.64491221 0.99758256 0.64266677
0.69744141 0.99942924 0.64401154
0.75958054 1.00000000 0.64574387
0.82947496 1.00000000 0.64787728
0.90551395 1.00000000 0.65042220
0.98638684 1.00000000 0.65338646
0.11171671 0.00000000 0.72732394
0.17195187 0.00000000 0.72765077
0.24672219 0.00000000 0.72819911
0.33412872 0.00000000 0.72905085
0.42773296 0.00000000 0.73022648
0.52463320 0.00000000 0.73174176
0.62343957 0.00000000 0.73360913
0.72342873 0.01669304 0.73583853
0.82419478 0.05419300 0.73843778
0.14180558 0.02692746 0.72819018
0.19484198 0.03157624 0.72851659
0.26406523 0.03938089 0.72906423
0.34744978 0.05151641 0.72991488
0.43828880 0.06829175 0.73108902
0.53325295 0.08995860 0.73260237
0.63065794 0.11345683 0.73446739
0.72959880 0.13796671 0.73669400
0.82955754 0.16319174 0.73929000
0.18393839 0.19959520 0.72964198
0.22900482 0.20209436 0.72996769
0.29109810 0.20623401 0.73051416
0.36878199 0.21253780 0.73136300
0.45546189 0.22100331 0.73253464
0.54740980 0.23154698 0.73404478
0.64258409 0.24403081 0.73590587
0.73983305 0.25828508 0.73812780
0.83847671 0.27412684 0.74071839
0.23731939 0.34265004 0.73189324
0.27482030 0.34420352 0.73221787
0.32908445 0.34679673 0.73276254
0.39976984 0.35079271 0.73360858
0.48094223 0.35624607 0.73477636
0.56869877 0.36317290 0.73628155
0.66067591 0.37155916 0.73813657
0.75544990 0.38136704 0.74035128
0.85214275 0.39254043 0.74293352
0.29739698 0.47682222 0.73499302
0.32866450 0.47794659 0.73531618
0.37564646 0.47982824 0.73585837
0.43908217 0.48273928 0.73670058
0.51406129 0.48673424 0.73786309
0.59682871 0.49184481 0.73936152
0.68485030 0.49808496 0.74120822
0.77647992 0.50545398 0.74341308
0.87064774 0.51393886 0.74598389
0.36147784 0.60746749 0.73897555
0.38784804 0.60834361 0.73929683
0.42856651 0.60981150 0.73983588
0.48517074 0.61208658 0.74067322
0.55384203 0.61521694 0.74182902
0.63122016 0.61923503 0.74331883
0.71478310 0.62416152 0.74515497
0.80275836 0.63000736 0.74734726
0.89392583 0.63677520 0.74990352
0.42804293 0.73633740 0.74386400
0.45059573 0.73705144 0.74418301
0.48610355 0.73824853 0.74471825
0.53659705 0.74010576 0.74554968
0.59922890 0.74266482 0.74669734
0.67115045 0.74595576 0.74817670
0.75000000 0.75000000 0.75000000
0.83398440 0.75481205 0.75217706
0.92179422 0.76040052 0.75471566
0.49621910 0.86418722 0.74967253
0.51577249 0.86478727 0.74998887
0.54699093 0.86579365 0.75051964
0.59216405 0.86735593 0.75134414
0.64922986 0.86951046 0.75248227
0.71586316 0.87228431 0.75394937
0.78995227 0.87569792 0.75575764
0.86977222 0.87976647 0.75791684
0.95398799 0.88450067 0.76043474
0.56548449 0.99139775 0.75640754
0.58264887 0.99191343 0.75672084
0.61033365 0.99277852 0.75724652
0.65093132 0.99412199 0.75806312
0.70298276 0.99597581 0.75919036
0.76463901 0.99836427 0.76064349
0.83407462 1.00000000 0.76243460
0.90969372 1.00000000 0.76457342
0.99019070 1.00000000 0.76706770
0.14274096 0.00000000 0.84898530
0.19557598 0.00000000 0.84926164
0.26463233 0.00000000 0.84972534
0.34789041 0.00000000 0.85044582
0.43864024 0.00000000 0.85144066
0.53354102 0.00000000 0.85272358
0.63089976 0.00000000 0.85430564
0.72980582 0.00000000 0.85619587
0.82973766 0.01666077 0.85840171
0.16870513 0.00000000 0.84971779
0.21641116 0.00000000 0.84999387
0.28098778 0.00184867 0.85045714
0.36072753 0.01398419 0.85117694
0.44894044 0.03075952 0.85217084
0.54201483 0.05242425 0.85345256
0.63802903 0.07918972 0.85503314
0.73591839 0.10890747 0.85692162
0.83506158 0.13794358 0.85912541
0.20644602 0.17840035 0.85094599
0.24803383 0.18113238 0.85122163
0.30666108 0.18564722 0.85168417
0.38134530 0.19249847 0.85240283
0.46571993 0.20165713 0.85339517
0.55594114 0.21300313 0.85467488
0.64981211 0.22635928 0.85625299
0.74605930 0.24151958 0.85813853
0.84391723 0.25827107 0.86033891
0.25580844 0.32985492 0.85285188
0.29117760 0.33146500 0.85312684
0.34303768 0.33415167 0.85358825
0.41141057 0.33828920 0.85430516
0.49066239 0.34393108 0.85529509
0.57690337 0.35108990 0.85657169
0.66769627 0.35974644 0.85814597
0.76153845 0.36985656 0.86002697
0.85748847 0.38135729 0.86222206
0.31267074 0.46764446 0.85547880
0.34263389 0.46879107 0.85575284
0.38799433 0.47070974 0.85621270
0.44971503 0.47367750 0.85692721
0.52315419 0.47774925 0.85791382
0.60463483 0.48295634 0.85918615
0.69160949 0.48931178 0.86075520
0.78239155 0.49681347 0.86262996
0.87586979 0.50544661 0.86481781
0.37427788 0.60034495 0.85885835
0.39982891 0.60123196 0.85913121
0.43945321 0.60271805 0.85958909
0.49480653 0.60502118 0.86030052
0.56227221 0.60818978 0.86128290
0.63858439 0.61225642 0.86254979
0.72124237 0.61724160 0.86411215
0.80846160 0.62315591 0.86597894
0.89899949 0.63000150 0.86815754
0.43894255 0.73054504 0.86301356
0.46096261 0.73126517 0.86328499
0.49572090 0.73247245 0.86374045
0.54530347 0.73434542 0.86444814
0.60700264 0.73692605 0.86542536
0.67805544 0.74024449 0.86668561
0.75613598 0.74432222 0.86823980
0.83945675 0.74917365 0.87009689
0.92670002 0.75480723 0.87226421
0.50564054 0.85932583 0.86796059
0.52483496 0.85992960 0.86823031
0.55552893 0.86094221 0.86868294
0.60003381 0.86251413 0.86938622
0.65638033 0.86468189 0.87035735
0.72231206 0.86747268 0.87160978
0.79575537 0.87090700 0.87315436
0.87500000 0.87500000 0.87500000
0.95871201 0.87976238 0.87715403
0.57373696 0.98722339 0.87370974
0.59065138 0.98774149 0.87397751
0.61796067 0.98861064 0.87442688
0.65806217 0.98996040 0.87512509
0.70955733 0.99182286 0.87608924
0.77064909 0.99422242 0.87733269
0.83954632 0.99717807 0.87886624
0.91467115 1.00000000 0.88069873
0.99472443 1.00000000 0.88283749
0.17376521 0.00000000 0.97064666
0.22056662 0.00000000 0.97088509
0.28430614 0.00000000 0.97128524
0.36336144 0.00000000 0.97190707
0.45106818 0.00000000 0.97276592
0.54377252 0.00000000 0.97387385
0.63951172 0.00000000 0.97524071
0.73719185 0.00000000 0.97687468
0.83617207 0.00000000 0.97878261
0.19648530 0.00000000 0.97127872
0.23955502 0.00000000 0.97151698
0.29968617 0.00000000 0.97191684
0.37569084 0.00000000 0.97253822
0.46109036 0.00000000 0.97339646
0.55208411 0.00851067 0.97450359
0.64654058 0.03527615 0.97586947
0.74323902 0.06732675 0.97750227
0.84145153 0.10342514 0.97940885
0.23044250 0.15076812 0.97233883
0.26879302 0.15386913 0.97257681
0.32399062 0.15897326 0.97297618
0.39555281 0.16667313 0.97359682
0.47744015 0.17688811 0.97445402
0.56575368 0.18943295 0.97555982
0.65816227 0.20406543 0.97692406
0.75327372 0.22052375 0.97855491
0.85023445 0.23855234 0.98045922
0.27604647 0.31426539 0.97398468
0.30931051 0.31594968 0.97422220
0.35870871 0.31875873 0.97462083
0.42463131 0.32308126 0.97524030
0.50179221 0.32896884 0.97609590
0.58635101 0.33642899 0.97719965
0.67581178 0.34543517 0.97856135
0.76859602 0.35593453 0.98018918
0.86369710 0.36785483 0.98208997
0.32970526 0.45667014 0.97625471
0.35832177 0.45784443 0.97649162
0.40197249 0.45980912 0.97688923
0.46184449 0.46284737 0.97750710
0.53359105 0.46701447 0.97836050
0.61363587 0.47234127 0.97946142
0.69942930 0.47883955 0.98081964
0.78924734 0.48650533 0.98244331
0.88193664 0.49532157 0.98433927
0.38873665 0.59189719 0.97917774
0.41341484 0.59279746 0.97941387
0.45185879 0.59430567 0.97981015
0.50584342 0.59664287 0.98042599
0.57197190 0.59985795 0.98127657
0.64708821 0.60398354 0.98237386
0.72872181 0.60903994 0.98372761
0.81507939 0.61503732 0.98534596
0.90489606 0.62197715 0.98723573
0.45136217 0.72370446 0.98277565
0.47280186 0.72443190 0.98301082
0.50673747 0.72565142 0.98340549
0.55531104 0.72754330 0.98401883
0.61596731 0.73014981 0.98486597
0.68604042 0.73350129 0.98595882
0.76324758 0.73761920 0.98730712
0.84581041 0.74251787 0.98891896
0.93240375 0.74820555 0.99080116
0.51644094 0.85359935 0.98706485
0.53523809 0.85420756 0.98729888
0.56534890 0.85522759 0.98769166
0.60910629 0.85681100 0.98830204
0.66464290 0.85899454 0.98914510
0.72977972 0.86180553 0.99023271
0.80248726 0.86526452 0.99157455
0.88107342 0.86938668 0.99317871
0.96420670 0.87418264 0.99505196
0.58323814 0.98231426 0.99205717
0.59987274 0.98283524 0.99228990
0.62676043 0.98370920 0.99268048
0.66630258 0.98506642 0.99328746
0.71716774 0.98693914 0.99412583
0.77761719 0.98935187 0.99520739
0.84589925 0.99232364 0.99654179
0.92045720 0.99586927 0.99813707
1.00000000 1.00000000 1.00000000
