BT601_NTSC_to_BT2020.cube
TITLE "BT601_NTSC_to_BT2020"
LUT_3D_SIZE 9
# BT601 NTSC SDR to BT2020 SDR by Francesco Bucciantini
0.00000000 0.00000000 0.00000000
0.07814761 0.01066603 0.00203653
0.17711403 0.02857278 0.00545557
0.27611618 0.05641615 0.01077188
0.37511834 0.09432018 0.01812078
0.47412050 0.13472506 0.02761161
0.57312266 0.17512994 0.03933698
0.67212482 0.21553482 0.05337764
0.77112697 0.25593970 0.06980554
0.04585948 0.11347563 0.01075372
0.11908436 0.12199240 0.01279025
0.20288396 0.13545295 0.01620930
0.29431792 0.15468410 0.02152560
0.38895128 0.17865306 0.02887450
0.48515904 0.20629532 0.03836534
0.58224005 0.23670784 0.05009070
0.67984983 0.26919232 0.06413136
0.77780161 0.30323149 0.08055926
0.11816587 0.23221203 0.02880771
0.17209856 0.23724028 0.03084423
0.24095063 0.24548146 0.03426328
0.32275352 0.25783758 0.03957958
0.41115450 0.27410342 0.04692848
0.50313880 0.29390833 0.05641932
0.59722030 0.31680740 0.06814468
0.69261260 0.34234748 0.08217970
0.78886986 0.37010729 0.09768876
0.19605480 0.35094843 0.05688000
0.23560636 0.35442288 0.05891653
0.29149140 0.36018396 0.06233557
0.36281691 0.36897053 0.06765188
0.44350502 0.38079461 0.07500078
0.52986026 0.39555752 0.08445397
0.61976074 0.41308411 0.09552015
0.71197257 0.43315220 0.10783548
0.80575264 0.45551719 0.12119450
0.27394372 0.46968483 0.09503494
0.30456583 0.47229985 0.09688543
0.35040222 0.47665751 0.09994506
0.41205241 0.48335435 0.10459157
0.48468318 0.49245959 0.11080917
0.56466141 0.50397118 0.11852065
0.64956634 0.51783249 0.12760967
0.73783971 0.53394582 0.13793945
0.82847533 0.55218447 0.14936739
0.35183264 0.58842123 0.13558898
0.37651918 0.59049753 0.13705975
0.41476570 0.59396626 0.13950413
0.46813523 0.59931808 0.14324530
0.53311442 0.60663460 0.14830358
0.60654945 0.61594865 0.15465499
0.68603644 0.62725477 0.16224320
0.76986596 0.64051668 0.17098983
0.85685088 0.65567361 0.18080337
0.42972157 0.70715763 0.17614301
0.45023610 0.70886760 0.17735500
0.48271540 0.71172849 0.17937530
0.52921875 0.71615257 0.18248158
0.58730845 0.72222026 0.18670782
0.65443600 0.72997632 0.19205543
0.72841572 0.73943772 0.19850081
0.80754272 0.75059848 0.20600132
0.89054531 0.76343356 0.21450067
0.50761049 0.82589403 0.21669705
0.52505966 0.82734023 0.21772246
0.55308385 0.82976201 0.21943492
0.59394733 0.83351241 0.22207553
0.64600635 0.83866656 0.22568265
0.70728632 0.84527218 0.23026993
0.77590915 0.85335586 0.23583165
0.85028199 0.86292678 0.24234663
0.92913391 0.87397931 0.24978156
0.58549941 0.94463043 0.25725109
0.60061533 0.94587849 0.25813622
0.62513226 0.94796971 0.25961624
0.66135643 0.95121127 0.26190282
0.70820684 0.95567216 0.26503482
0.76419240 0.96139935 0.26903163
0.82775710 0.96842317 0.27389741
0.89747839 0.97676032 0.27962386
0.97214827 0.98641584 0.28619245
0.00727734 0.00357790 0.11466082
0.08536464 0.01424393 0.11630785
0.18139736 0.03215068 0.11903892
0.27907619 0.05999405 0.12320441
0.37734626 0.09757153 0.12881026
0.47588948 0.13731311 0.13580992
0.57457955 0.17726446 0.14412060
0.67335699 0.21734171 0.15363720
0.77219033 0.25749996 0.16424389
0.05313682 0.11637843 0.12319035
0.12476115 0.12476115 0.12476115
0.20673162 0.13803130 0.12736844
0.29711284 0.15702839 0.13135126
0.39110268 0.18075483 0.13672225
0.48688740 0.20816876 0.14344511
0.58367321 0.23837734 0.15144887
0.68106711 0.27068458 0.16064010
0.77885509 0.30457159 0.17091345
0.12387115 0.23390909 0.13667410
0.17647714 0.23890657 0.13813667
0.24428484 0.24709946 0.14056766
0.32532163 0.25938776 0.14428890
0.41319260 0.27557183 0.14932131
0.50480453 0.29528722 0.15564183
0.59861596 0.31809444 0.16319530
0.69380598 0.34354442 0.17190455
0.78990734 0.37121853 0.18167922
0.20000989 0.35211757 0.15594377
0.23900500 0.35558112 0.15727334
0.29431085 0.36132453 0.15948676
0.36511713 0.37008506 0.16288318
0.44539624 0.38187577 0.16749147
0.53144018 0.39659948 0.17330269
0.62110323 0.41408277 0.18027940
0.71313129 0.43410515 0.18836342
0.80676655 0.45642349 0.19748274
0.27692462 0.47056367 0.17996764
0.30727497 0.47317378 0.18115947
0.35277984 0.47752339 0.18314658
0.41408616 0.48420810 0.18620285
0.48641326 0.49329733 0.19036294
0.56614097 0.50478946 0.19562984
0.65084394 0.51862839 0.20198211
0.73895489 0.53471707 0.20937966
0.82945901 0.55292945 0.21776881
0.35420111 0.58911857 0.20768040
0.37873913 0.59119231 0.20874261
0.41678639 0.59465680 0.21051590
0.46992697 0.60000217 0.21324882
0.53468444 0.60731005 0.21697922
0.60792265 0.61661337 0.22171875
0.68724203 0.62790688 0.22745858
0.77093119 0.64115454 0.23417366
0.85779904 0.65629587 0.24182641
0.43167294 0.70773173 0.23817708
0.45209915 0.70944021 0.23912354
0.48445261 0.71229864 0.24070530
0.53080064 0.71671895 0.24314707
0.58872872 0.72278153 0.24648778
0.65570354 0.73053118 0.25074467
0.72954642 0.73998495 0.25591799
0.80855418 0.75113695 0.26199416
0.89145421 0.76396226 0.26894853
0.50926128 0.82637946 0.27075708
0.52665440 0.82782474 0.27160299
0.55459548 0.83024498 0.27301788
0.59535103 0.83399300 0.27520494
0.64729140 0.83914393 0.27820273
0.70845327 0.84574547 0.28203173
0.77696541 0.85382425 0.28669830
0.85123817 0.86338949 0.29219717
0.93000134 0.87443561 0.29851345
0.58692426 0.94504929 0.30490100
0.60200274 0.94629674 0.30566060
0.62646262 0.94838694 0.30693196
0.66260992 0.95162693 0.30889922
0.70937217 0.95608567 0.31159969
0.76526619 0.96181014 0.31505547
0.82874171 0.96883066 0.31927684
0.89837958 0.97716396 0.32426429
0.97297337 0.98681509 0.33001008
0.01949497 0.00958469 0.23405860
0.09681385 0.02025072 0.23501934
0.18841410 0.03815747 0.23662473
0.28398296 0.06600084 0.23910251
0.38105827 0.10288717 0.24249155
0.47884449 0.14158192 0.24680852
0.57701684 0.18080341 0.25205265
0.67542024 0.22034720 0.25820906
0.77397200 0.26010082 0.26525161
0.06535445 0.12114723 0.23909409
0.13391515 0.12931770 0.24003743
0.21306157 0.14228464 0.24161401
0.30175171 0.16090626 0.24404789
0.39468886 0.18424069 0.24737800
0.48977517 0.21128299 0.25162172
0.58607105 0.24115773 0.25677949
0.68310555 0.27317346 0.26283804
0.78062028 0.30680929 0.26977302
0.13306784 0.23673469 0.24734791
0.18364292 0.24168170 0.24826396
0.24979527 0.24979527 0.24979527
0.32959094 0.26197203 0.25216014
0.41659217 0.27802140 0.25539752
0.50758850 0.29758902 0.25952577
0.60095144 0.32024436 0.26454717
0.69580459 0.34554508 0.27045083
0.79164581 0.37307697 0.27721520
0.20650996 0.35407212 0.25972468
0.24461882 0.35751758 0.26060238
0.29898958 0.36323165 0.26207007
0.36894788 0.37194896 0.26433783
0.44855341 0.38368424 0.26744446
0.53408182 0.39834280 0.27140957
0.62335023 0.41575407 0.27623778
0.71507211 0.43570035 0.28192136
0.80846565 0.45794098 0.28844251
0.28186521 0.47203540 0.27602048
0.31177425 0.47463734 0.27685195
0.35673753 0.47897351 0.27824285
0.41747856 0.48563799 0.28039320
0.48930386 0.49470054 0.28334143
0.56861594 0.50616019 0.28710837
0.65298290 0.51996179 0.29170109
0.74082306 0.53600932 0.29711540
0.83110761 0.55417783 0.30333769
0.35814379 0.59028738 0.29586558
0.38243804 0.59235683 0.29664642
0.42015726 0.59581424 0.29795312
0.47291963 0.60114882 0.29997455
0.53730964 0.60844224 0.30274842
0.61022076 0.61772764 0.30629653
0.68926098 0.62900008 0.31062828
0.77271601 0.64222392 0.31574289
0.85938829 0.65733915 0.32163097
0.43492946 0.70869444 0.31881542
0.45520977 0.71040044 0.31954431
0.48735502 0.71325474 0.32076452
0.53344554 0.71766873 0.32265329
0.59110513 0.72372277 0.32524731
0.65782573 0.73146171 0.32856899
0.73144048 0.74090269 0.33262971
0.81024920 0.75204002 0.33743168
0.89297784 0.76484898 0.34296944
0.51202047 0.82719374 0.34441668
0.52932062 0.82863746 0.34509459
0.55712374 0.83105512 0.34622986
0.59769988 0.83479917 0.34798812
0.64944276 0.83994471 0.35040481
0.71040780 0.84653942 0.35350257
0.77873525 0.85460999 0.35729426
0.85284080 0.86416570 0.36178463
0.93145563 0.87520108 0.36697154
0.58930828 0.94575204 0.37224749
0.60432450 0.94699846 0.37287690
0.62868943 0.94908695 0.37393128
0.66470869 0.95232431 0.37556507
0.71132398 0.95677946 0.37781226
0.76706527 0.96249935 0.38069542
0.83039186 0.96951434 0.38422843
0.89989031 0.97784118 0.38841799
0.97435685 0.98748498 0.39326470
0.03849227 0.01892470 0.35345638
0.11314757 0.02959073 0.35411781
0.19892681 0.04749748 0.35522561
0.29146356 0.07534085 0.35694161
0.38676145 0.11082879 0.35930079
0.48340294 0.14804167 0.36232581
0.58078543 0.18620007 0.36602990
0.67861514 0.22495302 0.37041854
0.77673353 0.26409983 0.37549054
0.08431702 0.12832140 0.35693577
0.14733451 0.13619002 0.35759104
0.22260383 0.14872210 0.35868859
0.30883718 0.16679943 0.36038881
0.40020267 0.18955914 0.36272650
0.49423131 0.21605090 0.36572433
0.58977924 0.24542668 0.36939565
0.68626231 0.27700357 0.37374619
0.78335643 0.31025908 0.37877514
0.14654340 0.24107146 0.36270532
0.19436399 0.24594274 0.36335063
0.25815827 0.25393718 0.36443154
0.33612803 0.26594604 0.36610616
0.42182447 0.28179211 0.36840900
0.51188657 0.30113606 0.37136268
0.60456411 0.32356080 0.37498078
0.69890010 0.34863427 0.37926941
0.79434077 0.37594905 0.38422832
0.21629414 0.35709096 0.37150547
0.25313183 0.36050882 0.37213609
0.30613398 0.36617811 0.37319249
0.37482939 0.37482939 0.37482939
0.45341882 0.38647991 0.37708082
0.53816278 0.40103877 0.37996936
0.62682725 0.41833969 0.38350886
0.71807871 0.43816926 0.38770598
0.81109990 0.46029056 0.39256126
0.28939555 0.47431465 0.38334904
0.31865305 0.47690403 0.38396082
0.36280930 0.48121952 0.38498580
0.42270001 0.48785290 0.38657429
0.49376434 0.49687439 0.38875972
0.57244217 0.50828405 0.39156454
0.65629408 0.52202816 0.39500292
0.74371785 0.53801230 0.39908216
0.83366396 0.55611318 0.40380375
0.36419309 0.59209996 0.39813808
0.38812151 0.59416281 0.39872773
0.42534619 0.59760928 0.39971576
0.47753532 0.60292721 0.40124733
0.54136550 0.61019832 0.40335509
0.61377614 0.61945604 0.40606130
0.69238778 0.63069592 0.40938039
0.77548239 0.64388297 0.41332037
0.86185304 0.65895788 0.41788376
0.43994540 0.71018859 0.41569802
0.46000458 0.71189075 0.41626323
0.49183346 0.71473867 0.41721043
0.53753148 0.71914288 0.41867904
0.59478050 0.72518370 0.42070080
0.66111118 0.73290606 0.42329771
0.73437512 0.74232727 0.42648441
0.81287716 0.75344190 0.43026957
0.89534128 0.76622555 0.43465674
0.51628078 0.82845812 0.43580711
0.53343912 0.82989945 0.43634649
0.56103147 0.83231311 0.43725055
0.60133304 0.83605101 0.43865260
0.65277300 0.84118818 0.44058337
0.71343550 0.84777232 0.44306447
0.78147855 0.85583017 0.44611070
0.85532623 0.86537113 0.44973129
0.93371196 0.87638987 0.45393077
0.59299530 0.94684360 0.45822090
0.60791613 0.94808844 0.45873392
0.63213547 0.95017428 0.45959393
0.66795817 0.95340755 0.46092796
0.71434752 0.95785712 0.46276567
0.76985364 0.96356993 0.46512819
0.83295061 0.97057635 0.46803035
0.90223384 0.97889318 0.47148188
0.97650372 0.98852559 0.47548814
0.06475287 0.03183570 0.47285416
0.13347469 0.04250173 0.47335122
0.21275356 0.06040849 0.47418451
0.30152483 0.08808996 0.47547728
0.39451302 0.12123768 0.47725849
0.48963338 0.15664560 0.47954896
0.58595323 0.19346096 0.48236348
0.68300533 0.23119115 0.48571201
0.78053347 0.26954080 0.48960037
0.10813509 0.13780569 0.47547288
0.16453356 0.14530462 0.47596717
0.23525144 0.15729825 0.47679584
0.31839098 0.17469230 0.47808147
0.40770431 0.19671974 0.47985290
0.50032469 0.22250020 0.48213088
0.59486540 0.25122354 0.48493022
0.69060064 0.28222090 0.48826089
0.78712171 0.31497015 0.49212879
0.16380523 0.24695739 0.47983683
0.20844054 0.25172920 0.48032657
0.26933951 0.25956679 0.48114765
0.34497171 0.27135397 0.48242154
0.42895325 0.28693061 0.48417688
0.51776781 0.30597692 0.48643433
0.60952101 0.32809355 0.48920868
0.70315513 0.35286216 0.49250997
0.79804982 0.37988464 0.49634420
0.22923809 0.36122426 0.48654364
0.26450156 0.36460496 0.48702655
0.31576370 0.37021395 0.48783619
0.38281572 0.37877624 0.48909240
0.46005948 0.39031239 0.49082353
0.54375200 0.40473651 0.49305008
0.63160040 0.42188811 0.49578680
0.72221272 0.44155946 0.49904381
0.81472604 0.46351875 0.50282729
0.29952044 0.47744723 0.49566303
0.32794001 0.48001951 0.49613692
0.37104537 0.48430689 0.49693147
0.42981440 0.49089794 0.49816435
0.49986351 0.49986351 0.49986351
0.57768786 0.51120508 0.50204924
0.66084226 0.52487081 0.50473623
0.74769953 0.54076848 0.50793471
0.83718366 0.55877704 0.51165105
0.37239969 0.59459604 0.50719345
0.39584712 0.59664986 0.50765636
0.43241739 0.60008135 0.50843254
0.48384239 0.60537652 0.50963703
0.54692092 0.61261710 0.51129727
0.61865549 0.62183694 0.51343327
0.69668537 0.63303225 0.51605967
0.77928894 0.64616890 0.51918676
0.86524749 0.66118857 0.52282118
0.44678661 0.71224846 0.52107872
0.46655103 0.71394536 0.52152901
0.49795671 0.71678452 0.52228407
0.54312741 0.72117532 0.52345591
0.59982226 0.72719801 0.52507136
0.66562439 0.73489760 0.52715013
0.73841111 0.74429167 0.52970673
0.81649471 0.75537513 0.53275155
0.89859708 0.76812403 0.53629145
0.52211129 0.83020247 0.53722156
0.53907889 0.83164050 0.53765794
0.56638717 0.83404865 0.53838973
0.60631768 0.83777810 0.53952557
0.65734704 0.84290377 0.54109163
0.71759823 0.84947337 0.54310724
0.78525360 0.85751373 0.54558677
0.85874895 0.86703440 0.54854067
0.93682107 0.87803026 0.55197604
0.59805283 0.94835022 0.55549559
0.61284455 0.94959287 0.55591714
0.63686662 0.95167506 0.55662412
0.67242252 0.95490271 0.55772156
0.71850458 0.95934460 0.55923491
0.77369020 0.96504766 0.56118308
0.83647359 0.97204228 0.56358027
0.90546237 0.98034532 0.56643694
0.97946282 0.98996205 0.56976041
0.09773751 0.04850980 0.59225194
0.15688535 0.05917582 0.59264629
0.22957225 0.07708258 0.59330773
0.31407880 0.10326663 0.59433467
0.40430905 0.13385130 0.59575119
0.49756249 0.16725973 0.59757537
0.59255758 0.20252439 0.59982101
0.68863093 0.23904055 0.60249854
0.78541147 0.27642571 0.60561553
0.13466322 0.14940762 0.59433117
0.18489889 0.15649460 0.59472407
0.25076778 0.16788085 0.59538309
0.33034759 0.18449184 0.59640629
0.41719614 0.20566536 0.59781767
0.50808381 0.23060247 0.59963526
0.60136734 0.25854090 0.60187285
0.69616071 0.28883252 0.60454083
0.79195570 0.32095912 0.60764683
0.18423399 0.25438254 0.59780485
0.22553107 0.25903397 0.59819537
0.28319355 0.26668129 0.59885038
0.35608410 0.27819856 0.59986739
0.43798939 0.29344566 0.60127025
0.52526332 0.31212604 0.60307694
0.61586066 0.33386189 0.60530117
0.70860987 0.35825185 0.60795337
0.80281238 0.38490959 0.61104115
0.24508467 0.36649609 0.60316449
0.27857186 0.36983046 0.60355136
0.32780999 0.37536417 0.60420029
0.39289647 0.38381527 0.60520786
0.46849565 0.39520830 0.60659777
0.55088359 0.40946351 0.60838785
0.63770895 0.42642753 0.61059177
0.72751431 0.44589972 0.61321993
0.81938322 0.46765465 0.61627997
0.31214895 0.48146232 0.61049201
0.33958050 0.48401299 0.61087402
0.38142798 0.48826481 0.61151478
0.43883290 0.49480230 0.61250972
0.50762983 0.50369710 0.61388226
0.58438983 0.51495240 0.61565008
0.66666730 0.52851875 0.61782676
0.75280811 0.54430667 0.62042268
0.84170544 0.56219794 0.62344551
0.38274675 0.59780349 0.61982059
0.40561159 0.59984580 0.62019655
0.44138295 0.60325824 0.62082720
0.49186639 0.60852439 0.62180645
0.55401030 0.61572608 0.62315744
0.62489763 0.62489763 0.62489763
0.70219393 0.63603612 0.62704051
0.78417533 0.64910848 0.62959639
0.86960980 0.66405765 0.63257300
0.45546974 0.71489930 0.63114511
0.47487096 0.71658946 0.63151396
0.50575292 0.71941742 0.63213270
0.55026737 0.72379108 0.63309352
0.60626847 0.72979057 0.63441915
0.67140533 0.73746105 0.63612684
0.74358854 0.74682038 0.63822992
0.82114096 0.75786395 0.64073867
0.90278272 0.77056835 0.64366084
0.52954366 0.83244933 0.64442960
0.54627355 0.83388312 0.64479042
0.57322690 0.83628423 0.64539571
0.61269217 0.84000283 0.64633568
0.66320470 0.84511376 0.64763265
0.72293618 0.85166472 0.64930358
0.79010000 0.85968265 0.65136165
0.86314727 0.86917730 0.65381706
0.94081957 0.88014379 0.65667758
0.60451884 0.95029205 0.65961360
0.61914840 0.95153189 0.65996562
0.64292229 0.95360940 0.66055616
0.67814179 0.95682983 0.66147329
0.72383536 0.96126186 0.66273886
0.77861468 0.96695240 0.66436949
0.84099954 0.97393186 0.66637818
0.90961324 0.98221719 0.66877507
0.98326978 0.99181378 0.67156793
0.13175641 0.06910964 0.71164973
0.18261329 0.07977567 0.71197435
0.24899948 0.09684985 0.71251900
0.32897249 0.12028387 0.71336498
0.41609884 0.14836677 0.71453265
0.50718408 0.17969878 0.71603762
0.60061195 0.21328179 0.71789225
0.69551394 0.24844082 0.72010636
0.79139292 0.28472428 0.72268766
0.16306080 0.16288577 0.71336210
0.20782618 0.16954251 0.71368589
0.26884701 0.18028630 0.71422913
0.34457977 0.19605498 0.71507295
0.42863612 0.21629257 0.71623763
0.51750557 0.24028823 0.71773876
0.60929965 0.26733592 0.71958869
0.70296493 0.29681538 0.72179720
0.79788391 0.32821706 0.72437203
0.20722158 0.26330068 0.71622705
0.24523549 0.26781460 0.71654945
0.29950514 0.27524393 0.71709037
0.36937102 0.28645066 0.71793057
0.44890273 0.30131657 0.71909028
0.53437441 0.31957116 0.72058504
0.62359929 0.34086119 0.72242714
0.71528733 0.36480518 0.72462636
0.80865414 0.39103094 0.72719043
0.26350883 0.37291009 0.72065751
0.29511633 0.37618961 0.72097779
0.34214188 0.38163415 0.72151514
0.40501240 0.38995333 0.72234982
0.47871103 0.40117627 0.72350192
0.55956433 0.41523032 0.72498691
0.64517128 0.43197040 0.72681702
0.73400728 0.45120422 0.72900201
0.82509734 0.47271393 0.73154959
0.32712475 0.48637636 0.72673414
0.35346012 0.48890102 0.72705154
0.39388830 0.49311004 0.72758407
0.44972579 0.49958302 0.72841128
0.51706005 0.50839251 0.72955310
0.59256042 0.51954374 0.73102487
0.67378986 0.53299009 0.73283877
0.75906823 0.54864533 0.73500451
0.84725541 0.56639462 0.73752977
0.39516658 0.60174136 0.73450196
0.41736515 0.60376970 0.73481575
0.45221446 0.60715900 0.73534223
0.50159938 0.61238993 0.73616006
0.56264103 0.61954437 0.73728897
0.63251978 0.62865724 0.73874416
0.70893618 0.63972663 0.74053770
0.79016693 0.65272078 0.74267927
0.87496625 0.66758413 0.74517652
0.46597305 0.71815976 0.74397815
0.48495055 0.71984170 0.74428764
0.51521829 0.72265600 0.74480692
0.55895803 0.72700873 0.74561356
0.61413432 0.73297990 0.74672707
0.67847495 0.74061483 0.74816248
0.74993176 0.74993176 0.74993176
0.82684183 0.76092660 0.75204448
0.90792449 0.77357663 0.75450831
0.53858020 0.83521607 0.75515702
0.55502899 0.83664469 0.75546157
0.58156132 0.83903716 0.75597256
0.62047241 0.84274250 0.75676637
0.67036641 0.84783537 0.75786220
0.72947297 0.85436351 0.75927490
0.79604321 0.86235397 0.76101628
0.86854745 0.87181674 0.76309588
0.94573369 0.88274727 0.76552129
0.61240829 0.95268501 0.76801373
0.62684429 0.95392142 0.76831277
0.65032131 0.95599318 0.76881454
0.68513735 0.95920475 0.76959403
0.73036350 0.96362469 0.77067015
0.78465235 0.96929986 0.77205751
0.84655457 0.97626072 0.77376780
0.91471274 0.98452431 0.77581042
0.98795056 0.99409618 0.77819297
0.16577532 0.09328136 0.83104751
0.21006942 0.10284668 0.83132198
0.27064721 0.11776623 0.83178257
0.34601348 0.13874734 0.83249818
0.42979671 0.16448459 0.83348629
0.51846556 0.19375518 0.83476051
0.61011012 0.22559582 0.83633181
0.70366141 0.25930384 0.83820914
0.79849150 0.29438178 0.84039984
0.19276312 0.17798650 0.83249574
0.23278810 0.18421391 0.83276969
0.28916109 0.19430852 0.83322940
0.36092049 0.20921176 0.83394366
0.44194841 0.22846910 0.83492990
0.52856129 0.25145968 0.83620172
0.61865776 0.27753961 0.83777006
0.71102103 0.30612310 0.83964388
0.80492031 0.33671474 0.84183050
0.23223867 0.27363908 0.83492094
0.26715356 0.27800252 0.83519403
0.31802361 0.28519254 0.83565228
0.38469940 0.29605679 0.83636428
0.46163135 0.31049982 0.83734741
0.54507819 0.32827890 0.83861522
0.63273481 0.34906760 0.84017864
0.72319634 0.37250669 0.84204660
0.81558952 0.39824029 0.84422643
0.28416713 0.38045319 0.83867671
0.31387435 0.38367027 0.83894846
0.35858858 0.38901317 0.83940448
0.41906823 0.39718178 0.84011300
0.49066041 0.40821018 0.84109134
0.56977869 0.42203357 0.84235300
0.65398856 0.43851614 0.84390885
0.74170190 0.45747508 0.84576780
0.83188347 0.47870116 0.84793717
0.34425218 0.49219521 0.84383837
0.36942487 0.49468970 0.84410830
0.40832047 0.49884902 0.84456127
0.46243169 0.50524708 0.84526507
0.52812535 0.51395739 0.84623690
0.60219182 0.52498750 0.84749018
0.68221470 0.53829401 0.84903574
0.76649181 0.55379443 0.85088245
0.85384940 0.57137782 0.85303758
0.40955459 0.60642153 0.85045380
0.43102318 0.60843349 0.85072143
0.46485206 0.61179566 0.85117056
0.51300651 0.61698526 0.85186838
0.57279836 0.62408426 0.85283198
0.64152122 0.63312824 0.85407468
0.71692040 0.64411645 0.85560723
0.79727737 0.65701866 0.85743844
0.88133341 0.67178104 0.85957559
0.47824466 0.72204323 0.85854979
0.49674758 0.72371549 0.85881467
0.52632334 0.72651366 0.85925916
0.56918369 0.73084169 0.85994980
0.62341609 0.73677946 0.86090350
0.68683854 0.74437242 0.86213346
0.75745213 0.75363927 0.86365035
0.83361247 0.76457655 0.86546293
0.91403967 0.77716233 0.86757842
0.54919935 0.83851602 0.86813572
0.56532846 0.83993851 0.86839739
0.59138024 0.84232076 0.86883651
0.62965578 0.84601038 0.86951882
0.67883652 0.85108187 0.87046103
0.73721855 0.85758297 0.87167621
0.80309715 0.86554089 0.87317493
0.87496588 0.87496588 0.87496588
0.95158125 0.88585377 0.87705624
0.62171719 0.95554177 0.87920613
0.63593062 0.95677409 0.87946419
0.65906556 0.95883903 0.87989725
0.69341522 0.96204008 0.88057016
0.73809903 0.96644566 0.88149941
0.79181656 0.97210258 0.88269792
0.85315449 0.97904136 0.88417614
0.92077825 0.98727913 0.88594268
0.99352341 0.99682164 0.88800468
0.19979423 0.11799662 0.95044529
0.23881933 0.12630623 0.95068211
0.29415657 0.13947218 0.95107956
0.36499110 0.15834062 0.95169720
0.44529254 0.18193314 0.95255025
0.53135350 0.20922047 0.95365069
0.62102954 0.23931559 0.95500827
0.71306768 0.27152395 0.95663111
0.80671087 0.30532590 0.95852602
0.22339414 0.19446784 0.95169509
0.25935384 0.20028033 0.95193158
0.31139173 0.20974016 0.95232845
0.37918167 0.22378352 0.95294519
0.45703297 0.24204852 0.95379701
0.54120197 0.26400195 0.95489585
0.62942112 0.28906511 0.95625148
0.72032431 0.31669211 0.95787199
0.81306904 0.34640709 0.95976418
0.25885381 0.28530714 0.95378927
0.29091876 0.28951130 0.95402518
0.33848948 0.29644718 0.95442109
0.40191259 0.30694594 0.95503633
0.47608979 0.32093485 0.95588609
0.55733227 0.33819964 0.95698227
0.64324974 0.35844208 0.95833463
0.73233364 0.38132695 0.95995125
0.82362338 0.40651656 0.96183891
0.30673047 0.38909875 0.95703545
0.33457847 0.39224686 0.95727047
0.37695864 0.39747739 0.95766490
0.43494411 0.40547923 0.95827784
0.50427631 0.41629165 0.95912441
0.58149285 0.42985825 0.96021650
0.66414745 0.44605329 0.96156382
0.75059695 0.46470427 0.96317444
0.83974745 0.48561152 0.96505512
0.36331775 0.49891581 0.96150277
0.38729850 0.50137624 0.96173659
0.42459410 0.50547948 0.96212899
0.47686565 0.51179289 0.96273878
0.54077654 0.52039107 0.96358101
0.61325949 0.53128407 0.96466752
0.69193316 0.54443205 0.96600796
0.77508001 0.55975670 0.96761039
0.86149442 0.57715143 0.96948153
0.42578165 0.61184972 0.96723836
0.44647659 0.61384298 0.96747064
0.47921246 0.61717417 0.96786046
0.52603179 0.62231658 0.96846626
0.58444945 0.62935221 0.96930297
0.65188627 0.63831742 0.97038238
0.72614258 0.64921276 0.97171409
0.80551021 0.66200969 0.97330610
0.88871957 0.67665635 0.97516514
0.49220987 0.72655869 0.97427269
0.51019790 0.72821980 0.97450311
0.53901809 0.73099944 0.97488981
0.58091035 0.73529907 0.97549077
0.63409430 0.74119840 0.97632082
0.69648812 0.74874309 0.97739163
0.76614997 0.75795230 0.97871277
0.84145881 0.76882329 0.98029218
0.92113780 0.78133505 0.98213654
0.56136028 0.84235912 0.98262260
0.57713671 0.84377452 0.98285085
0.60265627 0.84614497 0.98323391
0.64022416 0.84981643 0.98382921
0.68860586 0.85486322 0.98465146
0.74617122 0.86133308 0.98571224
0.81126579 0.86925339 0.98702102
0.88241059 0.87863472 0.98858570
0.95837294 0.88947332 0.99041293
0.63242566 0.95887229 0.99229328
0.64639058 0.96009987 0.99251906
0.66914260 0.96215691 0.99289798
0.70296834 0.96534578 0.99348686
0.74704032 0.96973472 0.99430024
0.80011048 0.97537050 0.99534960
0.86080627 0.98228368 0.99664433
0.92781955 0.99049153 0.99819226
1.00000000 1.00000000 1.00000000
