BT601_NTSC_to_BT2020_HLG.cube
TITLE "BT601_NTSC_to_BT2020_HLG"
LUT_3D_SIZE 5
# BT601 NTSC SDR to BT2020 HLG HDR by Francesco Bucciantini
0.00000000 0.00000000 0.00000000
0.18114127 0.06692077 0.02924185
0.33013048 0.12196329 0.05329335
0.48640462 0.17969716 0.07852088
0.61940379 0.23937878 0.10459949
0.13876314 0.22168058 0.06719531
0.22818275 0.23156137 0.07328230
0.35810800 0.25301645 0.08576358
0.50575119 0.28536529 0.10334766
0.62901664 0.32625830 0.12432322
0.25289621 0.40401348 0.12246365
0.31107661 0.40951836 0.12590644
0.41586371 0.42202125 0.13355721
0.54451565 0.44217413 0.14547465
0.64952199 0.46960526 0.16105403
0.37260991 0.58219041 0.18043437
0.41430702 0.58499656 0.18278854
0.49781952 0.59134617 0.18814023
0.59503758 0.60150222 0.19677929
0.67934468 0.61514687 0.20856082
0.49636237 0.70337387 0.24036084
0.52703695 0.70480438 0.24213307
0.58283673 0.70808187 0.24619813
0.64916109 0.71344107 0.25286135
0.71499139 0.72086690 0.26213430
0.05527719 0.03875910 0.22305300
0.18938777 0.07733471 0.22496161
0.33472631 0.12797387 0.22933125
0.48953552 0.18382964 0.23647022
0.62096415 0.24249633 0.24636090
0.14936792 0.22504343 0.23295461
0.23478274 0.23478274 0.23478274
0.36234915 0.25596795 0.23897287
0.50868584 0.28798544 0.24583201
0.63049567 0.32855250 0.25536034
0.25886688 0.40586841 0.25446018
0.31594971 0.41134846 0.25613487
0.41952139 0.42379737 0.25998109
0.54688216 0.44386961 0.26629967
0.65084139 0.47120204 0.27512004
0.37668782 0.58313664 0.28689580
0.41797832 0.58592810 0.28838219
0.50087769 0.59224530 0.29180367
0.59682457 0.60235183 0.29744702
0.68046205 0.61593420 0.30536905
0.49943085 0.70385501 0.32791153
0.52964468 0.70528169 0.32921279
0.58474922 0.70855053 0.33221402
0.65048314 0.71389590 0.33718171
0.71590734 0.72130325 0.34419040
0.10074283 0.07063857 0.40651472
0.20727102 0.09730466 0.40756509
0.34515975 0.14094272 0.40999317
0.49672787 0.19308256 0.41402868
0.62453490 0.24958367 0.41975621
0.17147690 0.23266303 0.41203086
0.24943233 0.24209600 0.41306720
0.37200868 0.26269208 0.41546313
0.51531856 0.29397815 0.41944601
0.63388283 0.33381774 0.42510056
0.27222346 0.41014230 0.42456044
0.32698283 0.41556599 0.42556627
0.42789221 0.42789221 0.42789221
0.55225825 0.44778094 0.43176046
0.65386737 0.47488831 0.43725578
0.38598869 0.58531423 0.44475924
0.42637944 0.58807216 0.44571949
0.50780076 0.59431537 0.44794080
0.60090552 0.60430878 0.45163737
0.68302943 0.61774875 0.45689368
0.50640851 0.70496702 0.47225793
0.53555586 0.70638489 0.47316238
0.58911179 0.70963380 0.47525544
0.65351514 0.71494737 0.47874114
0.71801583 0.72231218 0.48370302
0.14843156 0.10407681 0.58494841
0.23418814 0.12373508 0.58547938
0.36196417 0.16033411 0.58670599
0.50842002 0.20766090 0.58874208
0.63036120 0.26102525 0.59162614
0.20319236 0.24489643 0.58773449
0.27221186 0.25387526 0.58825727
0.38765096 0.27358601 0.58946503
0.52590619 0.30375208 0.59147012
0.63941695 0.34245651 0.59431087
0.29323783 0.41720364 0.59403983
0.34467460 0.42253670 0.59454452
0.44155923 0.43466530 0.59571069
0.56091698 0.45425758 0.59764734
0.65882438 0.48100008 0.60039237
0.40108612 0.58890364 0.60412824
0.44009344 0.59160718 0.60460528
0.51882922 0.59773026 0.60570785
0.60753974 0.60753974 0.60753974
0.68724930 0.62074775 0.61013812
0.51752055 0.70681445 0.61768781
0.54504015 0.70821781 0.61813006
0.59618944 0.71143389 0.61915255
0.65848179 0.71669501 0.62085240
0.72149311 0.72398964 0.62326563
0.19772914 0.13864315 0.70586113
0.26815849 0.15394905 0.70613137
0.38481547 0.18465364 0.70675716
0.52400114 0.22696473 0.70780058
0.63840965 0.27662994 0.70928847
0.24156163 0.26146549 0.70728351
0.30193407 0.26989366 0.70755161
0.40906987 0.28851212 0.70817246
0.54009191 0.31726214 0.70920769
0.64707638 0.35449457 0.71068396
0.32101917 0.42714028 0.71054262
0.36859933 0.43235079 0.71080589
0.46047741 0.44421150 0.71141556
0.57266131 0.46340035 0.71243223
0.66571107 0.48964377 0.71388224
0.42182338 0.59393555 0.71587248
0.45907202 0.59656463 0.71612802
0.53356461 0.60252306 0.71671985
0.61665622 0.61207994 0.71770689
0.69314041 0.62496849 0.71911491
0.53235979 0.70943459 0.72325908
0.55783670 0.71081762 0.72350428
0.60588737 0.71398769 0.72407223
0.66538143 0.71917530 0.72501962
0.72637144 0.72637144 0.72637144
