BT601_NTSC_to_BT601_PAL.cube
TITLE "Custom LUT"
LUT_3D_SIZE 9
# BT601 NTSC to BT601 PAL by Francesco Bucciantini
0.00000000 0.00000000 0.00000000
0.11469766 0.00233322 0.00000000
0.23394858 0.00625036 0.00000000
0.35319950 0.01234115 0.00000000
0.47245043 0.02076066 0.00000000
0.59170135 0.03163415 0.00000000
0.71095228 0.04506770 0.00000000
0.83020320 0.06115384 0.00000000
0.94945412 0.07997500 0.00000000
0.01165893 0.12151890 0.00000000
0.12393484 0.12333581 0.00000000
0.23940855 0.12634599 0.00000000
0.35697364 0.13093128 0.00000000
0.47529144 0.13709148 0.00000000
0.59395726 0.14476766 0.00000000
0.71281025 0.15386118 0.00000000
0.83177462 0.16425002 0.00000000
0.95081027 0.17580213 0.00000000
0.03123263 0.24457632 0.00000000
0.13846945 0.24563637 0.00000000
0.24834044 0.24740713 0.00000000
0.36322540 0.25013874 0.00000000
0.48002284 0.25387227 0.00000000
0.59772456 0.25862370 0.00000000
0.71591789 0.26438932 0.00000000
0.83440554 0.27114960 0.00000000
0.95308224 0.27887250 0.00000000
0.06166794 0.36763374 0.00000000
0.15912326 0.36836359 0.00000000
0.26169617 0.36958577 0.00000000
0.37274604 0.37147845 0.00000000
0.48728729 0.37407955 0.00000000
0.60353340 0.37741313 0.00000000
0.72072141 0.38149260 0.00000000
0.83847848 0.38632259 0.00000000
0.95660308 0.39190023 0.00000000
0.10247784 0.49069116 0.00000000
0.18472329 0.49123964 0.00000000
0.27921953 0.49215907 0.00000000
0.38553246 0.49358523 0.00000000
0.49715165 0.49554978 0.00000000
0.61146779 0.49807524 0.00000000
0.72730538 0.50117738 0.00000000
0.84407327 0.50486648 0.00000000
0.96144655 0.50914814 0.00000000
0.14452246 0.61374858 0.00000000
0.21410126 0.61418374 0.00000000
0.30047852 0.61491357 0.00000000
0.40145916 0.61604659 0.00000000
0.50960327 0.61760919 0.00000000
0.62155725 0.61962110 0.00000000
0.73571462 0.62209722 0.00000000
0.85123927 0.62504867 0.00000000
0.96766200 0.62848338 0.00000000
0.18656708 0.73680600 0.00000000
0.24629194 0.73716423 0.00000000
0.32497024 0.73776521 0.00000000
0.42031838 0.73869863 0.00000000
0.52456915 0.73998685 0.00000000
0.63378858 0.74164696 0.00000000
0.74596285 0.74369242 0.00000000
0.86000223 0.74613382 0.00000000
0.97528021 0.74897941 0.00000000
0.22861171 0.85986342 0.00000000
0.28056448 0.86016631 0.00000000
0.35219397 0.86067454 0.00000000
0.44185429 0.86146415 0.00000000
0.54193178 0.86255434 0.00000000
0.64811449 0.86396005 0.00000000
0.75803826 0.86569327 0.00000000
0.87036845 0.86776374 0.00000000
0.98431672 0.87017938 0.00000000
0.27065633 0.98292085 0.00000000
0.31638634 0.98318218 0.00000000
0.38169294 0.98362076 0.00000000
0.46579099 0.98430227 0.00000000
0.56154330 0.98524349 0.00000000
0.66446109 0.98645757 0.00000000
0.77190792 0.98795519 0.00000000
0.88232773 0.98974523 0.00000000
0.99477406 0.99183506 0.00000000
0.00138326 0.00215765 0.12678562
0.11581904 0.00449086 0.12660054
0.23460209 0.00840800 0.12628941
0.35364929 0.01449880 0.12580458
0.47278840 0.02291831 0.12513227
0.59196947 0.03379180 0.12426034
0.71117299 0.04722535 0.12317734
0.83038981 0.06331149 0.12187194
0.94961513 0.08237783 0.12033253
0.01304219 0.12319972 0.12518669
0.12500000 0.12500000 0.12500000
0.24004922 0.12798327 0.12468614
0.35741888 0.13252905 0.12419705
0.47562737 0.13863882 0.12351880
0.59422431 0.14625606 0.12263910
0.71303034 0.15528484 0.12154636
0.83196084 0.16560571 0.12022907
0.95097102 0.17708886 0.11867543
0.03261589 0.24555674 0.12247052
0.13945585 0.24661312 0.12228102
0.24896108 0.24837780 0.12196244
0.36366331 0.25110016 0.12146595
0.48035543 0.25482131 0.12077737
0.59798985 0.25955740 0.11988419
0.71613695 0.26530499 0.11877452
0.83459112 0.27204493 0.11743657
0.95324257 0.27974557 0.11585820
0.06305120 0.36830872 0.11816434
0.16001446 0.36903727 0.11797024
0.26228888 0.37025732 0.11764389
0.37317319 0.37214670 0.11713524
0.48761484 0.37474332 0.11642971
0.60379601 0.37807123 0.11551434
0.72093891 0.38214389 0.11437681
0.83866307 0.38696598 0.11300485
0.95676276 0.39253471 0.11138571
0.10368236 0.49119839 0.11203400
0.18551753 0.49174630 0.11183297
0.27977891 0.49266476 0.11149495
0.38594588 0.49408944 0.11096804
0.49747259 0.49605195 0.11023700
0.61172683 0.49857482 0.10928824
0.72752076 0.50167381 0.10810876
0.84425653 0.50535921 0.10668549
0.96160534 0.50963664 0.10500480
0.14547911 0.61415100 0.10377929
0.21480562 0.61458586 0.10356821
0.30100179 0.61531519 0.10321323
0.40185657 0.61644743 0.10265974
0.50991621 0.61800897 0.10189157
0.62181186 0.62001951 0.10089415
0.73592735 0.62249396 0.09965345
0.85142084 0.62544343 0.09815518
0.96781966 0.62887587 0.09638430
0.18735508 0.73713728 0.09297634
0.24691706 0.73749532 0.09275063
0.32545686 0.73809602 0.09237096
0.42069824 0.73902899 0.09177878
0.52487294 0.74031659 0.09095647
0.63403800 0.74197591 0.08988801
0.74617244 0.74402039 0.08855770
0.86018178 0.74646063 0.08694938
0.97543650 0.74930488 0.08504574
0.22927822 0.86014352 0.07874541
0.28112145 0.86044630 0.07850213
0.35264498 0.86095435 0.07809370
0.44221576 0.86174367 0.07745864
0.54222555 0.86283348 0.07658076
0.64835809 0.86423870 0.07544702
0.75824425 0.86597130 0.07404635
0.87054566 0.86804104 0.07236911
0.98447142 0.87045583 0.07040669
0.27123156 0.98316252 0.06185636
0.31688525 0.98342379 0.06161308
0.38211040 0.98386224 0.06120466
0.46613383 0.98454357 0.06056959
0.56182645 0.98548454 0.05969172
0.66469833 0.98669828 0.05855798
0.77210990 0.98819550 0.05715731
0.88250230 0.98998506 0.05548006
0.99492695 0.99207433 0.05351764
0.00370556 0.00578004 0.25278206
0.11768575 0.00811325 0.25267445
0.23569573 0.01203039 0.25249371
0.35440320 0.01812119 0.25221243
0.47335526 0.02654070 0.25182317
0.59241932 0.03741419 0.25131966
0.71154336 0.05084773 0.25069639
0.83070300 0.06693388 0.24994825
0.94988538 0.08593491 0.24907041
0.01536449 0.12598716 0.25185465
0.12677446 0.12776046 0.25174669
0.24112150 0.13070003 0.25156536
0.35816520 0.13518158 0.25128317
0.47619081 0.14120924 0.25089264
0.59467238 0.14873035 0.25038750
0.71339968 0.15765329 0.24976219
0.83227338 0.16786283 0.24901159
0.95124084 0.17923277 0.24813086
0.03493819 0.24719510 0.25029087
0.14110076 0.24824539 0.25018233
0.25000000 0.25000000 0.25000000
0.36439736 0.25270704 0.24971627
0.48091326 0.25640766 0.24932359
0.59843496 0.26111830 0.24881566
0.71650457 0.26683599 0.24818688
0.83490259 0.27354215 0.24743211
0.95351168 0.28120584 0.24654646
0.06537350 0.36943923 0.24784221
0.16150228 0.37016565 0.24773273
0.26328130 0.37138211 0.24754882
0.37388923 0.37326600 0.24726263
0.48816425 0.37585515 0.24686655
0.60423663 0.37917361 0.24635419
0.72130390 0.38323491 0.24571993
0.83897289 0.38804381 0.24495853
0.95703077 0.39359767 0.24406506
0.10568514 0.49204877 0.24442214
0.18684489 0.49259571 0.24431132
0.28071577 0.49351256 0.24412517
0.38663898 0.49493475 0.24383548
0.49801094 0.49689387 0.24343455
0.61216145 0.49941240 0.24291590
0.72788221 0.50250612 0.24227381
0.84456410 0.50618533 0.24150299
0.96187186 0.51045568 0.24059839
0.14707499 0.61482599 0.23994266
0.21598383 0.61526034 0.23983005
0.30187841 0.61598883 0.23964089
0.40252290 0.61711977 0.23934650
0.51044116 0.61867952 0.23893904
0.62223907 0.62068777 0.23841194
0.73628436 0.62315942 0.23775934
0.85172558 0.62610559 0.23697583
0.96808428 0.62953422 0.23605627
0.18867209 0.73769308 0.23430660
0.24796347 0.73805083 0.23419166
0.32627228 0.73865104 0.23399857
0.42133520 0.73958326 0.23369807
0.52538256 0.74086982 0.23328213
0.63445653 0.74252780 0.23274402
0.74652416 0.74457065 0.23207773
0.86048313 0.74700895 0.23127772
0.97569883 0.74985096 0.23033867
0.23039350 0.86061354 0.22740050
0.28205427 0.86091613 0.22728257
0.35340094 0.86142388 0.22708448
0.44282194 0.86221273 0.22677616
0.54271838 0.86330189 0.22634938
0.64876684 0.86470627 0.22579719
0.75858993 0.86643785 0.22511341
0.87084307 0.86850637 0.22429227
0.98473108 0.87091975 0.22332828
0.27219485 0.98356811 0.21908638
0.31772122 0.98382926 0.21896467
0.38281025 0.98426752 0.21876022
0.46670885 0.98494853 0.21844199
0.56230149 0.98588907 0.21800146
0.66509642 0.98710226 0.21743141
0.77244888 0.98859880 0.21672541
0.88279529 0.99038755 0.21587746
0.99518358 0.99247587 0.21488178
0.00731653 0.01141252 0.37877850
0.12054990 0.01374573 0.37870449
0.23738762 0.01766287 0.37858020
0.35557242 0.02375367 0.37838687
0.47423531 0.03217318 0.37811946
0.59311809 0.04304667 0.37777383
0.71211885 0.05648021 0.37734642
0.83118972 0.07256636 0.37683398
0.95030542 0.09130542 0.37623356
0.01897546 0.13023941 0.37814107
0.12950022 0.13197292 0.37806694
0.24278064 0.13484801 0.37794245
0.35932271 0.13923459 0.37774880
0.47706557 0.14514054 0.37748095
0.59536838 0.15251873 0.37713476
0.71397356 0.16128385 0.37670664
0.83275910 0.17132680 0.37619336
0.95166022 0.18252681 0.37559196
0.03854915 0.24972395 0.37706858
0.14363143 0.25076497 0.37699424
0.25160797 0.25250423 0.37686941
0.36553592 0.25518791 0.37667522
0.48177933 0.25885723 0.37640663
0.59912637 0.26352906 0.37605949
0.71707579 0.26920111 0.37563018
0.83538664 0.27585570 0.37511548
0.95392995 0.28346290 0.37451240
0.06898446 0.37119049 0.37539505
0.16379529 0.37191360 0.37532040
0.26481786 0.37312457 0.37519502
0.37500000 0.37500000 0.37500000
0.48901730 0.37757764 0.37473025
0.60492109 0.38088156 0.37438160
0.72187104 0.38492536 0.37395043
0.83945437 0.38971396 0.37343349
0.95744734 0.39524493 0.37282778
0.10875254 0.49336806 0.37306973
0.18889397 0.49391351 0.37299463
0.28216691 0.49482788 0.37286850
0.38771430 0.49624623 0.37267230
0.49884685 0.49820009 0.37240092
0.61283661 0.50071193 0.37205016
0.72844384 0.50379750 0.37161638
0.84504211 0.50746714 0.37109630
0.96228611 0.51172655 0.37048690
0.14953160 0.61587398 0.37004579
0.21780521 0.61630756 0.36997009
0.30323684 0.61703475 0.36984297
0.40355684 0.61816367 0.36964522
0.51125630 0.61972065 0.36937170
0.62290273 0.62172536 0.36901816
0.73683910 0.62419268 0.36858094
0.85219919 0.62713373 0.36805673
0.96849558 0.63055645 0.36744247
0.19070540 0.73855640 0.36627667
0.24958292 0.73891371 0.36620022
0.32753641 0.73951316 0.36607184
0.42232373 0.74044421 0.36587213
0.52617396 0.74172916 0.36559589
0.63510671 0.74338508 0.36523883
0.74707071 0.74542539 0.36479725
0.86095146 0.74786068 0.36426780
0.97610658 0.75069921 0.36364739
0.23211854 0.86134381 0.36171361
0.28349922 0.86164612 0.36163624
0.35457332 0.86215340 0.36150630
0.44376287 0.86294152 0.36130416
0.54348377 0.86402967 0.36102456
0.64940186 0.86543276 0.36066317
0.75912710 0.86716275 0.36021620
0.87130530 0.86922938 0.35968028
0.98513468 0.87164056 0.35905226
0.27368663 0.98419840 0.35630360
0.31901702 0.98445936 0.35622510
0.38389599 0.98489731 0.35609327
0.46760153 0.98557784 0.35588819
0.56303930 0.98651771 0.35560451
0.66571492 0.98773004 0.35523784
0.77297563 0.98922553 0.35478433
0.88325065 0.99101302 0.35424055
0.99558248 0.99309989 0.35360329
0.01230809 0.01919848 0.50477494
0.12443548 0.02153170 0.50471934
0.23970939 0.02544884 0.50462599
0.35718265 0.03153964 0.50448080
0.47544912 0.03995915 0.50428003
0.59408260 0.05083264 0.50402062
0.71291354 0.06426618 0.50369994
0.83186202 0.08035233 0.50331567
0.95088571 0.09843770 0.50286568
0.02396702 0.13596339 0.50429626
0.13320395 0.13764584 0.50424061
0.24505805 0.14043801 0.50414716
0.36091691 0.14470221 0.50400183
0.47827211 0.15045078 0.50380086
0.59632908 0.15764348 0.50354120
0.71476605 0.16620286 0.50322021
0.83343002 0.17602768 0.50283557
0.95223960 0.18700417 0.50238514
0.04354071 0.25318319 0.50349157
0.14707744 0.25421177 0.50343583
0.25381598 0.25593041 0.50334223
0.36710420 0.25858273 0.50319666
0.48297395 0.26221000 0.50299536
0.60008077 0.26682962 0.50273528
0.71786460 0.27244024 0.50241376
0.83605525 0.27902536 0.50202849
0.95450780 0.28655636 0.50157732
0.07397602 0.37359826 0.50223773
0.16692530 0.37431688 0.50218185
0.26692893 0.37552035 0.50208801
0.37653023 0.37738427 0.50194207
0.49019400 0.37994625 0.50174026
0.60586590 0.38323036 0.50147951
0.72265422 0.38725033 0.50115717
0.84011945 0.39201126 0.50077091
0.95802285 0.39751100 0.50031859
0.11290374 0.49518587 0.50049923
0.19169748 0.49572929 0.50044315
0.28416183 0.49664025 0.50034899
0.38919598 0.49805334 0.50020253
0.50000000 0.50000000 0.50000000
0.61376862 0.50250266 0.49973832
0.72921944 0.50557707 0.49941484
0.84570238 0.50923360 0.49902720
0.96285841 0.51347801 0.49857326
0.15287938 0.61731958 0.49824487
0.22030208 0.61775208 0.49818853
0.30510546 0.61847748 0.49809393
0.40498182 0.61960364 0.49794679
0.51238092 0.62115682 0.49774333
0.62381890 0.62315665 0.49748044
0.73760519 0.62561802 0.49715546
0.85285340 0.62855203 0.49676602
0.96906382 0.63196664 0.49630998
0.19348772 0.73974801 0.49544529
0.25180651 0.74010470 0.49538863
0.32927636 0.74070311 0.49529348
0.42368645 0.74163255 0.49514550
0.52726593 0.74291528 0.49494086
0.63600432 0.74456836 0.49467645
0.74782551 0.74660518 0.49434960
0.86159839 0.74903634 0.49395791
0.97666991 0.75187008 0.49349922
0.23448520 0.86235218 0.49207156
0.28548569 0.86265410 0.49201450
0.35618787 0.86316073 0.49191869
0.44506027 0.86394785 0.49176967
0.54453996 0.86503461 0.49156361
0.65027859 0.86643591 0.49129735
0.75986897 0.86816371 0.49096820
0.87194381 0.87022773 0.49057376
0.98569229 0.87263588 0.49011185
0.27573684 0.98506893 0.48809410
0.32080021 0.98532964 0.48803656
0.38539196 0.98576715 0.48793996
0.46883269 0.98644702 0.48778970
0.56405754 0.98738597 0.48758193
0.66656887 0.98859712 0.48731346
0.77370314 0.99009115 0.48698157
0.88387969 0.99187691 0.48658385
0.99613359 0.99396176 0.48611809
0.01875450 0.02925377 0.63077138
0.12933457 0.03158699 0.63072728
0.24267940 0.03550413 0.63065324
0.35925198 0.04159493 0.63053808
0.47701209 0.05001444 0.63037887
0.59532581 0.06088793 0.63017319
0.71393846 0.07432147 0.62991898
0.83272939 0.09038445 0.62961444
0.95163456 0.10720716 0.62925792
0.03041343 0.14311262 0.63039174
0.13788291 0.14473500 0.63034761
0.24797225 0.14742946 0.63027352
0.36296583 0.15154899 0.63015829
0.47982577 0.15711082 0.62999898
0.59756739 0.16408235 0.62979317
0.71578812 0.17239517 0.62953880
0.83429561 0.18195712 0.62923406
0.95298727 0.19266275 0.62887731
0.04998712 0.25759015 0.62975383
0.15144241 0.25860326 0.62970966
0.25664280 0.26029628 0.62963548
0.36912008 0.26290957 0.62952014
0.48451232 0.26648449 0.62936065
0.60131098 0.27103907 0.62915462
0.71888194 0.27657306 0.62889998
0.83691788 0.28307140 0.62859491
0.95525351 0.29050711 0.62823778
0.08042244 0.37668580 0.62876058
0.17090216 0.37739873 0.62871633
0.26963346 0.37859272 0.62864204
0.37849761 0.38044206 0.62852650
0.49170944 0.38298420 0.62836675
0.60708381 0.38624322 0.62816037
0.72366433 0.39023297 0.62790530
0.84097752 0.39495883 0.62759973
0.95876552 0.40041897 0.62724200
0.11812210 0.49752349 0.62738485
0.19526992 0.49806431 0.62734050
0.28671956 0.49897093 0.62726603
0.39110142 0.50037731 0.62715022
0.50148525 0.50231478 0.62699010
0.61497007 0.50480572 0.62678324
0.73021978 0.50786589 0.62652759
0.84655426 0.51150569 0.62622130
0.96359696 0.51573094 0.62586274
0.15712405 0.61918125 0.62560342
0.22349182 0.61961239 0.62555893
0.30750321 0.62033549 0.62548424
0.40681487 0.62145810 0.62536808
0.51382959 0.62300641 0.62520748
0.62500000 0.62500000 0.62500000
0.73859331 0.62745374 0.62474357
0.85369748 0.63037873 0.62443636
0.96979714 0.63378295 0.62407672
0.19703382 0.74128388 0.62339514
0.25465296 0.74163977 0.62335049
0.33151074 0.74223685 0.62327552
0.42543995 0.74316422 0.62315893
0.52867274 0.74444411 0.62299772
0.63716158 0.74609353 0.62278947
0.74879909 0.74812587 0.62253208
0.86243309 0.75055171 0.62222372
0.97739689 0.75337930 0.62186272
0.23751161 0.86365254 0.62073991
0.28803274 0.86395396 0.62069506
0.35826270 0.86445976 0.62061975
0.44673024 0.86524558 0.62050264
0.54590086 0.86633055 0.62034070
0.65140901 0.86772956 0.62013151
0.76082591 0.86945454 0.61987295
0.87276767 0.87151520 0.61956320
0.98641189 0.87391946 0.61920057
0.27836449 0.98619193 0.61761796
0.32308952 0.98645230 0.61757287
0.38731563 0.98688927 0.61749716
0.47041788 0.98756828 0.61737942
0.56536975 0.98850604 0.61721662
0.66767000 0.98971567 0.61700631
0.77464159 0.99120783 0.61674637
0.88469135 0.99299136 0.61643496
0.99684482 0.99507361 0.61607039
0.02671866 0.04167648 0.75676782
0.13521514 0.04400970 0.75673152
0.24630565 0.04792684 0.75667058
0.36179285 0.05401764 0.75657580
0.47893592 0.06243715 0.75644477
0.59685798 0.07331064 0.75627551
0.71520251 0.08689179 0.75606635
0.83379962 0.10168116 0.75581580
0.95255882 0.11744866 0.75552254
0.03837759 0.15160359 0.75645536
0.14351193 0.15315950 0.75641905
0.25153177 0.15574560 0.75635807
0.36548190 0.15970419 0.75626326
0.48173822 0.16505737 0.75613217
0.59909354 0.17178048 0.75596284
0.71704866 0.17981470 0.75575358
0.83536365 0.18907777 0.75550292
0.95391008 0.19947346 0.75520952
0.05795128 0.26294441 0.75593047
0.15670990 0.26393929 0.75589413
0.26009769 0.26560209 0.75583311
0.37159602 0.26816934 0.75573823
0.48640608 0.27168243 0.75560704
0.60282719 0.27616011 0.75543758
0.72013667 0.28160339 0.75522816
0.83798226 0.28799884 0.75497731
0.95617390 0.29532140 0.75468370
0.08846748 0.38046676 0.75511354
0.17571855 0.38117284 0.75507715
0.27294162 0.38235541 0.75501606
0.38091458 0.38418717 0.75492107
0.49357513 0.38670538 0.75478972
0.60858492 0.38993414 0.75462006
0.72491017 0.39388744 0.75441040
0.84203629 0.39857096 0.75415926
0.95968218 0.40398327 0.75386530
0.12436463 0.50039611 0.75398268
0.19961157 0.50093377 0.75394624
0.28985114 0.50183510 0.75388505
0.39344306 0.50323331 0.75378990
0.50331402 0.50515960 0.75365835
0.61645099 0.50763628 0.75348841
0.73145361 0.51067910 0.75327841
0.84760542 0.51429851 0.75302686
0.96450853 0.51850045 0.75273242
0.16225221 0.62147312 0.75251951
0.22738007 0.62190258 0.75248299
0.31044181 0.62262289 0.75242168
0.40906834 0.62374115 0.75232632
0.51561358 0.62528350 0.75219449
0.62645594 0.62726946 0.75202420
0.73981210 0.62971386 0.75181376
0.85473902 0.63262782 0.75156168
0.97070225 0.63601931 0.75126662
0.20134437 0.74317663 0.75070760
0.25813137 0.74353154 0.75067098
0.33425175 0.74412698 0.75060950
0.42759645 0.74505182 0.75051390
0.53040546 0.74632821 0.75038173
0.63858824 0.74797315 0.75021099
0.75000000 0.75000000 0.75000000
0.86346310 0.75241932 0.74974726
0.97829421 0.75523935 0.74945143
0.24120522 0.86525609 0.74853167
0.29115146 0.86555691 0.74849494
0.36081024 0.86606167 0.74843327
0.44878480 0.86684590 0.74833736
0.54757734 0.86792868 0.74820477
0.65280270 0.86932487 0.74803350
0.76200636 0.87104638 0.74782185
0.87378431 0.87310293 0.74756831
0.98730012 0.87550240 0.74727155
0.28158023 0.98757737 0.74597708
0.32589703 0.98783734 0.74594021
0.38967944 0.98827362 0.74587831
0.47236887 0.98895157 0.74578206
0.56698655 0.98988788 0.74564898
0.66902772 0.99109564 0.74547707
0.77579930 0.99258549 0.74526463
0.88569297 0.99436627 0.74501016
0.99772274 0.99644533 0.74471230
0.03625543 0.05655219 0.88276426
0.14202769 0.05888541 0.88273357
0.25058761 0.06280255 0.88268205
0.36481309 0.06889334 0.88260192
0.48122937 0.07731285 0.88249115
0.59868728 0.08827623 0.88234807
0.71671300 0.10061468 0.88217127
0.83507920 0.11426102 0.88195951
0.95366428 0.12898207 0.88171167
0.04791436 0.16132984 0.88250011
0.15004910 0.16281546 0.88246941
0.25573687 0.16528670 0.88241786
0.36847306 0.16907410 0.88233771
0.48401822 0.17420432 0.88222691
0.60091571 0.18066049 0.88208378
0.71855499 0.18839342 0.88190692
0.83664062 0.19733110 0.88169509
0.95501381 0.20738702 0.88144717
0.06748805 0.26923121 0.88205643
0.16284802 0.27020543 0.88202571
0.26418206 0.27183398 0.88197414
0.37454008 0.27434900 0.88189395
0.48866397 0.27779187 0.88178308
0.60463755 0.28218212 0.88163988
0.72163607 0.28752210 0.88146292
0.83925488 0.29380020 0.88125097
0.95727473 0.30099344 0.88100291
0.09731383 0.38494692 0.88136607
0.18135353 0.38564503 0.88133532
0.27685630 0.38681431 0.88128371
0.38378939 0.38862562 0.88120345
0.49579982 0.39111601 0.88109248
0.61037734 0.39430955 0.88094915
0.72639898 0.39822041 0.88077204
0.84330222 0.40285460 0.88055991
0.96077857 0.40821118 0.88031164
0.13157003 0.50381398 0.88041078
0.20471108 0.50434792 0.88038000
0.29356099 0.50524303 0.88032832
0.39622929 0.50663163 0.88024796
0.50549500 0.50854476 0.88013686
0.61821942 0.51100466 0.87999337
0.73292813 0.51402707 0.87981605
0.84886226 0.51762250 0.87960366
0.96559885 0.52179697 0.87935509
0.16823554 0.62420587 0.87917536
0.23196286 0.62463335 0.87914454
0.31392711 0.62535034 0.87909278
0.41175082 0.62646347 0.87901230
0.51774154 0.62799876 0.87890103
0.62819468 0.62997569 0.87875731
0.74126872 0.63240905 0.87857972
0.85598440 0.63530995 0.87836700
0.97178486 0.63868638 0.87811805
0.20640861 0.74543630 0.87764645
0.26224290 0.74579006 0.87761556
0.33750638 0.74638355 0.87756371
0.43016466 0.74730538 0.87748307
0.53247269 0.74857762 0.87737159
0.64029218 0.75021724 0.87722759
0.75143532 0.75223756 0.87704966
0.86469471 0.75464913 0.87683654
0.97936752 0.75746020 0.87658711
0.24556468 0.86717201 0.87581178
0.29484636 0.86747210 0.87578082
0.36383831 0.86797564 0.87572885
0.45123273 0.86875797 0.87564802
0.54957789 0.86983815 0.87553629
0.65446745 0.87123097 0.87539196
0.76341730 0.87294836 0.87521361
0.87500000 0.87500000 0.87500000
0.98836257 0.87739378 0.87474999
0.28538778 0.98923354 0.87365980
0.32922937 0.98949302 0.87362876
0.39249175 0.98992849 0.87357664
0.47469444 0.99060519 0.87349560
0.56891631 0.99153977 0.87338356
0.67064969 0.99274529 0.87323884
0.77718314 0.99423240 0.87306001
0.88689073 0.99600990 0.87284582
0.99877287 0.99808516 0.87259514
0.04741367 0.07395711 1.00000000
0.14971111 0.07629033 1.00000000
0.25551762 0.08020747 1.00000000
0.36831660 0.08646117 1.00000000
0.48389879 0.09439544 1.00000000
0.60082018 0.10408819 1.00000000
0.71847599 0.11533295 1.00000000
0.83657363 0.12791480 1.00000000
0.95495590 0.14163025 1.00000000
0.05907260 0.17217380 1.00000000
0.15744093 0.17358756 1.00000000
0.26058087 0.17594112 1.00000000
0.37194335 0.17955254 1.00000000
0.48667211 0.18445247 1.00000000
0.60304034 0.19063135 1.00000000
0.72031314 0.19804929 1.00000000
0.83813200 0.20664438 1.00000000
0.95630340 0.21633998 1.00000000
0.07864629 0.27642428 1.00000000
0.16981361 0.27737580 1.00000000
0.26889072 0.27896668 1.00000000
0.37795654 0.28142423 1.00000000
0.49129237 0.28478978 1.00000000
0.60674850 0.28908360 1.00000000
0.72338617 0.29430946 1.00000000
0.84074120 0.30045767 1.00000000
0.95856096 0.30750751 1.00000000
0.10708209 0.39012528 1.00000000
0.18777567 0.39081439 1.00000000
0.28137421 0.39196864 1.00000000
0.38712663 0.39375683 1.00000000
0.49838992 0.39621574 1.00000000
0.61246751 0.39936941 1.00000000
0.72813678 0.40323221 1.00000000
0.84478075 0.40781051 1.00000000
0.96205961 0.41310387 1.00000000
0.13966573 0.50778314 1.00000000
0.21054784 0.50831281 1.00000000
0.29784792 0.50920080 1.00000000
0.39946511 0.51057839 1.00000000
0.50803465 0.51247645 1.00000000
0.62028178 0.51491711 1.00000000
0.73464930 0.51791613 1.00000000
0.85033022 0.52148405 1.00000000
0.96687281 0.52562702 1.00000000
0.17503464 0.62738732 1.00000000
0.23722826 0.62781252 1.00000000
0.31795988 0.62852568 1.00000000
0.41486768 0.62963288 1.00000000
0.52021997 0.63116003 1.00000000
0.63022263 0.63312653 1.00000000
0.74296909 0.63554715 1.00000000
0.85743901 0.63843297 1.00000000
0.97304985 0.64179203 1.00000000
0.21220656 0.74807083 1.00000000
0.26698202 0.74842324 1.00000000
0.34127711 0.74901448 1.00000000
0.43315031 0.74993282 1.00000000
0.53488094 0.75120026 1.00000000
0.64227976 0.75283371 1.00000000
0.75311093 0.75484647 1.00000000
0.86613330 0.75724907 1.00000000
0.98062166 0.76004974 1.00000000
0.25058127 0.86940780 1.00000000
0.29911640 0.86970704 1.00000000
0.36735077 0.87020917 1.00000000
0.45408007 0.87098930 1.00000000
0.55190905 0.87206644 1.00000000
0.65640955 0.87345537 1.00000000
0.76506456 0.87516796 1.00000000
0.87642003 0.87721390 1.00000000
0.98960406 0.87960107 1.00000000
0.28978499 0.99116739 1.00000000
0.33308849 0.99142632 1.00000000
0.39575746 0.99186084 1.00000000
0.47740087 0.99253608 1.00000000
0.57116556 0.99346863 1.00000000
0.67254214 0.99467156 1.00000000
0.77879889 0.99615547 1.00000000
0.88828990 0.99792917 1.00000000
1.00000000 1.00000000 1.00000000
