BT601_NTSC_to_BT2020.cube
TITLE "BT601_NTSC_to_BT2020"
LUT_3D_SIZE 33
# BT601 NTSC SDR to BT2020 SDR by Francesco Bucciantini
0.00000000 0.00000000 0.00000000
0.01860169 0.00253886 0.00048476
0.03720339 0.00507773 0.00096952
0.05596386 0.00763826 0.00145842
0.07814761 0.01066603 0.00203653
0.10286241 0.01425746 0.00272226
0.12761295 0.01842919 0.00351880
0.15236349 0.02319634 0.00442902
0.17711403 0.02857278 0.00545557
0.20186456 0.03457136 0.00660092
0.22661510 0.04120407 0.00786734
0.25136564 0.04848213 0.00925699
0.27611618 0.05641615 0.01077188
0.30086672 0.06501614 0.01241392
0.32561726 0.07429162 0.01418495
0.35036780 0.08421896 0.01608668
0.37511834 0.09432018 0.01812078
0.39986888 0.10442140 0.02028882
0.42461942 0.11452262 0.02259235
0.44936996 0.12462384 0.02503280
0.47412050 0.13472506 0.02761161
0.49887104 0.14482628 0.03033014
0.52362158 0.15492750 0.03318970
0.54837212 0.16502872 0.03619156
0.57312266 0.17512994 0.03933698
0.59787320 0.18523116 0.04262714
0.62262374 0.19533238 0.04606322
0.64737428 0.20543360 0.04964635
0.67212482 0.21553482 0.05337764
0.69687535 0.22563604 0.05725816
0.72162589 0.23573726 0.06128897
0.74637643 0.24583848 0.06547110
0.77112697 0.25593970 0.06980554
0.01091606 0.02785948 0.00255974
0.02951775 0.03039834 0.00304450
0.04811945 0.03293721 0.00352926
0.06687992 0.03549774 0.00401816
0.08886371 0.03852551 0.00459627
0.11210962 0.04211694 0.00528200
0.13569174 0.04628867 0.00607854
0.15951298 0.05105582 0.00698876
0.18350939 0.05643226 0.00801531
0.20763738 0.06243084 0.00916066
0.23186644 0.06906355 0.01042708
0.25617458 0.07634161 0.01181672
0.28054566 0.08424244 0.01333161
0.30496755 0.09244602 0.01497366
0.32943102 0.10083819 0.01674469
0.35392887 0.10939525 0.01864642
0.37845548 0.11809686 0.02068052
0.40300634 0.12692555 0.02284856
0.42757784 0.13586628 0.02515208
0.45216703 0.14490611 0.02759254
0.47677150 0.15403385 0.03017135
0.50138923 0.16323983 0.03288988
0.52601855 0.17251564 0.03574943
0.55065806 0.18185397 0.03875130
0.57530656 0.19124843 0.04189671
0.59996304 0.20069342 0.04518688
0.62462661 0.21018405 0.04862296
0.64929655 0.21971598 0.05220609
0.67397218 0.22928540 0.05593738
0.69865295 0.23888892 0.05981790
0.72333836 0.24852353 0.06384871
0.74802798 0.25818657 0.06803084
0.77272142 0.26787563 0.07236527
0.02183212 0.05571896 0.00511948
0.04043381 0.05825782 0.00560424
0.05903551 0.06079668 0.00608900
0.07779598 0.06335722 0.00657790
0.09891247 0.06638498 0.00715601
0.12088707 0.06997642 0.00784174
0.14344454 0.07414815 0.00863827
0.16642888 0.07891530 0.00954849
0.18973269 0.08425823 0.01057505
0.21328046 0.09002551 0.01172040
0.23701791 0.09616218 0.01298682
0.26090528 0.10263571 0.01437646
0.28491288 0.10941531 0.01589135
0.30901816 0.11647230 0.01753340
0.33320375 0.12378019 0.01930442
0.35745607 0.13131482 0.02120616
0.38176437 0.13905424 0.02324025
0.40612003 0.14697863 0.02540830
0.43051609 0.15507018 0.02771182
0.45494687 0.16331287 0.03015228
0.47940766 0.17169239 0.03273109
0.50389458 0.18019592 0.03544962
0.52840435 0.18881198 0.03830917
0.55293422 0.19753032 0.04131104
0.57748186 0.20634175 0.04445645
0.60204527 0.21523806 0.04774662
0.62662274 0.22421188 0.05118269
0.65121280 0.23325659 0.05476583
0.67581416 0.24236626 0.05849711
0.70042571 0.25153554 0.06237764
0.72504648 0.26075962 0.06640845
0.74967559 0.27003414 0.07059057
0.77431231 0.27935519 0.07492501
0.03284135 0.08379153 0.00770107
0.05144305 0.08626676 0.00818583
0.07004474 0.08870228 0.00867059
0.08861779 0.09112014 0.00915948
0.10845262 0.09393163 0.00973759
0.12932621 0.09720302 0.01042333
0.15096844 0.10092133 0.01121986
0.17318783 0.10506958 0.01213008
0.19584748 0.10962785 0.01315664
0.21884830 0.11457419 0.01430198
0.24211747 0.11988551 0.01556841
0.26560067 0.12553821 0.01695805
0.28925677 0.13150878 0.01847294
0.31305420 0.13777427 0.02011499
0.33696838 0.14431254 0.02188601
0.36097997 0.15110255 0.02378775
0.38507356 0.15812447 0.02582184
0.40923673 0.16535976 0.02798989
0.43345939 0.17279120 0.03029341
0.45773328 0.18040289 0.03273387
0.48205155 0.18818016 0.03531268
0.50640850 0.19610960 0.03803120
0.53079933 0.20417888 0.04089076
0.55522001 0.21237677 0.04389263
0.57966710 0.22069301 0.04703804
0.60413765 0.22911824 0.05032820
0.62862914 0.23764392 0.05376428
0.65313938 0.24626229 0.05734741
0.67766647 0.25496626 0.06107870
0.70220876 0.26374938 0.06495923
0.72676481 0.27260575 0.06899004
0.75133333 0.28152999 0.07317216
0.77591320 0.29051721 0.07750660
0.04585948 0.11347563 0.01075372
0.06446117 0.11554038 0.01123848
0.08304914 0.11758116 0.01172324
0.10054896 0.11961586 0.01221214
0.11908436 0.12199240 0.01279025
0.13883820 0.12477154 0.01347599
0.15952302 0.12794774 0.01427252
0.18092465 0.13151209 0.01518274
0.20288396 0.13545295 0.01620930
0.22528218 0.13975649 0.01735464
0.24802994 0.14440732 0.01862106
0.27105927 0.14938892 0.02001071
0.29431792 0.15468410 0.02152560
0.31776526 0.16027540 0.02316765
0.34136935 0.16614537 0.02493867
0.36510481 0.17227683 0.02684040
0.38895128 0.17865306 0.02887450
0.41289228 0.18525800 0.03104255
0.43691432 0.19207627 0.03334607
0.46100631 0.19909329 0.03578653
0.48515904 0.20629532 0.03836534
0.50936478 0.21366946 0.04108386
0.53361706 0.22120363 0.04394342
0.55791038 0.22888657 0.04694529
0.58224005 0.23670784 0.05009070
0.60660206 0.24465771 0.05338086
0.63099296 0.25272719 0.05681694
0.65540975 0.26090795 0.06040007
0.67984983 0.26919232 0.06413136
0.70431093 0.27757317 0.06801188
0.72879106 0.28604394 0.07204270
0.75328847 0.29459858 0.07622482
0.77780161 0.30323149 0.08055926
0.06130114 0.14315973 0.01437468
0.07990283 0.14492247 0.01485944
0.09759101 0.14666981 0.01534420
0.11365918 0.14841682 0.01583310
0.13092749 0.15046338 0.01641121
0.14955093 0.15286467 0.01709695
0.16924207 0.15561933 0.01789348
0.18977603 0.15872327 0.01880370
0.21097904 0.16217005 0.01983026
0.23271726 0.16595128 0.02097560
0.25488738 0.17005696 0.02224202
0.27740921 0.17447585 0.02363167
0.30022001 0.17919575 0.02514656
0.32327037 0.18420381 0.02678861
0.34652095 0.18948676 0.02855963
0.36994021 0.19503114 0.03046136
0.39350264 0.20082348 0.03249546
0.41718744 0.20685047 0.03466351
0.44097749 0.21309909 0.03696703
0.46485863 0.21955667 0.03940749
0.48881904 0.22621102 0.04198630
0.51284883 0.23305042 0.04470482
0.53693960 0.24006373 0.04756438
0.56108424 0.24724033 0.05056625
0.58527668 0.25457020 0.05371166
0.60951169 0.26204386 0.05700182
0.63378477 0.26965242 0.06043790
0.65809201 0.27738751 0.06402103
0.68243000 0.28524129 0.06775232
0.70679577 0.29320642 0.07163284
0.73118671 0.30127603 0.07566366
0.75560051 0.30944373 0.07984578
0.78003515 0.31770353 0.08414890
0.07923785 0.17284383 0.01858072
0.09699177 0.17437604 0.01906548
0.11298469 0.17589784 0.01955024
0.12774533 0.17742228 0.02003914
0.14381104 0.17921174 0.02061724
0.16132660 0.18131629 0.02130298
0.18001750 0.18373693 0.02209951
0.19965867 0.18647244 0.02300973
0.22006939 0.18951967 0.02403629
0.24110595 0.19287379 0.02518163
0.26265449 0.19652851 0.02644806
0.28462470 0.20047637 0.02783770
0.30694468 0.20470887 0.02935259
0.32955691 0.20921676 0.03099464
0.35241506 0.21399018 0.03276566
0.37548155 0.21901883 0.03466740
0.39872574 0.22429217 0.03670149
0.42212243 0.22979952 0.03886954
0.44565078 0.23553017 0.04117306
0.46929341 0.24147352 0.04361352
0.49303579 0.24761913 0.04619233
0.51686564 0.25395681 0.04891085
0.54077256 0.26047664 0.05177041
0.56474769 0.26716907 0.05477228
0.58878344 0.27402488 0.05791769
0.61287324 0.28103526 0.06120785
0.63701146 0.28819178 0.06464393
0.66119316 0.29548643 0.06822706
0.68541406 0.30291158 0.07195835
0.70967041 0.31046002 0.07583888
0.73395888 0.31812491 0.07986969
0.75827658 0.32589979 0.08402293
0.78262091 0.33377858 0.08821833
0.09869364 0.20252793 0.02338706
0.11453249 0.20387898 0.02387182
0.12905282 0.20522271 0.02435658
0.14263491 0.20657061 0.02484548
0.15757997 0.20815516 0.02542359
0.17403276 0.21002185 0.02610932
0.19173984 0.21217302 0.02690586
0.21048406 0.21460920 0.02781608
0.23008449 0.21732931 0.02884263
0.25039268 0.22033085 0.02998798
0.27128788 0.22361009 0.03125440
0.29267221 0.22716219 0.03264405
0.31446628 0.23098137 0.03415893
0.33660555 0.23506108 0.03580098
0.35903736 0.23939410 0.03757201
0.38171854 0.24397271 0.03947374
0.40461351 0.24878879 0.04150784
0.42769279 0.25383393 0.04367588
0.45093180 0.25909954 0.04597941
0.47430995 0.26457692 0.04841986
0.49780989 0.27025739 0.05099867
0.52141692 0.27613228 0.05371720
0.54511853 0.28219306 0.05657676
0.56890400 0.28843135 0.05957862
0.59276414 0.29483897 0.06272404
0.61669099 0.30140796 0.06601420
0.64067765 0.30813063 0.06945028
0.66471812 0.31499955 0.07303341
0.68880714 0.32200756 0.07676470
0.71294012 0.32914784 0.08064522
0.73711298 0.33641380 0.08463434
0.76132214 0.34379919 0.08866820
0.78556442 0.35129804 0.09274024
0.11816587 0.23221203 0.02880771
0.13241051 0.23341735 0.02929247
0.14565770 0.23461735 0.02977723
0.15818521 0.23582228 0.03026613
0.17209856 0.23724028 0.03084423
0.18754740 0.23891286 0.03152997
0.20430349 0.24084308 0.03232650
0.22216318 0.24303253 0.03323672
0.24095063 0.24548146 0.03426328
0.26051719 0.24818892 0.03540862
0.28073877 0.25115289 0.03667505
0.30151254 0.25437038 0.03806469
0.32275352 0.25783758 0.03957958
0.34439151 0.26154994 0.04122163
0.36636844 0.26550225 0.04299265
0.38863614 0.26968880 0.04489439
0.41115450 0.27410342 0.04692848
0.43388998 0.27873957 0.04909653
0.45681443 0.28359046 0.05140005
0.47990408 0.28864909 0.05384051
0.50313880 0.29390833 0.05641932
0.52650145 0.29936098 0.05913784
0.54997736 0.30499981 0.06199740
0.57355394 0.31081766 0.06499927
0.59722030 0.31680740 0.06814468
0.62096704 0.32296203 0.07143484
0.64478596 0.32927470 0.07487092
0.66866990 0.33573868 0.07845405
0.69261260 0.34234748 0.08217970
0.71660854 0.34909474 0.08598682
0.74065285 0.35597437 0.08984268
0.76474124 0.36298044 0.09374427
0.78886986 0.37010729 0.09768876
0.13763810 0.26189613 0.03485561
0.15054953 0.26298192 0.03534037
0.16269282 0.26406376 0.03582513
0.17427989 0.26515085 0.03631403
0.18725067 0.26643122 0.03689214
0.20176129 0.26794288 0.03757787
0.21761003 0.26968930 0.03837440
0.23460989 0.27167269 0.03928462
0.25259402 0.27389414 0.04031118
0.27141720 0.27635373 0.04145653
0.29095516 0.27905061 0.04272295
0.31110264 0.28198312 0.04411259
0.33177101 0.28514883 0.04562748
0.35288588 0.28854467 0.04726953
0.37438481 0.29216697 0.04904055
0.39621539 0.29601154 0.05094229
0.41833352 0.30007374 0.05297638
0.44070198 0.30434858 0.05514443
0.46328926 0.30883072 0.05744795
0.48606860 0.31351459 0.05988841
0.50901716 0.31839442 0.06246722
0.53211540 0.32346430 0.06518575
0.55534652 0.32871821 0.06804530
0.57869602 0.33415008 0.07104717
0.60215134 0.33975384 0.07419258
0.62570157 0.34552342 0.07748275
0.64933718 0.35145282 0.08091882
0.67304983 0.35753610 0.08446409
0.69683219 0.36376742 0.08807218
0.72067780 0.37014106 0.09173663
0.74458095 0.37665144 0.09545417
0.76853656 0.38329310 0.09922173
0.79254013 0.39006076 0.10303642
0.15711034 0.29158023 0.04154285
0.16889360 0.29256640 0.04202761
0.18007574 0.29354955 0.04251237
0.19082484 0.29453805 0.04300127
0.20293834 0.29570303 0.04357938
0.21657864 0.29707947 0.04426511
0.23156987 0.29867102 0.04506164
0.24774316 0.30048025 0.04597186
0.26494306 0.30250878 0.04699842
0.28303055 0.30475737 0.04814377
0.30188377 0.30722600 0.04941019
0.32139727 0.30991390 0.05079983
0.34148063 0.31281969 0.05231472
0.36205670 0.31594136 0.05395677
0.38305983 0.31927639 0.05572779
0.40443421 0.32282177 0.05762953
0.42613236 0.32657407 0.05966362
0.44811385 0.33052948 0.06183167
0.47034414 0.33468387 0.06413519
0.49279369 0.33903285 0.06657565
0.51543713 0.34357179 0.06915446
0.53825262 0.34829588 0.07187299
0.56122128 0.35320015 0.07473254
0.58432674 0.35827954 0.07773441
0.60755479 0.36352892 0.08087982
0.63089299 0.36894310 0.08413887
0.65433048 0.37451690 0.08747166
0.67785771 0.38024513 0.09087136
0.70146626 0.38612265 0.09433442
0.72514870 0.39214437 0.09785746
0.74889843 0.39830526 0.10143725
0.77270961 0.40460038 0.10507076
0.79657701 0.41102492 0.10875510
0.17658257 0.32126433 0.04888075
0.18740107 0.32216632 0.04936551
0.19774224 0.32306595 0.04985027
0.20774406 0.32397090 0.05033917
0.21907964 0.32503793 0.05091728
0.23191651 0.32629937 0.05160301
0.24610292 0.32775893 0.05239955
0.26148829 0.32941936 0.05330977
0.27792990 0.33128264 0.05433632
0.29529681 0.33334997 0.05548167
0.31347152 0.33562188 0.05674809
0.33235034 0.33809826 0.05813774
0.35184267 0.34077846 0.05965263
0.37187001 0.34366127 0.06129467
0.39236460 0.34674503 0.06306570
0.41326810 0.35002764 0.06496743
0.43453036 0.35350658 0.06700153
0.45610823 0.35717900 0.06916958
0.47796456 0.36104175 0.07147310
0.50006730 0.36509136 0.07391356
0.52238877 0.36932417 0.07649237
0.54490495 0.37373628 0.07921089
0.56759502 0.37832365 0.08206549
0.59044082 0.38308208 0.08502121
0.61342648 0.38800726 0.08805735
0.63653811 0.39309481 0.09117016
0.65976350 0.39834029 0.09435598
0.68309189 0.40373924 0.09761131
0.70651378 0.40928715 0.10093275
0.73002075 0.41497955 0.10431707
0.75360531 0.42081200 0.10776115
0.77726080 0.42678007 0.11126202
0.80098126 0.43287940 0.11481685
0.19605480 0.35094843 0.05688000
0.20604043 0.35177843 0.05736476
0.21564205 0.35260657 0.05784952
0.22497619 0.35343990 0.05833842
0.23560636 0.35442288 0.05891653
0.24770375 0.35558549 0.05960226
0.26113846 0.35693142 0.06039880
0.27577752 0.35846352 0.06130902
0.29149140 0.36018396 0.06233557
0.30815835 0.36209424 0.06348092
0.32566672 0.36419527 0.06474734
0.34391602 0.36648741 0.06613699
0.36281691 0.36897053 0.06765188
0.38229075 0.37164403 0.06929392
0.40226873 0.37450688 0.07106495
0.42269087 0.37755767 0.07296668
0.44350502 0.38079461 0.07500078
0.46466588 0.38421560 0.07716882
0.48613411 0.38781823 0.07947235
0.50787549 0.39159984 0.08190864
0.52986026 0.39555752 0.08445397
0.55206248 0.39968815 0.08709134
0.57445945 0.40398845 0.08981719
0.59703135 0.40845496 0.09262796
0.61976074 0.41308411 0.09552015
0.64263231 0.41787220 0.09849031
0.66563254 0.42281548 0.10153508
0.68874949 0.42791010 0.10465120
0.71197257 0.43315220 0.10783548
0.73529236 0.43853787 0.11108486
0.75870050 0.44406319 0.11439637
0.78218949 0.44972427 0.11776717
0.80575264 0.45551719 0.12119450
0.21552703 0.38063253 0.06555070
0.22478755 0.38140034 0.06603546
0.23373543 0.38216665 0.06652022
0.24247149 0.38293800 0.06700912
0.25246176 0.38384815 0.06758723
0.26387961 0.38492504 0.06827296
0.27661454 0.38617226 0.06906950
0.29055001 0.38759272 0.06997972
0.30556955 0.38918868 0.07100627
0.32156112 0.39096183 0.07215162
0.33841985 0.39291333 0.07341804
0.35604957 0.39504390 0.07480768
0.37436335 0.39735377 0.07632257
0.39328347 0.39984279 0.07796462
0.41274102 0.40251042 0.07973565
0.43267519 0.40535577 0.08163420
0.45303251 0.40837761 0.08364917
0.47376609 0.41157444 0.08576738
0.49483485 0.41494444 0.08798596
0.51620278 0.41848558 0.09030191
0.53783831 0.42219559 0.09271215
0.55971376 0.42607198 0.09521357
0.58180481 0.43011210 0.09780302
0.60409003 0.43431314 0.10047734
0.62655055 0.43867212 0.10323338
0.64916969 0.44318598 0.10606803
0.67193268 0.44785153 0.10897822
0.69482643 0.45266551 0.11196094
0.71783930 0.45762460 0.11501324
0.74096088 0.46272541 0.11813225
0.76418193 0.46796454 0.12131518
0.78749413 0.47333855 0.12455933
0.81089004 0.47884399 0.12786207
0.23499926 0.41031663 0.07490245
0.24362364 0.41103022 0.07538721
0.25199073 0.41174260 0.07587197
0.26018949 0.41245983 0.07636087
0.26959863 0.41330635 0.07693897
0.28039238 0.41430826 0.07762471
0.29247723 0.41546906 0.07842124
0.30575163 0.41679163 0.07933146
0.32011162 0.41827829 0.08035802
0.33545498 0.41993085 0.08150048
0.35168414 0.42175065 0.08275932
0.36870801 0.42373862 0.08412852
0.38644293 0.42589528 0.08560702
0.40481301 0.42822082 0.08719348
0.42375004 0.43071506 0.08888626
0.44319312 0.43337750 0.09068349
0.46308813 0.43620737 0.09258310
0.48338712 0.43920361 0.09458281
0.50404771 0.44236490 0.09668022
0.52503247 0.44568971 0.09887279
0.54630834 0.44917627 0.10115788
0.56784615 0.45282264 0.10353281
0.58962009 0.45662667 0.10599480
0.61160735 0.46058609 0.10854108
0.63378770 0.46469845 0.11116883
0.65614321 0.46896120 0.11387528
0.67865791 0.47337168 0.11665763
0.70131762 0.47792711 0.11951313
0.72410966 0.48262467 0.12243908
0.74702271 0.48746144 0.12543282
0.77004662 0.49243446 0.12849174
0.79317229 0.49754074 0.13161331
0.81639153 0.50277724 0.13479504
0.25447149 0.44000073 0.08489643
0.26253392 0.44066668 0.08536872
0.27038255 0.44133163 0.08583953
0.27809709 0.44200125 0.08631289
0.28697763 0.44279175 0.08687073
0.29719810 0.44372758 0.08752977
0.30867972 0.44481217 0.08829176
0.32133447 0.44604832 0.08915790
0.33507007 0.44743837 0.09012893
0.34979388 0.44898420 0.09120520
0.36541585 0.45068725 0.09238666
0.38185046 0.45254863 0.09367292
0.39901794 0.45456907 0.09506326
0.41684492 0.45674897 0.09655671
0.43526460 0.45908845 0.09815202
0.45421661 0.46158732 0.09984771
0.47364676 0.46424515 0.10164211
0.49350657 0.46706124 0.10353335
0.51375279 0.47003466 0.10551944
0.53434695 0.47316428 0.10759823
0.55525480 0.47644875 0.10976749
0.57644593 0.47988655 0.11202487
0.59789328 0.48347599 0.11436798
0.61957277 0.48721521 0.11679438
0.64146299 0.49110224 0.11930158
0.66354484 0.49513495 0.12188710
0.68580126 0.49931111 0.12454842
0.70821702 0.50362841 0.12728305
0.73077847 0.50808442 0.13008853
0.75347339 0.51267666 0.13296241
0.77629078 0.51740257 0.13590227
0.79922076 0.52225955 0.13890575
0.82225442 0.52724494 0.14197054
0.27394372 0.46968483 0.09503494
0.28150664 0.47030862 0.09547737
0.28889029 0.47093158 0.09591857
0.29616705 0.47155901 0.09636231
0.30456583 0.47229985 0.09688543
0.31425933 0.47317709 0.09750374
0.32518148 0.47419401 0.09821900
0.33725629 0.47535338 0.09903247
0.35040222 0.47665751 0.09994506
0.36453581 0.47810831 0.10095725
0.37957447 0.47970730 0.10206922
0.39543849 0.48145569 0.10328080
0.41205241 0.48335435 0.10459157
0.42934591 0.48540388 0.10600083
0.44725412 0.48760460 0.10750765
0.46571780 0.48995656 0.10911087
0.48468318 0.49245959 0.11080917
0.50410170 0.49511328 0.11260102
0.52392969 0.49791702 0.11448477
0.54412797 0.50086998 0.11645861
0.56466141 0.50397118 0.11852065
0.58549862 0.50721943 0.12066888
0.60661149 0.51061341 0.12290123
0.62797490 0.51415164 0.12521555
0.64956634 0.51783249 0.12760967
0.67136569 0.52165424 0.13008136
0.69335489 0.52561502 0.13262838
0.71551775 0.52971290 0.13524849
0.73783971 0.53394582 0.13793945
0.76030768 0.53831166 0.14069902
0.78290986 0.54280822 0.14352499
0.80563562 0.54743326 0.14641516
0.82847533 0.55218447 0.14936739
0.29341595 0.49936893 0.10517345
0.30053233 0.49995517 0.10558928
0.30749716 0.50054071 0.10600407
0.31437686 0.50113054 0.10642138
0.32233563 0.50182709 0.10691350
0.33154421 0.50265204 0.10749538
0.34194743 0.50360855 0.10816877
0.35347993 0.50469931 0.10893503
0.36606997 0.50592660 0.10979510
0.37964268 0.50729233 0.11074962
0.39412270 0.50879806 0.11179892
0.40943621 0.51044509 0.11294302
0.42551231 0.51223438 0.11418171
0.44228405 0.51416666 0.11551453
0.45968897 0.51624241 0.11694079
0.47766938 0.51846187 0.11845963
0.49617237 0.52082508 0.12006998
0.51514975 0.52333186 0.12177062
0.53455776 0.52598182 0.12356018
0.55435686 0.52877443 0.12543716
0.57451136 0.53170895 0.12739995
0.59498912 0.53478451 0.12944683
0.61576121 0.53800006 0.13157601
0.63680162 0.54135445 0.13378564
0.65808695 0.54484636 0.13607379
0.67959615 0.54847437 0.13843850
0.70131027 0.55223697 0.14087777
0.72321224 0.55613250 0.14338960
0.74528666 0.56015926 0.14597195
0.76751965 0.56431544 0.14862280
0.78989864 0.56859916 0.15134011
0.81241227 0.57300848 0.15412189
0.83505026 0.57754139 0.15696613
0.31288818 0.52905303 0.11531196
0.31960329 0.52960563 0.11570395
0.32618935 0.53015765 0.11609508
0.33270776 0.53071377 0.11648866
0.34026375 0.53137060 0.11695293
0.34902550 0.53214863 0.11750206
0.35894718 0.53305091 0.11813780
0.36997278 0.53408004 0.11886149
0.38203937 0.53523825 0.11967418
0.39508005 0.53652745 0.12057658
0.40902639 0.53794922 0.12156914
0.42381032 0.53950488 0.12265203
0.43936563 0.54119549 0.12382522
0.45562900 0.54302187 0.12508842
0.47254065 0.54498462 0.12644117
0.49004480 0.54708412 0.12788281
0.50808979 0.54932057 0.12941252
0.52662811 0.55169396 0.13102932
0.54561631 0.55420412 0.13273208
0.56501478 0.55685071 0.13451956
0.58478752 0.55963324 0.13639040
0.60490191 0.56255104 0.13834315
0.62532842 0.56560335 0.14037625
0.64604031 0.56878924 0.14248810
0.66701345 0.57210768 0.14467702
0.68822600 0.57555751 0.14694127
0.70965823 0.57913748 0.14927909
0.73129228 0.58284623 0.15168867
0.75311200 0.58668232 0.15416819
0.77510277 0.59064422 0.15671582
0.79725130 0.59473032 0.15932972
0.81954557 0.59893897 0.16200803
0.84197463 0.60326842 0.16474894
0.33236041 0.55873713 0.12545047
0.33871323 0.55925945 0.12582100
0.34495538 0.55978126 0.12619079
0.35114408 0.56030702 0.12656298
0.35833051 0.56092805 0.12700213
0.36667989 0.56166378 0.12752168
0.37615440 0.56251713 0.12812336
0.38670619 0.56349063 0.12880855
0.39828022 0.56458646 0.12957830
0.41081693 0.56580649 0.13043341
0.42425437 0.56715232 0.13137440
0.43853010 0.56862528 0.13240159
0.45358253 0.57022649 0.13351505
0.46935210 0.57195684 0.13471466
0.48578195 0.57381700 0.13600014
0.50281846 0.57580748 0.13737099
0.52041151 0.57792860 0.13882660
0.53851461 0.58018049 0.14036619
0.55708486 0.58256314 0.14198884
0.57608288 0.58507639 0.14369353
0.59547264 0.58771991 0.14547912
0.61522124 0.59049325 0.14734437
0.63529874 0.59339584 0.14928796
0.65567791 0.59642698 0.15130849
0.67633400 0.59958584 0.15340450
0.69724453 0.60287150 0.15557446
0.71838909 0.60628293 0.15781681
0.73974915 0.60981903 0.16012995
0.76130787 0.61347857 0.16251223
0.78304996 0.61726027 0.16496201
0.80496149 0.62116278 0.16747762
0.82702980 0.62518466 0.17005738
0.84924335 0.62932442 0.17269960
0.35183264 0.58842123 0.13558898
0.35785693 0.58891615 0.13594009
0.36378572 0.58941064 0.13629056
0.36967260 0.58990890 0.13664338
0.37651918 0.59049753 0.13705975
0.38448738 0.59119493 0.13755248
0.39354623 0.59200395 0.13812325
0.40365499 0.59292702 0.13877343
0.41476570 0.59396626 0.13950413
0.42682544 0.59512352 0.14031617
0.43977833 0.59640038 0.14121015
0.45356726 0.59779819 0.14218646
0.46813523 0.59931808 0.14324530
0.48342643 0.60096100 0.14438667
0.49938705 0.60272771 0.14561041
0.51596583 0.60461877 0.14691621
0.53311442 0.60663460 0.14830358
0.55078758 0.60877547 0.14977194
0.56894324 0.61104148 0.15132053
0.58754248 0.61343259 0.15294854
0.60654945 0.61594865 0.15465499
0.62593122 0.61858937 0.15643885
0.64565764 0.62135433 0.15829899
0.66570111 0.62424301 0.16023419
0.68603644 0.62725477 0.16224320
0.70664064 0.63038890 0.16432467
0.72749276 0.63364455 0.16647722
0.74857368 0.63702081 0.16869942
0.76986596 0.64051668 0.17098983
0.79135370 0.64413108 0.17334694
0.81302241 0.64786286 0.17576925
0.83485884 0.65171079 0.17825524
0.85685088 0.65567361 0.18080337
0.37130487 0.61810533 0.14572749
0.37703005 0.61857536 0.14606095
0.38267233 0.61904501 0.14639386
0.38828216 0.61951829 0.14672906
0.39481548 0.62007744 0.14712470
0.40243073 0.62073999 0.14759300
0.41110277 0.62150867 0.14813560
0.42079709 0.62238584 0.14875386
0.43147198 0.62337355 0.14944890
0.44308056 0.62447361 0.15022158
0.45557257 0.62568760 0.15107254
0.46889592 0.62701684 0.15200225
0.48299802 0.62846251 0.15301099
0.49782681 0.63002558 0.15409887
0.51333158 0.63170684 0.15526583
0.52946355 0.63350694 0.15651168
0.54617630 0.63542636 0.15783609
0.56342605 0.63746546 0.15923859
0.58117175 0.63962445 0.16071862
0.59937518 0.64190340 0.16227547
0.61800086 0.64430227 0.16390837
0.63701602 0.64682092 0.16561644
0.65639045 0.64945906 0.16739872
0.67609640 0.65221632 0.16925416
0.69610836 0.65509223 0.17118166
0.71640298 0.65808622 0.17318007
0.73695884 0.66119762 0.17524815
0.75775635 0.66442570 0.17738465
0.77877757 0.66776962 0.17958827
0.80000608 0.67122849 0.18185768
0.82142686 0.67480133 0.18419150
