BT601_NTSC-J_to_BT601_NTSC.cube
TITLE "BT601_NTSC-J_to_BT601_NTSC_v3"
LUT_3D_SIZE 9
# BT601 NTSC-J Japan (1953) to BT601 NTSC SMPTE C (1987) standard (smpte170m) by Francesco Bucciantini
0.00000000 0.00000000 0.00000000
0.17446044 0.00000000 0.00000000
0.32706113 0.00000000 0.00000000
0.47966182 0.00000000 0.00000000
0.63226252 0.00000000 0.00000000
0.78486321 0.00000000 0.00000000
0.93746390 0.00000000 0.00000000
1.00000000 0.00000000 0.00000000
1.00000000 0.00000000 0.00000000
0.00000000 0.12587691 0.00000000
0.13435238 0.12018921 0.00000000
0.30511327 0.11021207 0.00000000
0.46480549 0.09342681 0.00000000
0.62117438 0.06722182 0.00000000
0.77609612 0.03306912 0.00000000
0.93026072 0.00000000 0.00000000
1.00000000 0.00000000 0.00000000
1.00000000 0.00000000 0.00000000
0.00000000 0.25136626 0.00000000
0.04177804 0.24809060 0.00000000
0.26457134 0.24250462 0.00000000
0.43872678 0.23359007 0.00000000
0.60207468 0.22076352 0.00000000
0.76113104 0.20320442 0.00000000
0.91802707 0.17961942 0.00000000
1.00000000 0.14769074 0.00000000
1.00000000 0.10232482 0.00000000
0.00000000 0.37685561 0.00000000
0.00000000 0.37460879 0.00000000
0.18734115 0.37080711 0.00000000
0.39479031 0.36482003 0.00000000
0.57104440 0.35638491 0.00000000
0.73720821 0.34520022 0.00000000
0.89863937 0.33088805 0.00000000
1.00000000 0.31294395 0.00000000
1.00000000 0.29065420 0.00000000
0.00000000 0.50234496 0.00000000
0.00000000 0.50065910 0.00000000
0.00732239 0.49781568 0.00000000
0.32472109 0.49336123 0.00000000
0.52500927 0.48713544 0.00000000
0.70269150 0.47897343 0.00000000
0.87105524 0.46869101 0.00000000
1.00000000 0.45607057 0.00000000
1.00000000 0.44084412 0.00000000
0.00000000 0.62783430 0.00000000
0.00000000 0.62649783 0.00000000
0.00000000 0.62424728 0.00000000
0.20464417 0.62073077 0.00000000
0.45857424 0.61583494 0.00000000
0.65522823 0.60945084 0.00000000
0.83394593 0.60146526 0.00000000
1.00000000 0.59175396 0.00000000
1.00000000 0.58017533 0.00000000
0.00000000 0.75332365 0.00000000
0.00000000 0.75222395 0.00000000
0.00000000 0.75037378 0.00000000
0.00000000 0.74748712 0.00000000
0.35995506 0.74347687 0.00000000
0.59100418 0.73826300 0.00000000
0.78544720 0.73176625 0.00000000
0.96495039 0.72390402 0.00000000
1.00000000 0.71458686 0.00000000
0.00000000 0.87881300 0.00000000
0.00000000 0.87788344 0.00000000
0.00000000 0.87632040 0.00000000
0.00000000 0.87388391 0.00000000
0.18787906 0.87050354 0.00000000
0.50288367 0.86611649 0.00000000
0.72271311 0.86066266 0.00000000
0.91566616 0.85408166 0.00000000
1.00000000 0.84631053 0.00000000
0.00000000 1.00000000 0.00000000
0.00000000 1.00000000 0.00000000
0.00000000 1.00000000 0.00000000
0.00000000 1.00000000 0.00000000
0.00000000 0.99714180 0.00000000
0.37382872 0.99336852 0.00000000
0.64093264 0.98868474 0.00000000
0.85400528 0.98304347 0.00000000
1.00000000 0.97639707 0.00000000
0.00000000 0.00618359 0.13109779
0.16681389 0.00000000 0.12874769
0.32266196 0.00000000 0.12473413
0.47664527 0.00000000 0.11831252
0.62999938 0.00000000 0.10903372
0.78306920 0.00000000 0.09624453
0.93598777 0.00000000 0.07864470
1.00000000 0.00000000 0.05697387
1.00000000 0.00000000 0.03161849
0.00000000 0.13054279 0.12739769
0.12500000 0.12500000 0.12500000
0.30041660 0.11529747 0.12090253
0.46169091 0.09904296 0.11433925
0.61886843 0.07340540 0.10483792
0.77428007 0.03925270 0.09170173
0.92877194 0.00000000 0.07371365
1.00000000 0.00000000 0.05204282
1.00000000 0.00000000 0.02668744
0.00000000 0.25410136 0.12101384
0.02928552 0.25085701 0.11852979
0.25921664 0.24532593 0.11427961
0.43542535 0.23650320 0.10745733
0.59969143 0.22381862 0.09754603
0.75927621 0.20647534 0.08376242
0.91651634 0.18322719 0.06543512
1.00000000 0.15186707 0.04376429
1.00000000 0.10764791 0.01840891
0.00000000 0.37874140 0.11061168
0.00000000 0.37650547 0.10797404
0.18012522 0.37272248 0.10345100
0.39112349 0.36676552 0.09616195
0.56852501 0.35837433 0.08550101
0.73528815 0.34725072 0.07066008
0.89709261 0.33302184 0.05256276
1.00000000 0.31519121 0.03089192
1.00000000 0.29305852 0.00553654
0.00000000 0.50376297 0.09509688
0.00000000 0.50208197 0.09219509
0.00000000 0.49924682 0.08719852
0.32029186 0.49480550 0.07885721
0.52225980 0.48859843 0.06751467
0.70066964 0.48046165 0.05286618
0.86945446 0.47021214 0.03476886
1.00000000 0.45763394 0.01309803
1.00000000 0.44246138 0.00000000
0.00000000 0.62895967 0.07250272
0.00000000 0.62762572 0.06935948
0.00000000 0.62537945 0.06408241
0.19794053 0.62186970 0.05587705
0.45541680 0.61698339 0.04453450
0.65304931 0.61061194 0.02988602
0.83226683 0.60264252 0.01178869
1.00000000 0.59295144 0.00000000
1.00000000 0.58139776 0.00000000
0.00000000 0.75425022 0.04411211
0.00000000 0.75315197 0.04096886
0.00000000 0.75130428 0.03569179
0.00000000 0.74842149 0.02748643
0.35594202 0.74441667 0.01614388
0.58857393 0.73920994 0.00149540
0.78365464 0.73272225 0.00000000
0.96352081 0.72487117 0.00000000
1.00000000 0.71556755 0.00000000
0.00000000 0.87959651 0.01011545
0.00000000 0.87866786 0.00697220
0.00000000 0.87710635 0.00169513
0.00000000 0.87467227 0.00000000
0.18068014 0.87129526 0.00000000
0.50000952 0.86691260 0.00000000
0.72075147 0.86146430 0.00000000
0.91415112 0.85489007 0.00000000
1.00000000 0.84712706 0.00000000
0.00000000 1.00000000 0.00000000
0.00000000 1.00000000 0.00000000
0.00000000 1.00000000 0.00000000
0.00000000 1.00000000 0.00000000
0.00000000 0.99782329 0.00000000
0.36996046 0.99405288 0.00000000
0.63870198 0.98937270 0.00000000
0.85236936 0.98373581 0.00000000
1.00000000 0.97709464 0.00000000
0.00000000 0.01656496 0.25950057
0.15333409 0.00923652 0.25813911
0.31514753 0.00000000 0.25583903
0.47153700 0.00000000 0.25222598
0.62618046 0.00000000 0.24715543
0.78004725 0.00000000 0.24046951
0.93350376 0.00000000 0.23198041
1.00000000 0.00000000 0.22145121
1.00000000 0.00000000 0.20856826
0.00000000 0.13812553 0.25736190
0.10812427 0.13280421 0.25599041
0.29237609 0.12351828 0.25367318
0.45641388 0.10805706 0.25003267
0.61497658 0.08401261 0.24492251
0.77122076 0.04963407 0.23818232
0.92626654 0.00744046 0.22962076
1.00000000 0.00000000 0.21899564
1.00000000 0.00000000 0.20598524
0.00000000 0.25863587 0.25373568
0.00831234 0.25544222 0.25234685
0.25000000 0.25000000 0.25000000
0.42982597 0.24132559 0.24631206
0.59566779 0.22886971 0.24113338
0.75615114 0.21187248 0.23429923
0.91397383 0.18916052 0.22561198
1.00000000 0.15869356 0.21482016
1.00000000 0.11622596 0.20158755
0.00000000 0.38188707 0.24800495
0.00000000 0.37966909 0.24658791
0.16746945 0.37591692 0.24419280
0.38489087 0.37000958 0.24042751
0.56426899 0.36169070 0.23513698
0.73205244 0.35066756 0.22814909
0.89448921 0.33657549 0.21925565
1.00000000 0.31893089 0.20818934
1.00000000 0.29705500 0.19458893
0.00000000 0.50613449 0.23988728
0.00000000 0.50446157 0.23842845
0.00000000 0.50164014 0.23596179
0.31272442 0.49722063 0.23208164
0.51761009 0.49104463 0.22662465
0.69726111 0.48294969 0.21940727
0.86675968 0.47275478 0.21020473
1.00000000 0.46024663 0.19872442
1.00000000 0.44516333 0.18456468
0.00000000 0.63084422 0.22903812
0.00000000 0.62951449 0.22751980
0.00000000 0.62727537 0.22495117
0.18625010 0.62377687 0.22090700
0.45006590 0.61890643 0.21521150
0.64937375 0.61255604 0.20766378
0.82943952 0.60461356 0.19801336
1.00000000 0.59495617 0.18592774
1.00000000 0.58344403 0.17093970
0.00000000 0.75580302 0.21499696
0.00000000 0.75470722 0.21339478
0.00000000 0.75286365 0.21068214
0.00000000 0.74998733 0.20640559
0.34910564 0.74599159 0.20037055
0.58447011 0.74079680 0.19234928
0.78063514 0.73432422 0.18205053
0.96111544 0.72649178 0.16907653
1.00000000 0.71721076 0.15284849
0.00000000 0.88091019 0.19710163
0.00000000 0.87998306 0.19537957
0.00000000 0.87842412 0.19246047
0.00000000 0.87599406 0.18784920
0.16805668 0.87262267 0.18132156
0.49514595 0.86824736 0.17260597
0.71744518 0.86280831 0.16134215
0.91160133 0.85624538 0.14701668
1.00000000 0.84849596 0.12884046
0.00000000 1.00000000 0.17432221
0.00000000 1.00000000 0.17242182
0.00000000 1.00000000 0.16919425
0.00000000 1.00000000 0.16407921
0.00000000 0.99896624 0.15680159
0.36337703 0.99520065 0.14701071
0.63493837 0.99052650 0.13421444
0.84961512 0.98489694 0.11766138
1.00000000 0.97826453 0.09608090
0.00000000 0.03270704 0.38790335
0.13042496 0.02537861 0.38696793
0.30312056 0.01307520 0.38539251
0.46348117 0.00000000 0.38293037
0.62019309 0.00000000 0.37950134
0.77532300 0.00000000 0.37502792
0.92962678 0.00000000 0.36942902
1.00000000 0.00000000 0.36261502
1.00000000 0.00000000 0.35448306
0.00000000 0.14935976 0.38643490
0.07769989 0.14433802 0.38549601
0.27945664 0.13560995 0.38391472
0.44808467 0.12119008 0.38144331
0.60887308 0.09911300 0.37800120
0.76643752 0.06577615 0.37351040
0.92235594 0.02358254 0.36788922
1.00000000 0.00000000 0.36104729
1.00000000 0.00000000 0.35288077
0.00000000 0.26555022 0.38395729
0.00000000 0.26243117 0.38301249
0.23504696 0.25711944 0.38142120
0.42097259 0.24866230 0.37893402
0.58935421 0.23653998 0.37546963
0.75126402 0.22004411 0.37094922
0.91000490 0.19810051 0.36529006
1.00000000 0.16888938 0.35840051
1.00000000 0.12879000 0.35017501
0.00000000 0.38672894 0.38007367
0.00000000 0.38453810 0.37911949
0.14618504 0.38083244 0.37751229
0.37500000 0.37500000 0.37500000
0.55758415 0.36679015 0.37150014
0.72699040 0.35591827 0.36693257
0.89042450 0.34203175 0.36121290
1.00000000 0.32466584 0.35424741
1.00000000 0.30317304 0.34592780
0.00000000 0.50979959 0.37464099
0.00000000 0.50813901 0.37367338
0.00000000 0.50533856 0.37204344
0.30060797 0.50095235 0.36949524
0.51029387 0.49482381 0.36594463
0.69192545 0.48679276 0.36130952
0.86255119 0.47668114 0.35550313
1.00000000 0.46427973 0.34842867
1.00000000 0.44933234 0.33997381
0.00000000 0.63376278 0.36751013
0.00000000 0.63243953 0.36652437
0.00000000 0.63021138 0.36486366
0.16681047 0.62673019 0.36226687
0.44161680 0.62188415 0.35864755
0.64361436 0.61556611 0.35392090
0.82502227 0.60766502 0.34799684
0.99680711 0.59805935 0.34077428
1.00000000 0.58661099 0.33213522
0.00000000 0.75821067 0.35851209
0.00000000 0.75711864 0.35750252
0.00000000 0.75528142 0.35580144
0.00000000 0.75241509 0.35314086
0.33821502 0.74843334 0.34943124
0.57802854 0.74325697 0.34458416
0.77591478 0.73680768 0.33850501
0.95736201 0.72900398 0.33108682
1.00000000 0.71975780 0.32220382
0.00000000 0.88294857 0.34744426
0.00000000 0.88202380 0.34640394
0.00000000 0.88046883 0.34465069
0.00000000 0.87804498 0.34190759
0.14683498 0.87468227 0.33808101
0.48748540 0.87031833 0.33307769
0.71227144 0.86489357 0.32679688
0.90762096 0.85834812 0.31912360
1.00000000 0.85061968 0.30992128
0.00000000 1.00000000 0.33405319
0.00000000 1.00000000 0.33297331
0.00000000 1.00000000 0.33115289
0.00000000 1.00000000 0.32830346
0.00000000 1.00000000 0.32432592
0.35290657 0.99698240 0.31912048
0.62903899 0.99231759 0.31257800
0.84531302 0.98669939 0.30457243
1.00000000 0.98008052 0.29495211
0.00000000 0.05502078 0.51630614
0.09315684 0.04769234 0.51560377
0.28573275 0.03538894 0.51442238
0.45210743 0.01625828 0.51257989
0.61181481 0.00000000 0.51002172
0.76874067 0.00000000 0.50669837
0.92423791 0.00000000 0.50256155
1.00000000 0.00000000 0.49756166
1.00000000 0.00000000 0.49164586
0.00000000 0.16393631 0.51520384
0.03262009 0.15925973 0.51449993
0.26065549 0.15116679 0.51331594
0.43630902 0.13790577 0.51146936
0.60032855 0.11792131 0.50890547
0.75977179 0.08818403 0.50557462
0.91691986 0.04589628 0.50142833
1.00000000 0.00000000 0.49641679
1.00000000 0.00000000 0.49048694
0.00000000 0.27485221 0.51334779
0.00000000 0.27182861 0.51264126
0.21291820 0.26668354 0.51145286
0.40842198 0.25850292 0.50959937
0.58050838 0.24680273 0.50702581
0.74445132 0.23093575 0.50368225
0.90448689 0.20994252 0.49951991
1.00000000 0.18224795 0.49448866
1.00000000 0.14487685 0.48853498
0.00000000 0.39332646 0.51044805
0.00000000 0.39117163 0.50973741
0.11237251 0.38752769 0.50854206
0.36089704 0.38179450 0.50667768
0.54820412 0.37372894 0.50408886
0.71992989 0.36305682 0.50072526
0.88477188 0.34944100 0.49653764
1.00000000 0.33244063 0.49147528
1.00000000 0.31144749 0.48548402
0.00000000 0.51482202 0.50641167
0.00000000 0.51317807 0.50569522
0.00000000 0.51040592 0.50449008
0.28307963 0.50606460 0.50261033
0.50000000 0.50000000 0.50000000
0.68447652 0.49205496 0.49660814
0.85669631 0.48205538 0.49238483
1.00000000 0.46979739 0.48727857
1.00000000 0.45503231 0.48123425
0.00000000 0.63777396 0.50114964
0.00000000 0.63645953 0.50042550
0.00000000 0.63424631 0.49920737
0.13665887 0.63078864 0.49730724
0.42966443 0.62597575 0.49466837
0.63556190 0.61970170 0.49123900
0.81887333 0.61185682 0.48696831
0.99182134 0.60232139 0.48180373
1.00000000 0.59095956 0.47568888
0.00000000 0.76152530 0.49456982
0.00000000 0.76043841 0.49383585
0.00000000 0.75860989 0.49260110
0.00000000 0.75575720 0.49067491
0.32259067 0.75179457 0.48799954
0.56899882 0.74664335 0.48452218
0.76933794 0.74022588 0.48019083
0.95214652 0.73246141 0.47495154
1.00000000 0.72326278 0.46874627
0.00000000 0.88575781 0.48657152
0.00000000 0.88483626 0.48582526
0.00000000 0.88328673 0.48456977
0.00000000 0.88087141 0.48261100
0.11315120 0.87752059 0.47988999
0.47669009 0.87317223 0.47635260
0.70505250 0.86776704 0.47194532
0.90208687 0.86124555 0.46661244
1.00000000 0.85354586 0.46029377
0.00000000 1.00000000 0.47704045
0.00000000 1.00000000 0.47627905
0.00000000 1.00000000 0.47499798
0.00000000 1.00000000 0.47299907
0.00000000 1.00000000 0.47022176
0.33792484 0.99943957 0.46661028
0.62078656 0.99478757 0.46210922
0.83932633 0.98918496 0.45666063
1.00000000 0.98258469 0.45020157
0.00000000 0.08406311 0.64470892
0.03515611 0.07650972 0.64415192
0.26174507 0.06420632 0.64321564
0.43697988 0.04507565 0.64175694
0.60081262 0.01863069 0.63973472
0.76014846 0.00000000 0.63711306
0.91722662 0.00000000 0.63385830
1.00000000 0.00000000 0.62993747
1.00000000 0.00000000 0.62531702
0.00000000 0.18141295 0.64383488
0.00000000 0.17709646 0.64327708
0.23443394 0.16965815 0.64233945
0.42061590 0.15756461 0.64087863
0.58910111 0.13959937 0.63885348
0.75106853 0.11360856 0.63622797
0.90984632 0.07471366 0.63296840
1.00000000 0.02418846 0.62904170
1.00000000 0.00000000 0.62441426
0.00000000 0.28646222 0.64236466
0.00000000 0.28355051 0.64180550
0.18112976 0.27860031 0.64086559
0.39162909 0.27074168 0.63940121
0.56887172 0.25952981 0.63737109
0.73555218 0.24438292 0.63473909
0.89730523 0.22446047 0.63147140
1.00000000 0.19842971 0.62753480
1.00000000 0.16390651 0.62289554
0.00000000 0.40169028 0.64007149
0.00000000 0.39957956 0.63951021
0.05718336 0.39601119 0.63856672
0.34186149 0.39039941 0.63709675
0.53583859 0.38251001 0.63505883
0.71069990 0.37208120 0.63241666
0.87741246 0.35879387 0.62913621
1.00000000 0.34223496 0.62518409
1.00000000 0.32184104 0.62052628
0.00000000 0.52123490 0.63688718
0.00000000 0.51961177 0.63632292
0.00000000 0.51687499 0.63537443
0.25887288 0.51258977 0.63389662
0.48637703 0.50660504 0.63184779
0.67472648 0.49876733 0.62919136
0.84906946 0.48890738 0.62589306
1.00000000 0.47682788 0.62191918
1.00000000 0.46228922 0.61723540
0.00000000 0.64291509 0.63274966
0.00000000 0.64161181 0.63218150
0.00000000 0.63941745 0.63122643
0.08879981 0.63598950 0.62973833
0.41372160 0.63121851 0.62767516
0.62500000 0.62500000 0.62500000
0.81085691 0.61722608 0.62167823
0.98534088 0.60777924 0.61767575
1.00000000 0.59652650 0.61295779
0.00000000 0.76578307 0.62759819
0.00000000 0.76470273 0.62702510
0.00000000 0.76288526 0.62606171
0.00000000 0.76004992 0.62456063
0.30129954 0.75611160 0.62247933
0.55711173 0.75099236 0.61978051
0.76075302 0.74461534 0.61642908
0.94536374 0.73690073 0.61239045
1.00000000 0.72776251 0.60762930
0.00000000 0.88937141 0.62137016
0.00000000 0.88845398 0.62079100
0.00000000 0.88691140 0.61981739
0.00000000 0.88450696 0.61830031
0.05813023 0.88117133 0.61619673
0.46237110 0.87684285 0.61346878
0.69561062 0.87146266 0.61008083
0.89488400 0.86497173 0.60599768
1.00000000 0.85730873 0.60118331
0.00000000 1.00000000 0.61399863
0.00000000 1.00000000 0.61341214
0.00000000 1.00000000 0.61242617
0.00000000 1.00000000 0.61088976
0.00000000 1.00000000 0.60875921
0.31759390 1.00000000 0.60599604
0.60995461 0.99796740 0.60256391
0.83152496 0.99238475 0.59842688
1.00000000 0.98580828 0.59354805
0.00000000 0.11566931 0.77311170
0.00000000 0.10963889 0.77265329
0.22910743 0.09900555 0.77188301
0.41753787 0.08067779 0.77068365
0.58692106 0.05423283 0.76902239
0.74938605 0.02008013 0.76687116
0.90848210 0.00000000 0.76420440
1.00000000 0.00000000 0.76099775
1.00000000 0.00000000 0.75722724
0.00000000 0.20131784 0.77239242
0.00000000 0.19735375 0.77193355
0.19806938 0.19054883 0.77116249
0.40038963 0.17956151 0.76996191
0.57491330 0.16343837 0.76829896
0.74016343 0.14062689 0.76614554
0.90102278 0.10812811 0.76347603
1.00000000 0.05979060 0.76026606
1.00000000 0.00067494 0.75649160
0.00000000 0.30024051 0.77118322
0.00000000 0.29745212 0.77072356
0.13441040 0.29271613 0.76995119
0.36985908 0.28520986 0.76874856
0.55414391 0.27452855 0.76708276
0.72439506 0.26015544 0.76492563
0.88834439 0.24136430 0.76225151
1.00000000 0.21704414 0.75903593
1.00000000 0.18531097 0.75525483
0.00000000 0.41179315 0.76929893
0.00000000 0.40973358 0.76883805
0.00000000 0.40625274 0.76806363
0.31685884 0.40078137 0.76685779
0.52014290 0.39309533 0.76518754
0.69911614 0.38294652 0.76302461
0.86822566 0.37003573 0.76034324
1.00000000 0.35397996 0.75711890
1.00000000 0.33426363 0.75332740
0.00000000 0.52904742 0.76668595
0.00000000 0.52744900 0.76622337
0.00000000 0.52475421 0.76544608
0.22587856 0.52053557 0.76423577
0.46899207 0.51464552 0.76255930
0.66246953 0.50693493 0.76038828
0.83954212 0.49724014 0.75769683
1.00000000 0.48537134 0.75446026
1.00000000 0.47109932 0.75065424
0.00000000 0.64920713 0.76329705
0.00000000 0.64791726 0.76283224
0.00000000 0.64574559 0.76205122
0.01680920 0.64235340 0.76083506
0.39314702 0.63763277 0.75915047
0.61168553 0.63148100 0.75696887
0.80083230 0.62379229 0.75426422
0.97726871 0.61445178 0.75101166
1.00000000 0.60332980 0.74718667
0.00000000 0.77100817 0.75908765
0.00000000 0.76993576 0.75862006
0.00000000 0.76813169 0.75783434
0.00000000 0.76531738 0.75661085
0.27291377 0.76140852 0.75491606
0.54205226 0.75632803 0.75272120
0.75000000 0.75000000 0.75000000
0.93690894 0.74234575 0.74672738
1.00000000 0.73328064 0.74287857
0.00000000 0.89381362 0.75401363
0.00000000 0.89290122 0.75354263
0.00000000 0.89136710 0.75275118
0.00000000 0.88897590 0.75151875
0.00000000 0.88565878 0.74981152
0.44403966 0.88135452 0.74760047
0.68375294 0.87600475 0.74485907
0.88589620 0.86955104 0.74156195
1.00000000 0.86193268 0.73768407
0.00000000 1.00000000 0.74802967
0.00000000 1.00000000 0.74755460
0.00000000 1.00000000 0.74675629
0.00000000 1.00000000 0.74551316
0.00000000 1.00000000 0.74379105
0.29066593 1.00000000 0.74156062
0.59628649 1.00000000 0.73879503
0.82177505 0.99632213 0.73546860
1.00000000 0.98977474 0.73155590
0.00000000 0.14727551 0.90151449
0.00000000 0.14220057 0.90112695
0.18385882 0.13337388 0.90047591
0.39301063 0.11877160 0.89946258
0.56982021 0.09635618 0.89805975
0.73627481 0.06271230 0.89624446
0.89788727 0.02051869 0.89399618
1.00000000 0.00000000 0.89129574
1.00000000 0.00000000 0.88812470
0.00000000 0.22321192 0.90090645
0.00000000 0.21957882 0.90051862
0.14566513 0.21336280 0.89986710
0.37476794 0.20338544 0.89885301
0.55742834 0.18889161 0.89744913
0.72687271 0.16873767 0.89563248
0.89033012 0.14093673 0.89338251
1.00000000 0.10132285 0.89068002
1.00000000 0.04330711 0.88750655
0.00000000 0.31601062 0.89988461
0.00000000 0.31335212 0.89949630
0.05772788 0.30884115 0.89884396
0.34204420 0.30170332 0.89782861
0.53595561 0.29157268 0.89642296
0.71078683 0.27799379 0.89460401
0.87748161 0.26034447 0.89235119
1.00000000 0.23770601 0.88964525
1.00000000 0.20859695 0.88646771
0.00000000 0.42357848 0.89829321
0.00000000 0.42157578 0.89790414
0.00000000 0.41819219 0.89725053
0.28426204 0.41287660 0.89623319
0.50068331 0.40541563 0.89482478
0.68496883 0.39557574 0.89300225
0.85708253 0.38307850 0.89074496
1.00000000 0.36757194 0.88803365
1.00000000 0.34858895 0.88484974
0.00000000 0.53824908 0.89608824
0.00000000 0.53667891 0.89569812
0.00000000 0.53403209 0.89504273
0.17997864 0.52988944 0.89402262
0.44727815 0.52410740 0.89261037
0.64746741 0.51654164 0.89078286
0.82797566 0.50703470 0.88851937
0.99920638 0.49540507 0.88580056
1.00000000 0.48143490 0.88260779
0.00000000 0.65665754 0.89323173
0.00000000 0.65538322 0.89284024
0.00000000 0.65323788 0.89218254
0.00000000 0.64988714 0.89115883
0.36703511 0.64522490 0.88974158
0.59532953 0.63915044 0.88790757
0.78864568 0.63156039 0.88563600
0.96750417 0.62234286 0.88290742
1.00000000 0.61137197 0.87970311
0.00000000 0.77721498 0.88968875
0.00000000 0.77615187 0.88929554
0.00000000 0.77436348 0.88863496
0.00000000 0.77157378 0.88760674
0.23498281 0.76769940 0.88618324
0.52342992 0.76266424 0.88434112
0.73690054 0.75639350 0.88205945
0.92667235 0.74880982 0.87931867
1.00000000 0.73983012 0.87609994
0.00000000 0.89910124 0.88542565
0.00000000 0.89819474 0.88503035
0.00000000 0.89667059 0.88436627
0.00000000 0.89429499 0.88333259
0.00000000 0.89099965 0.88190150
0.42104117 0.88672389 0.88004953
0.66925845 0.88140993 0.87775559
0.87500000 0.87500000 0.87500000
1.00000000 0.86743416 0.87176375
0.00000000 1.00000000 0.88040890
0.00000000 1.00000000 0.88001112
0.00000000 1.00000000 0.87934287
0.00000000 1.00000000 0.87830269
0.00000000 1.00000000 0.87686259
0.25507975 1.00000000 0.87499889
0.57947456 1.00000000 0.87269037
0.80993130 1.00000000 0.86991716
1.00000000 0.99450131 0.86666007
0.00000000 0.17888171 1.00000000
0.00000000 0.17451626 1.00000000
0.11588677 0.16698941 1.00000000
0.36226730 0.15473945 1.00000000
0.54910750 0.13650840 1.00000000
0.72060769 0.11004129 1.00000000
0.88531367 0.07039932 1.00000000
1.00000000 0.01987412 1.00000000
1.00000000 0.00000000 1.00000000
0.00000000 0.24671679 1.00000000
0.00000000 0.24338663 1.00000000
0.05895443 0.23770496 1.00000000
0.34245541 0.22863009 1.00000000
0.53621911 0.21555489 1.00000000
0.71098258 0.19761596 1.00000000
0.87763734 0.17343330 1.00000000
1.00000000 0.14048117 1.00000000
1.00000000 0.09298333 1.00000000
0.00000000 0.33357886 1.00000000
0.00000000 0.33105260 1.00000000
0.00000000 0.32677009 1.00000000
0.30650019 0.32000460 1.00000000
0.51383171 0.31042647 1.00000000
0.69450132 0.29763589 1.00000000
0.86458139 0.28110188 1.00000000
1.00000000 0.26006660 1.00000000
1.00000000 0.23336309 1.00000000
0.00000000 0.43696783 1.00000000
0.00000000 0.43502635 1.00000000
0.00000000 0.43174735 1.00000000
0.24119637 0.42659904 1.00000000
0.47688723 0.41937919 1.00000000
0.66800953 0.40986909 1.00000000
0.84383990 0.39781127 1.00000000
1.00000000 0.38288451 1.00000000
1.00000000 0.36466890 1.00000000
0.00000000 0.54881319 1.00000000
0.00000000 0.54727433 1.00000000
0.00000000 0.54468069 1.00000000
0.11041814 0.54062225 1.00000000
0.42045129 0.53495975 1.00000000
0.62943289 0.52755408 1.00000000
0.81421463 0.51825442 1.00000000
0.98805254 0.50688806 1.00000000
1.00000000 0.49324917 1.00000000
0.00000000 0.66526228 1.00000000
0.00000000 0.66400550 1.00000000
0.00000000 0.66188985 1.00000000
0.00000000 0.65858584 1.00000000
0.33401068 0.65398939 1.00000000
0.57557390 0.64800201 1.00000000
0.77412225 0.64052299 1.00000000
0.95593888 0.63144370 1.00000000
1.00000000 0.62064245 1.00000000
0.00000000 0.78440956 1.00000000
0.00000000 0.78335703 1.00000000
0.00000000 0.78158652 1.00000000
0.00000000 0.77882486 1.00000000
0.18252184 0.77498975 1.00000000
0.50073791 0.77000620 1.00000000
0.72124806 0.76380068 1.00000000
0.91453450 0.75629727 1.00000000
1.00000000 0.74741469 1.00000000
0.00000000 0.90524474 1.00000000
0.00000000 0.90434502 1.00000000
0.00000000 0.90283230 1.00000000
0.00000000 0.90047459 1.00000000
0.00000000 0.89720422 1.00000000
0.39244587 0.89296114 1.00000000
0.65186348 0.88768824 1.00000000
0.86205899 0.88132848 1.00000000
1.00000000 0.87382280 1.00000000
0.00000000 1.00000000 1.00000000
0.00000000 1.00000000 1.00000000
0.00000000 1.00000000 1.00000000
0.00000000 1.00000000 1.00000000
0.00000000 1.00000000 1.00000000
0.20690275 1.00000000 1.00000000
0.55913399 1.00000000 1.00000000
0.79582984 1.00000000 1.00000000
1.00000000 1.00000000 1.00000000
