BT601_PAL_to_BT601_NTSC.cube
TITLE "Custom LUT"
LUT_3D_SIZE 33
# BT601 PAL to BT601 NTSC by Francesco Bucciantini
0.00000000 0.00000000 0.00000000
0.03475943 0.00000000 0.00005325
0.06951886 0.00000000 0.00010650
0.10320625 0.00000000 0.00016020
0.13598936 0.00000000 0.00022370
0.16877247 0.00000000 0.00029902
0.20155559 0.00000000 0.00038652
0.23433870 0.00000000 0.00048650
0.26712181 0.00000000 0.00059926
0.29990493 0.00000000 0.00072507
0.33268804 0.00000000 0.00086418
0.36547115 0.00000000 0.00101682
0.39825427 0.00000000 0.00118322
0.43103738 0.00000000 0.00136359
0.46382050 0.00000000 0.00155813
0.49660361 0.00000000 0.00176702
0.52938672 0.00000000 0.00199045
0.56216984 0.00000000 0.00222860
0.59495295 0.00000000 0.00248163
0.62773606 0.00000000 0.00274969
0.66051918 0.00000000 0.00303296
0.69330229 0.00000000 0.00333157
0.72608541 0.00000000 0.00364568
0.75886852 0.00000000 0.00397541
0.79165163 0.00000000 0.00432092
0.82443475 0.00000000 0.00468232
0.85721786 0.00000000 0.00505975
0.89000097 0.00000000 0.00545333
0.92278409 0.00000000 0.00586319
0.95556720 0.00000000 0.00628944
0.98835032 0.00000000 0.00673220
1.00000000 0.00000000 0.00719158
1.00000000 0.00000000 0.00766769
0.00000000 0.03240720 0.00050196
0.03155814 0.03176666 0.00055520
0.06631757 0.03112613 0.00060845
0.10039691 0.03048012 0.00066215
0.13365703 0.02971623 0.00072566
0.16678730 0.02881014 0.00080098
0.19983354 0.02775764 0.00088847
0.23282242 0.02655492 0.00098846
0.26577050 0.02519848 0.00110122
0.29868855 0.02368508 0.00122702
0.33158393 0.02201169 0.00136613
0.36446177 0.02017549 0.00151878
0.39732578 0.01817379 0.00168518
0.43017873 0.01600407 0.00186555
0.46302267 0.01366392 0.00206008
0.49585920 0.01115107 0.00226898
0.52868956 0.00846332 0.00249241
0.56151473 0.00559857 0.00273055
0.59433551 0.00255481 0.00298358
0.62715252 0.00000000 0.00325165
0.65996630 0.00000000 0.00353492
0.69277726 0.00000000 0.00383353
0.72558578 0.00000000 0.00414763
0.75839214 0.00000000 0.00447737
0.79119661 0.00000000 0.00482287
0.82399940 0.00000000 0.00518428
0.85680069 0.00000000 0.00556171
0.88960065 0.00000000 0.00595529
0.92239941 0.00000000 0.00636515
0.95519710 0.00000000 0.00679140
0.98799381 0.00000000 0.00723416
1.00000000 0.00000000 0.00769354
1.00000000 0.00000000 0.00816965
0.00000000 0.06481440 0.00100391
0.02835685 0.06417387 0.00105716
0.06311628 0.06353333 0.00111041
0.09753835 0.06288732 0.00116411
0.13129577 0.06212344 0.00122761
0.16478383 0.06121734 0.00130293
0.19809927 0.06016484 0.00139043
0.23129763 0.05896212 0.00149041
0.26441303 0.05760568 0.00160317
0.29746762 0.05609228 0.00172898
0.33047634 0.05441889 0.00186809
0.36344968 0.05258269 0.00202073
0.39639517 0.05058099 0.00218713
0.42931836 0.04841127 0.00236750
0.46222345 0.04607113 0.00256204
0.49511364 0.04355827 0.00277093
0.52799144 0.04087052 0.00299436
0.56085883 0.03800577 0.00323251
0.59371739 0.03496201 0.00348554
0.62656841 0.03173731 0.00375361
0.65941292 0.02832980 0.00403687
0.69225181 0.02473768 0.00433548
0.72508578 0.02095920 0.00464959
0.75791544 0.01699269 0.00497932
0.79074130 0.01283650 0.00532483
0.82356380 0.00848904 0.00568623
0.85638330 0.00394878 0.00606366
0.88920013 0.00000000 0.00645725
0.92201456 0.00000000 0.00686710
0.95482684 0.00000000 0.00729336
0.98763716 0.00000000 0.00773611
1.00000000 0.00000000 0.00819549
1.00000000 0.00000000 0.00867160
0.00000000 0.09692983 0.00151015
0.02512824 0.09634954 0.00156340
0.05988767 0.09576713 0.00161665
0.09460297 0.09517759 0.00167035
0.12888399 0.09447763 0.00173385
0.16274425 0.09364333 0.00180918
0.19633758 0.09266865 0.00189667
0.22975105 0.09154739 0.00199665
0.26303767 0.09027307 0.00210941
0.29623158 0.08883879 0.00223522
0.32935576 0.08723715 0.00237433
0.36242621 0.08546007 0.00252697
0.39545444 0.08349868 0.00269337
0.42844892 0.08134313 0.00287374
0.46141600 0.07875494 0.00306828
0.49436056 0.07624209 0.00327717
0.52728640 0.07355433 0.00350060
0.56019652 0.07068958 0.00373875
0.59309332 0.06764583 0.00399178
0.62597872 0.06442113 0.00425985
0.65885432 0.06101362 0.00454311
0.69172143 0.05742149 0.00484172
0.72458113 0.05364302 0.00515583
0.75743434 0.04967650 0.00548556
0.79028182 0.04552031 0.00583107
0.82312423 0.04117285 0.00619247
0.85596212 0.03663259 0.00656990
0.88879599 0.03189802 0.00696349
0.92162625 0.02696769 0.00737335
0.95445325 0.02184015 0.00779960
0.98727732 0.01651404 0.00824235
1.00000000 0.01098799 0.00870173
1.00000000 0.00526068 0.00917785
0.00000000 0.12869537 0.00210877
0.02131049 0.12821268 0.00216202
0.05606992 0.12772873 0.00221526
0.09106020 0.12723937 0.00226897
0.12599126 0.12665904 0.00233247
0.16030715 0.12596829 0.00240779
0.19423772 0.12516267 0.00249528
0.22791072 0.12423771 0.00259527
0.26140306 0.12318888 0.00270803
0.29476389 0.12201150 0.00283384
0.32802606 0.12070066 0.00297294
0.36121239 0.11925119 0.00312559
0.39433923 0.11765755 0.00329199
0.42741856 0.11591381 0.00347236
0.46045937 0.11401352 0.00366689
0.49346856 0.11194963 0.00387579
0.52645146 0.10971442 0.00409922
0.55941231 0.10729935 0.00433737
0.59235447 0.10469492 0.00459039
0.62528068 0.10189052 0.00485846
0.65819315 0.09887417 0.00514173
0.69109372 0.09563234 0.00544034
0.72398392 0.09214954 0.00575444
0.75686502 0.08840796 0.00608418
0.78973811 0.08438691 0.00642968
0.82260411 0.07982059 0.00679109
0.85546380 0.07528033 0.00716852
0.88831785 0.07054576 0.00756210
0.92116684 0.06561542 0.00797196
0.95401129 0.06048789 0.00839821
0.98685164 0.05516178 0.00884097
1.00000000 0.04963573 0.00930035
1.00000000 0.04390842 0.00977646
0.00000000 0.16046091 0.00281883
0.01678200 0.16004956 0.00287207
0.05154143 0.15963742 0.00292532
0.08675033 0.15922094 0.00297902
0.12249993 0.15872740 0.00304252
0.15737954 0.15814049 0.00311785
0.19172285 0.15745667 0.00320534
0.22571122 0.15667253 0.00330532
0.25945232 0.15578461 0.00341808
0.29301424 0.15478947 0.00354389
0.32644222 0.15368354 0.00368300
0.35976751 0.15246316 0.00383565
0.39301239 0.15112450 0.00400205
0.42619317 0.14966350 0.00418242
0.45932205 0.14807590 0.00437695
0.49240836 0.14635712 0.00458584
0.52545931 0.14450228 0.00480928
0.55848062 0.14250609 0.00504742
0.59147683 0.14036283 0.00530045
0.62445161 0.13806627 0.00556852
0.65740796 0.13560959 0.00585178
0.69034835 0.13298531 0.00615040
0.72327483 0.13018514 0.00646450
0.75618912 0.12719992 0.00679424
0.78909267 0.12401939 0.00713974
0.82198670 0.12063207 0.00750114
0.85487229 0.11702498 0.00787858
0.88775032 0.11318340 0.00827216
0.92062159 0.10909048 0.00868202
0.95348676 0.10472679 0.00910827
0.98634644 0.10006973 0.00955103
1.00000000 0.09509274 0.01001041
1.00000000 0.08976430 0.01048652
0.00000000 0.19222644 0.00364361
0.01152181 0.19186933 0.00369686
0.04628123 0.19151168 0.00375011
0.08158538 0.19115043 0.00380381
0.11835811 0.19072256 0.00386731
0.15392676 0.19021402 0.00394264
0.18876783 0.18962194 0.00403013
0.22313325 0.18894353 0.00413011
0.25716996 0.18817606 0.00424287
0.29096982 0.18731681 0.00436868
0.32459337 0.18636305 0.00450779
0.35808215 0.18531198 0.00466043
0.39146566 0.18416074 0.00482684
0.42476539 0.18290638 0.00500720
0.45799740 0.18154580 0.00520174
0.49117393 0.18007576 0.00541063
0.52430443 0.17849286 0.00563407
0.55739636 0.17679348 0.00587221
0.59045567 0.17497378 0.00612524
0.62348713 0.17302964 0.00639331
0.65649466 0.17095667 0.00667657
0.68948147 0.16875011 0.00697519
0.72245023 0.16640484 0.00728929
0.75540318 0.16391528 0.00761903
0.78834221 0.16127539 0.00796453
0.82126890 0.15847853 0.00832593
0.85418464 0.15551743 0.00870336
0.88709059 0.15238408 0.00909695
0.91998778 0.14906962 0.00950681
0.95287707 0.14556418 0.00993306
0.98575925 0.14185675 0.01037582
1.00000000 0.13793493 0.01083520
1.00000000 0.13378476 0.01131131
0.00000000 0.22399198 0.00458612
0.00551084 0.22367736 0.00463937
0.04027027 0.22336237 0.00469262
0.07532639 0.22304430 0.00474632
0.11350381 0.22266770 0.00480982
0.14990928 0.22222029 0.00488514
0.18534500 0.22169963 0.00497264
0.22015612 0.22110339 0.00507262
0.25453976 0.22042931 0.00518538
0.28861746 0.21967517 0.00531119
0.32246849 0.21883876 0.00545030
0.35614690 0.21791787 0.00560294
0.38969083 0.21691023 0.00576934
0.42312798 0.21581356 0.00594971
0.45647896 0.21462549 0.00614425
0.48975944 0.21334359 0.00635314
0.52298150 0.21196530 0.00657657
0.55615467 0.21048798 0.00681472
0.58928649 0.20890885 0.00706775
0.62238306 0.20722498 0.00733581
0.65544935 0.20543325 0.00761908
0.68848943 0.20353040 0.00791769
0.72150670 0.20151291 0.00823180
0.75450399 0.19937706 0.00856153
0.78748368 0.19711883 0.00890704
0.82044781 0.19473394 0.00926844
0.85339810 0.19221775 0.00964587
0.88633604 0.18956526 0.01003946
0.91926292 0.18677104 0.01044931
0.95217984 0.18382920 0.01087556
0.98508777 0.18073329 0.01131832
1.00000000 0.17747627 0.01177770
1.00000000 0.17405038 0.01225381
0.00000000 0.25575752 0.00564909
0.00000000 0.25547701 0.00570234
0.03349104 0.25519623 0.00575559
0.06854716 0.25491278 0.00580929
0.10786115 0.25457725 0.00587279
0.14528105 0.25417875 0.00594811
0.18142324 0.25371516 0.00603561
0.21675722 0.25318450 0.00613559
0.25154441 0.25258484 0.00624835
0.28594333 0.25191431 0.00637416
0.32005621 0.25117107 0.00651327
0.35395216 0.25035328 0.00666591
0.38767966 0.24945912 0.00683231
0.42127373 0.24848672 0.00701268
0.45476034 0.24743421 0.00720722
0.48815916 0.24629965 0.00741611
0.52148536 0.24508105 0.00763954
0.55475081 0.24377637 0.00787769
0.58796495 0.24238349 0.00813072
0.62113539 0.24090018 0.00839878
0.65426831 0.23932414 0.00868205
0.68736877 0.23765293 0.00898066
0.72044099 0.23588402 0.00929477
0.75348848 0.23401470 0.00962450
0.78651421 0.23204213 0.00997001
0.81952070 0.22996330 0.01033141
0.85251008 0.22777499 0.01070884
0.88548420 0.22547379 0.01110243
0.91844465 0.22305605 0.01151228
0.95139281 0.22051784 0.01193853
0.98432987 0.21785497 0.01238129
1.00000000 0.21506292 0.01284067
1.00000000 0.21213680 0.01331678
0.00000000 0.28752306 0.00683506
0.00000000 0.28727048 0.00688831
0.02592735 0.28701771 0.00694156
0.06098347 0.28676257 0.00699526
0.10133484 0.28646061 0.00705876
0.13998740 0.28610206 0.00713409
0.17696702 0.28568506 0.00722158
0.21291146 0.28520787 0.00732156
0.24816509 0.28466881 0.00743432
0.28293270 0.28406629 0.00756013
0.31734460 0.28339872 0.00769924
0.35148802 0.28266455 0.00785188
0.38542371 0.28186224 0.00801828
0.41919533 0.28099025 0.00819865
0.45283511 0.28004702 0.00839319
0.48636739 0.27903097 0.00860208
0.51981086 0.27794049 0.00882551
0.55318013 0.27677394 0.00906366
0.58648682 0.27552963 0.00931669
0.61974023 0.27420581 0.00958476
0.65294792 0.27280067 0.00986802
0.68611611 0.27131235 0.01016664
0.71924995 0.26973889 0.01048074
0.75235371 0.26807824 0.01081048
0.78543103 0.26632827 0.01115598
0.81848495 0.26448674 0.01151738
0.85151811 0.26255129 0.01189481
0.88453273 0.26051943 0.01228840
0.91753075 0.25838852 0.01269826
0.95051385 0.25615579 0.01312451
0.98348349 0.25381828 0.01356727
1.00000000 0.25137285 0.01402665
1.00000000 0.24881613 0.01450276
0.00000000 0.31928859 0.00814641
0.00000000 0.31905928 0.00819965
0.01756408 0.31882980 0.00825290
0.05262020 0.31859822 0.00830660
0.09380201 0.31832417 0.00837011
0.13396213 0.31799882 0.00844543
0.17193504 0.31762051 0.00853292
0.20859053 0.31718769 0.00863291
0.24438111 0.31669889 0.00874567
0.27956969 0.31615270 0.00887148
0.31432099 0.31554774 0.00901058
0.34874406 0.31488268 0.00916323
0.38291423 0.31415618 0.00932963
0.41688529 0.31336694 0.00951000
0.45069677 0.31251363 0.00970453
0.48437837 0.31159493 0.00991343
0.51795287 0.31060950 0.01013686
0.55143802 0.30955597 0.01037500
0.58484788 0.30843296 0.01062803
0.61819371 0.30723905 0.01089610
0.65148465 0.30597278 0.01117937
0.68472819 0.30463264 0.01147798
0.71793053 0.30321709 0.01179208
0.75109683 0.30172451 0.01212182
0.78423144 0.30015323 0.01246732
0.81733805 0.29850151 0.01282873
0.85041980 0.29676753 0.01320616
0.88347936 0.29494940 0.01359974
0.91651907 0.29304513 0.01400960
0.94954094 0.29105263 0.01443585
0.98254671 0.28896971 0.01487861
1.00000000 0.28679405 0.01533799
1.00000000 0.28452321 0.01581410
0.00000000 0.35105413 0.00958534
0.00000000 0.35084445 0.00963859
0.00838706 0.35063465 0.00969184
0.04344318 0.35042293 0.00974554
0.08509906 0.35017243 0.00980904
0.12712349 0.34987507 0.00988437
0.16627864 0.34952936 0.00997186
0.20376217 0.34913390 0.01007184
0.24016942 0.34868740 0.01018460
0.27583693 0.34818858 0.01031041
0.31097177 0.34763624 0.01044952
0.34570928 0.34702919 0.01060217
0.38014207 0.34636628 0.01076857
0.41433585 0.34564636 0.01094893
0.44833860 0.34486829 0.01114347
0.48218624 0.34403094 0.01135236
0.51590621 0.34313316 0.01157580
0.54951982 0.34217380 0.01181394
0.58304393 0.34115169 0.01206697
0.61649202 0.34006565 0.01233504
0.64987498 0.33891445 0.01261830
0.68320176 0.33769687 0.01291692
0.71647972 0.33641163 0.01323102
0.74971503 0.33505743 0.01356076
0.78291284 0.33363290 0.01390626
0.81607754 0.33213665 0.01426766
0.84921283 0.33056725 0.01464510
0.88232191 0.32892318 0.01503868
0.91540754 0.32720288 0.01544854
0.94847208 0.32540473 0.01587479
0.98151763 0.32352702 0.01631755
1.00000000 0.32156799 0.01677693
1.00000000 0.31952577 0.01725304
0.00000000 0.38281967 0.01115397
0.00000000 0.38262676 0.01120722
0.00000000 0.38243376 0.01126046
0.03343907 0.38223902 0.01131417
0.07489200 0.38200862 0.01137767
0.11936830 0.38173515 0.01145299
0.15993957 0.38141725 0.01154049
0.19838910 0.38105367 0.01164047
0.23550409 0.38064321 0.01175323
0.27171529 0.38018475 0.01187904
0.30728217 0.37967720 0.01201815
0.34237187 0.37911950 0.01217079
0.37709757 0.37851064 0.01233719
0.41153889 0.37784960 0.01251756
0.44575368 0.37713537 0.01271210
0.47978497 0.37636697 0.01292099
0.51366555 0.37554341 0.01314442
0.54742081 0.37466368 0.01338257
0.58107074 0.37372679 0.01363559
0.61463130 0.37273172 0.01390366
0.64811541 0.37167745 0.01418693
0.68153359 0.37056292 0.01448554
0.71489456 0.36938707 0.01479965
0.74820556 0.36814881 0.01512938
0.78147265 0.36684702 0.01547489
0.81470099 0.36548055 0.01583629
0.84789494 0.36404821 0.01621372
0.88105824 0.36254879 0.01660730
0.91419412 0.36098101 0.01701716
0.94730538 0.35934356 0.01744341
0.98039443 0.35763510 0.01788617
1.00000000 0.35585420 0.01834555
1.00000000 0.35399940 0.01882166
0.00000000 0.41458520 0.01285426
0.00000000 0.41440679 0.01290751
0.00000000 0.41422829 0.01296076
0.02259523 0.41404820 0.01301446
0.06404815 0.41383514 0.01307796
0.11056289 0.41358228 0.01315329
0.15284694 0.41328837 0.01324078
0.19242770 0.41295226 0.01334076
0.23035565 0.41257287 0.01345352
0.26718349 0.41214917 0.01357933
0.30323606 0.41168017 0.01371844
0.33871914 0.41116494 0.01387108
0.37377040 0.41060255 0.01403748
0.40848586 0.40999209 0.01421785
0.44293473 0.40933268 0.01441239
0.47716831 0.40862343 0.01462128
0.51122545 0.40786348 0.01484471
0.54513615 0.40705195 0.01508286
0.57892397 0.40618796 0.01533589
0.61260768 0.40527063 0.01560396
0.64620239 0.40429908 0.01588722
0.67972047 0.40327241 0.01618584
0.71317207 0.40218969 0.01649994
0.74656566 0.40105001 0.01682968
0.77990832 0.39985242 0.01717518
0.81320603 0.39859594 0.01753658
0.84646389 0.39727958 0.01791401
0.87968624 0.39590233 0.01830760
0.91287685 0.39446313 0.01871746
0.94603894 0.39296091 0.01914371
0.97917534 0.39139455 0.01958647
1.00000000 0.38976291 0.02004585
1.00000000 0.38806478 0.02052196
0.00000000 0.44635074 0.01468811
0.00000000 0.44618495 0.01474136
0.00000000 0.44601909 0.01479460
0.01089964 0.44585175 0.01484831
0.05235257 0.44565380 0.01491181
0.10052867 0.44541889 0.01498713
0.14491289 0.44514586 0.01507463
0.18582633 0.44483365 0.01517461
0.22469023 0.44448129 0.01528737
0.26221761 0.44408781 0.01541318
0.29881563 0.44365234 0.01555228
0.33473728 0.44317400 0.01570493
0.37014952 0.44265196 0.01587133
0.40516765 0.44208541 0.01605170
0.43987414 0.44147354 0.01624623
0.47432975 0.44081557 0.01645513
0.50858025 0.44011072 0.01667856
0.54266089 0.43935821 0.01691671
0.57659924 0.43855727 0.01716973
0.61041719 0.43770712 0.01743780
0.64413237 0.43680698 0.01772107
0.67775913 0.43585607 0.01801968
0.71130927 0.43485359 0.01833378
0.74479258 0.43379874 0.01866352
0.77821728 0.43269070 0.01900902
0.81159028 0.43152864 0.01937043
0.84491746 0.43031172 0.01974786
0.87820384 0.42903907 0.02014144
0.91145375 0.42770979 0.02055130
0.94467092 0.42632299 0.02097755
0.97785861 0.42487772 0.02142031
1.00000000 0.42337303 0.02187969
1.00000000 0.42180793 0.02235580
0.00000000 0.47811628 0.01665730
0.00000000 0.47796157 0.01671055
0.00000000 0.47780681 0.01676379
0.00000000 0.47765068 0.01681750
0.03979380 0.47746600 0.01688100
0.08901745 0.47724683 0.01695632
0.13602619 0.47699213 0.01704382
0.17852296 0.47670090 0.01714380
0.21846855 0.47637224 0.01725656
0.25679062 0.47600527 0.01738237
0.29400112 0.47559918 0.01752148
0.33041119 0.47515317 0.01767412
0.36622299 0.47466649 0.01784052
0.40157457 0.47413837 0.01802089
0.43656384 0.47356811 0.01821542
0.47126243 0.47295499 0.01842432
0.50572407 0.47229831 0.01864775
0.53998989 0.47159736 0.01888590
0.57409200 0.47085145 0.01913892
0.60805580 0.47005991 0.01940699
0.64190170 0.46922202 0.01969026
0.67564627 0.46833710 0.01998887
0.70930314 0.46740445 0.02030297
0.74288357 0.46642336 0.02063271
0.77639699 0.46539311 0.02097821
0.80985137 0.46431299 0.02133962
0.84325344 0.46318226 0.02171705
0.87660896 0.46200017 0.02211063
0.90992289 0.46076596 0.02252049
0.94319950 0.45947885 0.02294674
0.97644250 0.45813804 0.02338950
1.00000000 0.45674271 0.02384888
1.00000000 0.45529203 0.02432499
0.00000000 0.50988182 0.01876355
0.00000000 0.50973692 0.01881680
0.00000000 0.50959198 0.01887004
0.00000000 0.50944576 0.01892375
0.02636091 0.50927280 0.01898725
0.07553096 0.50906757 0.01906257
0.12604236 0.50882907 0.01915006
0.17044190 0.50855638 0.01925005
0.21164452 0.50824867 0.01936281
0.25087163 0.50790512 0.01948862
0.28877043 0.50752498 0.01962772
0.32572424 0.50710752 0.01978037
0.36197783 0.50665203 0.01994677
0.39769618 0.50615784 0.02012714
0.43299523 0.50562427 0.02032167
0.46795915 0.50505069 0.02053057
0.50265072 0.50443644 0.02075400
0.53711780 0.50378090 0.02099215
0.57139755 0.50308345 0.02124517
0.60551933 0.50234345 0.02151324
0.63950664 0.50156029 0.02179651
0.67337853 0.50073335 0.02209512
0.70715062 0.49986200 0.02240922
0.74083580 0.49894561 0.02273896
0.77444488 0.49798356 0.02308446
0.80798692 0.49697521 0.02344587
0.84146962 0.49591990 0.02382330
0.87489955 0.49481699 0.02421688
0.90828233 0.49366581 0.02462674
0.94162284 0.49246568 0.02505299
0.97492529 0.49121591 0.02549575
1.00000000 0.48991579 0.02595513
1.00000000 0.48856462 0.02643124
0.00000000 0.54164735 0.02100850
0.00000000 0.54151119 0.02106175
0.00000000 0.54137499 0.02111499
0.00000000 0.54123759 0.02116870
0.01204344 0.54107508 0.02123220
0.06121349 0.54088224 0.02130752
0.11476773 0.54065816 0.02139502
0.16148913 0.54040197 0.02149500
0.20416340 0.54011290 0.02160776
0.24442507 0.53979018 0.02173357
0.28309863 0.53943311 0.02187268
0.32065804 0.53904103 0.02202532
0.35739987 0.53861327 0.02219172
0.39352122 0.53814920 0.02237209
0.42915912 0.53764823 0.02256662
0.46441225 0.53710974 0.02277552
0.49935372 0.53653315 0.02299895
0.53403901 0.53591789 0.02323710
0.56851101 0.53526339 0.02349012
0.60280348 0.53456907 0.02375819
0.63694337 0.53383439 0.02404146
0.67095247 0.53305876 0.02434007
0.70484859 0.53224165 0.02465418
0.73864645 0.53138247 0.02498391
0.77235832 0.53048067 0.02532941
0.80599452 0.52953568 0.02569082
0.83956377 0.52854692 0.02606825
0.87307352 0.52751382 0.02646183
0.90653014 0.52643578 0.02687169
0.93993914 0.52531220 0.02729794
0.97330529 0.52414249 0.02774070
1.00000000 0.52292603 0.02820008
1.00000000 0.52166219 0.02867619
0.00000000 0.57341289 0.02339373
0.00000000 0.57328455 0.02344698
0.00000000 0.57315618 0.02350022
0.00000000 0.57302668 0.02355393
0.00000000 0.57287351 0.02361743
0.04600137 0.57269177 0.02369275
0.10193211 0.57248060 0.02378025
0.15154532 0.57223918 0.02388023
0.19595933 0.57196678 0.02399299
0.23740955 0.57166270 0.02411880
0.27695745 0.57132627 0.02425791
0.31519206 0.57095688 0.02441055
0.35247355 0.57055391 0.02457695
0.38903747 0.57011677 0.02475732
0.42504564 0.56964492 0.02495185
0.46061356 0.56913778 0.02516075
0.49582621 0.56859483 0.02538418
0.53074767 0.56801552 0.02562233
0.56542730 0.56739934 0.02587535
0.59990379 0.56674577 0.02614342
0.63420792 0.56605430 0.02642669
0.66836452 0.56532441 0.02672530
0.70239385 0.56455560 0.02703941
0.73631260 0.56374735 0.02736914
0.77013467 0.56289916 0.02771464
0.80387173 0.56201051 0.02807605
0.83753363 0.56108089 0.02845348
0.87112878 0.56010978 0.02884706
0.90466435 0.55909665 0.02925692
0.93814656 0.55804098 0.02968317
0.97158078 0.55694222 0.03012593
1.00000000 0.55579983 0.03058531
1.00000000 0.55461326 0.03106142
0.00000000 0.60517843 0.02592075
0.00000000 0.60505713 0.02597400
0.00000000 0.60493580 0.02602725
0.00000000 0.60481341 0.02608095
0.00000000 0.60466866 0.02614445
0.02988493 0.60449691 0.02621978
0.08713816 0.60429735 0.02630727
0.14045512 0.60406921 0.02640725
0.18695179 0.60381182 0.02652001
0.22977645 0.60352450 0.02664582
0.27031454 0.60320664 0.02678493
0.30930327 0.60285765 0.02693758
0.34718166 0.60247696 0.02710398
0.38423157 0.60206403 0.02728435
0.42064413 0.60161834 0.02747888
0.45655436 0.60113937 0.02768777
0.49206088 0.60062662 0.02791121
0.52723757 0.60007959 0.02814935
0.56214107 0.59949781 0.02840238
0.59681559 0.59888079 0.02867045
0.63129618 0.59822808 0.02895371
0.66561104 0.59753919 0.02925233
0.69978312 0.59681366 0.02956643
0.73383129 0.59605103 0.02989617
0.76777122 0.59525083 0.03024167
0.80161607 0.59441260 0.03060307
0.83537693 0.59353587 0.03098051
0.86906322 0.59262017 0.03137409
0.90268302 0.59166503 0.03178395
0.93624329 0.59066997 0.03221020
0.96975003 0.58963452 0.03265296
1.00000000 0.58855818 0.03311234
1.00000000 0.58744046 0.03358845
0.00000000 0.63694396 0.02859104
0.00000000 0.63682903 0.02864429
0.00000000 0.63671408 0.02869753
0.00000000 0.63659812 0.02875124
0.00000000 0.63646098 0.02881474
0.01285484 0.63629826 0.02889006
0.06996977 0.63610920 0.02897756
0.12800965 0.63589308 0.02907754
0.17704056 0.63564924 0.02919030
0.22146792 0.63537707 0.02931611
0.26313254 0.63507599 0.02945522
0.30296571 0.63474544 0.02960786
0.34150512 0.63438488 0.02977426
0.37908893 0.63399382 0.02995463
0.41594303 0.63357176 0.03014916
0.45222528 0.63311821 0.03035806
0.48804997 0.63263272 0.03058149
0.52350216 0.63211482 0.03081964
0.55864671 0.63156407 0.03107266
0.59353401 0.63098002 0.03134073
0.62820388 0.63036224 0.03162400
0.66268824 0.62971030 0.03192261
0.69701301 0.62902377 0.03223672
0.73119945 0.62830222 0.03256645
0.76526520 0.62754523 0.03291195
0.79922501 0.62675236 0.03327336
0.83309132 0.62592320 0.03365079
0.86687469 0.62505732 0.03404437
0.90058414 0.62415429 0.03445423
0.93422745 0.62321368 0.03488048
0.96781133 0.62223505 0.03532324
1.00000000 0.62121797 0.03578262
1.00000000 0.62016198 0.03625873
0.00000000 0.66870950 0.03140599
0.00000000 0.66860036 0.03145924
0.00000000 0.66849119 0.03151249
0.00000000 0.66838108 0.03156619
0.00000000 0.66825084 0.03162969
0.00000000 0.66809633 0.03170502
0.05201703 0.66791681 0.03179251
0.11391639 0.66771159 0.03189249
0.16609822 0.66748007 0.03200525
0.21241424 0.66722166 0.03213106
0.25536797 0.66693580 0.03227017
0.29614980 0.66662198 0.03242281
0.33542259 0.66627970 0.03258921
0.37359343 0.66590848 0.03276958
0.41092976 0.66550785 0.03296412
0.44761621 0.66507737 0.03317301
0.48378517 0.66461659 0.03339644
0.51953448 0.66412510 0.03363459
0.55493829 0.66360247 0.03388762
0.59005394 0.66304830 0.03415569
0.62492654 0.66246217 0.03443895
0.65959217 0.66184369 0.03473757
0.69408000 0.66119247 0.03505167
0.72841394 0.66050810 0.03538141
0.76261375 0.65979019 0.03572691
0.79669596 0.65903835 0.03608831
0.83067445 0.65825220 0.03646574
0.86456101 0.65743134 0.03685933
0.89836571 0.65657538 0.03726919
0.93209719 0.65568393 0.03769544
0.96576292 0.65475658 0.03813820
