BT601_NTSC_to_BT2100_PQ.cube
TITLE "BT601_NTSC_to_BT2100_PQ"
LUT_3D_SIZE 5
# BT601 NTSC SDR to BT2100 PQ HDR by Francesco Bucciantini
0.00000073 0.00000073 0.00000073
0.12650976 0.01609206 0.00173073
0.24158213 0.06262156 0.00899189
0.32346468 0.12508405 0.02373045
0.38725334 0.17802398 0.04542980
0.08078291 0.16347956 0.01625652
0.16892335 0.17170520 0.02010920
0.25831763 0.18867453 0.02917401
0.33201799 0.21224691 0.04426517
0.39234153 0.23917582 0.06509193
0.18858261 0.28358459 0.06314292
0.22951273 0.28645246 0.06676516
0.28971861 0.29284855 0.07501957
0.34977376 0.30283188 0.08836830
0.40338829 0.31582266 0.10589271
0.26657494 0.36813286 0.12581291
0.28892120 0.36954155 0.12812595
0.32853027 0.37274944 0.13330423
0.37462726 0.37793832 0.14143883
0.41989876 0.38501912 0.15211409
0.32788917 0.43355835 0.17880646
0.34162043 0.43438102 0.18021227
0.36845682 0.43626977 0.18340698
0.40319165 0.43936975 0.18855595
0.44026916 0.44368849 0.19554802
0.00989285 0.00380777 0.16463866
0.13449575 0.02288655 0.16624158
0.24440861 0.06896875 0.16987251
0.32486407 0.12914194 0.17569187
0.38807523 0.18049944 0.18353405
0.09305267 0.16631006 0.17284327
0.17432865 0.17432865 0.17432865
0.26076051 0.19092044 0.17769983
0.33332011 0.21406198 0.18312094
0.39312962 0.24060430 0.19045975
0.19310672 0.28455457 0.18977567
0.23265514 0.28739878 0.19104685
0.29158248 0.29374427 0.19394192
0.35089582 0.30365425 0.19862583
0.40410784 0.31655892 0.20502011
0.26884920 0.36860725 0.21330875
0.29079783 0.37001041 0.21433567
0.32987117 0.37320596 0.21668359
0.37553967 0.37837558 0.22050867
0.42052710 0.38543146 0.22578147
0.32923734 0.43383493 0.24020602
0.34282172 0.43465575 0.24101392
0.36941716 0.43654029 0.24286746
0.40391236 0.43963350 0.24590581
0.44080111 0.44394310 0.25013114
0.04187761 0.01838783 0.28489167
0.15096781 0.03880289 0.28543857
0.25071000 0.08322801 0.28669832
0.32805013 0.13799100 0.28877836
0.38996195 0.18603652 0.29170167
0.11680654 0.17260553 0.28775074
0.18591957 0.18018295 0.28828432
0.26623790 0.19596238 0.28951365
0.33628889 0.21816440 0.29154420
0.39493960 0.24385235 0.29439949
0.20293832 0.28677549 0.29412813
0.23962783 0.28956630 0.29463324
0.29579745 0.29579745 0.29579745
0.35346068 0.30554135 0.29772194
0.40576198 0.31825058 0.30043121
0.27396126 0.36970137 0.30408470
0.29504086 0.37109186 0.30454850
0.33292666 0.37425913 0.30561819
0.37763151 0.37938461 0.30738842
0.42197342 0.38638330 0.30988467
0.33230904 0.43447461 0.31704462
0.34556456 0.43529116 0.31745993
0.37161740 0.43716600 0.31841845
0.40556916 0.44024361 0.32000682
0.44202718 0.44453215 0.32225100
0.09199452 0.04494219 0.36951733
0.17384652 0.06447358 0.36978448
0.26053973 0.10512069 0.37040240
0.33320187 0.15131487 0.37143042
0.39305791 0.19472207 0.37289153
0.14730731 0.18238847 0.37092133
0.20292994 0.18933014 0.37118538
0.27486416 0.20391976 0.37179614
0.34110120 0.22471422 0.37281234
0.39791218 0.24909240 0.37425684
0.21766123 0.29040299 0.37411878
0.25042046 0.29310882 0.37437589
0.30253298 0.29915765 0.37497068
0.35763737 0.30863582 0.37596049
0.40848337 0.32103094 0.37736785
0.28204626 0.37151212 0.37929141
0.30181904 0.37288191 0.37953771
0.33787462 0.37600293 0.38010757
0.38105616 0.38105616 0.38105616
0.42435840 0.38796115 0.38240549
0.33728235 0.43553874 0.38635130
0.35002208 0.43634822 0.38658359
0.37521513 0.43820704 0.38712115
0.40829483 0.44125888 0.38801631
0.44405390 0.44551259 0.38929035
0.14231694 0.08064884 0.43498941
0.19998711 0.09816577 0.43514508
0.27332207 0.12994308 0.43550571
0.34022872 0.16791272 0.43610746
0.39736972 0.20609842 0.43696647
0.17975985 0.19505025 0.43580919
0.22350882 0.20125115 0.43596382
0.28622002 0.21442524 0.43632205
0.34768779 0.23349478 0.43691980
0.40205731 0.25621753 0.43777314
0.23588297 0.29542166 0.43769140
0.26431814 0.29801437 0.43784367
0.31157274 0.30381976 0.43819643
0.36339105 0.31294136 0.43878511
0.41228782 0.32491232 0.43962557
0.29274856 0.37406567 0.44078086
0.31091208 0.37540681 0.44092933
0.34463755 0.37846377 0.44127332
0.38580994 0.38341679 0.44184740
0.42770383 0.39019160 0.44266715
0.34407816 0.43705089 0.44508542
0.35614512 0.43785045 0.44522877
0.38020042 0.43968674 0.44556089
0.41210510 0.44270232 0.44611525
0.44690700 0.44690700 0.44690700
