BT601_PAL_to_BT601_NTSC.cube
TITLE "Custom LUT"
LUT_3D_SIZE 5
# BT601 PAL to BT601 NTSC by Francesco Bucciantini
0.00000000 0.00000000 0.00000000
0.26712181 0.00000000 0.00059926
0.52938672 0.00000000 0.00199045
0.79165163 0.00000000 0.00432092
1.00000000 0.00000000 0.00766769
0.00000000 0.25575752 0.00564909
0.25154441 0.25258484 0.00624835
0.52148536 0.24508105 0.00763954
0.78651421 0.23204213 0.00997001
1.00000000 0.21213680 0.01331678
0.00000000 0.50988182 0.01876355
0.21164452 0.50824867 0.01936281
0.50265072 0.50443644 0.02075400
0.77444488 0.49798356 0.02308446
1.00000000 0.48856462 0.02643124
0.00000000 0.76400611 0.04073232
0.12509823 0.76294075 0.04133158
0.46937474 0.76046127 0.04272277
0.75375703 0.75628805 0.04505323
1.00000000 0.75025098 0.04840001
0.00000000 1.00000000 0.07228164
0.00000000 1.00000000 0.07288090
0.41693380 1.00000000 0.07427209
0.72292667 1.00000000 0.07660256
1.00000000 1.00000000 0.07994933
0.00000000 0.00000000 0.24719601
0.26565770 0.00000000 0.24746613
0.52863146 0.00000000 0.24809224
0.79115871 0.00000000 0.24913799
1.00000000 0.00000000 0.25063311
0.00000000 0.25320113 0.24973227
0.25000000 0.25000000 0.25000000
0.52071831 0.24242656 0.25062057
0.78601779 0.22925811 0.25165711
1.00000000 0.20913126 0.25313918
0.00000000 0.50856493 0.25553502
0.20985281 0.50692744 0.25579740
0.50185418 0.50310498 0.25640562
0.77394005 0.49663444 0.25742165
1.00000000 0.48718895 0.25887460
0.00000000 0.76314691 0.26500357
0.12241746 0.76208025 0.26525765
0.46852074 0.75959773 0.26584665
0.75323719 0.75541935 0.26683073
1.00000000 0.74937472 0.26823834
0.00000000 1.00000000 0.27809703
0.00000000 1.00000000 0.27834037
0.41597233 1.00000000 0.27890456
0.72238287 1.00000000 0.27984736
1.00000000 1.00000000 0.28119632
0.00000000 0.00000000 0.49518742
0.26223071 0.00000000 0.49532705
0.52687381 0.00000000 0.49565104
0.79001308 0.00000000 0.49619331
1.00000000 0.00000000 0.49697099
0.00000000 0.24717722 0.49650208
0.24638202 0.24390716 0.49664133
0.51893310 0.23616473 0.49696445
0.78486401 0.22268103 0.49750526
1.00000000 0.20201188 0.49828086
0.00000000 0.50549421 0.49954049
0.20564356 0.50384652 0.49967888
0.50000000 0.50000000 0.50000000
0.77276670 0.49348795 0.50053746
1.00000000 0.48398000 0.50130827
0.00000000 0.76114821 0.50458848
0.11603576 0.76007851 0.50472546
0.46653209 0.75758890 0.50504331
0.75202886 0.75339847 0.50557529
1.00000000 0.74733618 0.50633827
0.00000000 1.00000000 0.51174892
0.00000000 1.00000000 0.51188394
0.41373176 1.00000000 0.51219724
0.72111874 1.00000000 0.51272163
1.00000000 1.00000000 0.51347375
0.00000000 0.00000000 0.74317883
0.25639921 0.00000000 0.74327000
0.52391588 0.00000000 0.74348162
0.78808992 0.00000000 0.74383595
1.00000000 0.00000000 0.74434450
0.00000000 0.23678870 0.74403782
0.24021532 0.23339317 0.74412888
0.51592839 0.22534220 0.74434023
0.78292712 0.21127920 0.74469412
1.00000000 0.18960140 0.74520204
0.00000000 0.50030713 0.74602786
0.19842857 0.49864194 0.74611865
0.49687814 0.49475414 0.74632939
0.77079683 0.48817082 0.74668228
1.00000000 0.47855559 0.74718873
0.00000000 0.75778729 0.74934871
0.10479331 0.75671245 0.74943907
0.46318150 0.75421082 0.74964880
0.75000000 0.75000000 0.75000000
1.00000000 0.74390780 0.75050404
0.00000000 1.00000000 0.75409017
0.00000000 1.00000000 0.75417992
0.40995140 1.00000000 0.75438823
0.71899577 1.00000000 0.75473705
1.00000000 1.00000000 0.75523767
0.00000000 0.00000000 0.99117024
0.24781401 0.00000000 0.99123675
0.51963771 0.00000000 0.99139113
0.78531914 0.00000000 0.99164969
1.00000000 0.00000000 0.99202086
0.00000000 0.22114310 0.99179701
0.23111180 0.21754115 0.99186347
0.51158167 0.20897975 0.99201774
0.78013642 0.19394716 0.99227612
1.00000000 0.17054361 0.99264703
0.00000000 0.49276052 0.99325036
0.18767636 0.49106925 0.99331671
0.49235956 0.48711993 0.99347074
0.76795832 0.48043032 0.99372869
1.00000000 0.47065489 0.99409901
0.00000000 0.75293230 0.99567967
0.08717702 0.75184996 0.99574585
0.45832658 0.74933079 0.99589945
0.74707595 0.74509018 0.99615671
1.00000000 0.73895429 0.99652602
0.00000000 1.00000000 0.99915693
0.00000000 1.00000000 0.99922284
0.40446161 1.00000000 0.99937585
0.71593514 1.00000000 0.99963211
1.00000000 1.00000000 1.00000000
