BT601_NTSC_to_BT2100_PQ.cube
TITLE "BT601_NTSC_to_BT2100_PQ"
LUT_3D_SIZE 33
# BT601 NTSC SDR to BT2100 PQ HDR by Francesco Bucciantini
0.00000073 0.00000073 0.00000073
0.00930568 0.00058773 0.00006629
0.02220469 0.00156384 0.00015835
0.03564035 0.00277757 0.00027309
0.05123148 0.00441148 0.00043209
0.06895010 0.00654147 0.00064819
0.08837097 0.00919293 0.00093082
0.10819198 0.01237680 0.00128891
0.12650976 0.01609206 0.00173073
0.14371686 0.02032830 0.00226376
0.15993709 0.02506793 0.00289459
0.17527769 0.03028822 0.00362894
0.18983052 0.03596286 0.00447163
0.20367427 0.04206335 0.00542657
0.21687650 0.04855999 0.00649686
0.22949557 0.05542268 0.00768478
0.24158213 0.06262156 0.00899189
0.25318044 0.07012743 0.01041906
0.26432933 0.07791205 0.01196654
0.27506313 0.08594842 0.01363405
0.28541228 0.09438439 0.01542080
0.29540389 0.10237233 0.01732557
0.30506229 0.11014514 0.01934677
0.31440931 0.11771252 0.02148246
0.32346468 0.12508405 0.02373045
0.33224626 0.13226899 0.02608827
0.34077029 0.13927618 0.02855330
0.34905155 0.14611401 0.03112272
0.35710360 0.15279042 0.03379359
0.36493883 0.15931283 0.03656288
0.37256866 0.16568825 0.03942746
0.38000359 0.17192325 0.04238417
0.38725334 0.17802398 0.04542980
0.00455386 0.01559366 0.00059452
0.01675442 0.01737359 0.00075874
0.03002816 0.01916772 0.00093473
0.04337628 0.02098784 0.00112302
0.05869290 0.02314976 0.00135832
0.07602856 0.02572239 0.00165348
0.09515840 0.02871504 0.00201584
0.11360525 0.03213237 0.00245265
0.13105710 0.03597435 0.00297082
0.14758411 0.04023640 0.00357677
0.16326211 0.04490987 0.00427635
0.17816428 0.04998250 0.00507474
0.19235808 0.05543903 0.00597641
0.20590437 0.06126184 0.00698510
0.21885760 0.06743153 0.00810384
0.23126626 0.07392746 0.00933495
0.24317351 0.08072824 0.01068011
0.25461783 0.08781214 0.01214037
0.26563355 0.09529794 0.01371618
0.27625144 0.10243458 0.01540751
0.28649911 0.10946590 0.01721382
0.29640141 0.11638690 0.01913416
0.30598079 0.12319448 0.02116721
0.31525760 0.12988701 0.02331130
0.32425031 0.13646400 0.02556448
0.33297574 0.14292581 0.02792458
0.34144927 0.14927347 0.03038918
0.34968497 0.15550848 0.03295571
0.35769575 0.16163274 0.03562146
0.36549352 0.16764839 0.03838358
0.37308923 0.17355777 0.04123917
0.38049301 0.17936333 0.04418523
0.38771424 0.18506762 0.04721871
0.01145269 0.03546565 0.00158205
0.02451596 0.03727454 0.00179768
0.03782764 0.03907835 0.00202073
0.05098861 0.04089179 0.00225267
0.06599760 0.04302798 0.00253532
0.08294782 0.04554945 0.00288145
0.10129258 0.04846024 0.00329701
0.11874579 0.05176117 0.00378792
0.13541313 0.05545003 0.00435992
0.15131400 0.05952167 0.00501846
0.16648637 0.06396824 0.00576857
0.18097554 0.06877946 0.00661480
0.19482830 0.07394292 0.00756114
0.20809017 0.07944439 0.00861099
0.22080397 0.08526823 0.00976715
0.23300939 0.09163735 0.01103184
0.24474276 0.09783482 0.01240669
0.25603726 0.10404625 0.01389278
0.26692307 0.11025343 0.01549066
0.27742761 0.11644115 0.01720040
0.28757583 0.12259684 0.01902162
0.29739044 0.12871021 0.02095355
0.30689213 0.13477288 0.02299503
0.31609980 0.14077816 0.02514461
0.32503073 0.14672075 0.02740053
0.33370074 0.15259650 0.02976080
0.34212438 0.15840230 0.03222322
0.35031503 0.16413582 0.03478539
0.35828499 0.16979546 0.03744478
0.36604566 0.17538017 0.04019874
0.37360756 0.18088939 0.04304450
0.38098045 0.18632294 0.04597923
0.38817338 0.19168098 0.04900004
0.01909977 0.05512526 0.00280953
0.03240961 0.05685588 0.00305926
0.04559729 0.05857808 0.00331416
0.05851802 0.06030638 0.00357613
0.07320225 0.06233879 0.00389189
0.09002351 0.06473364 0.00427424
0.10712368 0.06749367 0.00472819
0.12368153 0.07061888 0.00525874
0.13962889 0.07410676 0.00587075
0.15494657 0.07795246 0.00656889
0.16964239 0.08214900 0.00735749
0.18373853 0.08668741 0.00824052
0.19726423 0.09179429 0.00922151
0.21025156 0.09681891 0.01030349
0.22273305 0.10197134 0.01148902
0.23474037 0.10722656 0.01278012
0.24630363 0.11256192 0.01417833
0.25745110 0.11795715 0.01568467
0.26820905 0.12339425 0.01729972
0.27860177 0.12885737 0.01902359
0.28865169 0.13433269 0.02085600
0.29837947 0.13980821 0.02279626
0.30780411 0.14527359 0.02484338
0.31694311 0.15071999 0.02699603
0.32581261 0.15613987 0.02925260
0.33442746 0.16152689 0.03161125
0.34280140 0.16687570 0.03406995
0.35094711 0.17218187 0.03662645
0.35887633 0.17744174 0.03927837
0.36659994 0.18265235 0.04202320
0.37412806 0.18781130 0.04485833
0.38147006 0.19291672 0.04778106
0.38863469 0.19796716 0.05078863
0.02840713 0.07709303 0.00446130
0.04167173 0.07871080 0.00473892
0.05461013 0.08032001 0.00502012
0.06721549 0.08193433 0.00530715
0.08151170 0.08383210 0.00565075
0.09766359 0.08606766 0.00606386
0.11361278 0.08864351 0.00655074
0.12922803 0.09179696 0.00711561
0.14440361 0.09496739 0.00776258
0.15908686 0.09839068 0.00849560
0.17325800 0.10204536 0.00931836
0.18691719 0.10590929 0.01023426
0.20007633 0.10996030 0.01124635
0.21275392 0.11417652 0.01235727
0.22497183 0.11853687 0.01356927
0.23675334 0.12302124 0.01488416
0.24812194 0.12761075 0.01630330
0.25910058 0.13228783 0.01782764
0.26971128 0.13703631 0.01945772
0.27997492 0.14184141 0.02119365
0.28991112 0.14668976 0.02303520
0.29953824 0.15156931 0.02498177
0.30887340 0.15646930 0.02703246
0.31793256 0.16138013 0.02918606
0.32673052 0.16629334 0.03144111
0.33528107 0.17120146 0.03379590
0.34359700 0.17609795 0.03624853
0.35169022 0.18097712 0.03879692
0.35957181 0.18583402 0.04143884
0.36725208 0.19066439 0.04417192
0.37474063 0.19546458 0.04699369
0.38204645 0.20023146 0.04990159
0.38917790 0.20496240 0.05289301
0.03943609 0.10106951 0.00661371
0.05244148 0.10244734 0.00691399
0.06501977 0.10380666 0.00721670
0.07723642 0.10515936 0.00752433
0.09132371 0.10673593 0.00789098
0.10603409 0.10857481 0.00832971
0.12081055 0.11066987 0.00884418
0.13544323 0.11301233 0.00943799
0.14979877 0.11559121 0.01011461
0.16379717 0.11839375 0.01087737
0.17739451 0.12140585 0.01172939
0.19057068 0.12461246 0.01267353
0.20332098 0.12799797 0.01371238
0.21565052 0.13154650 0.01484818
0.22757040 0.13524226 0.01608286
0.23909525 0.13906969 0.01741797
0.25024157 0.14301377 0.01885470
0.26102668 0.14706005 0.02039385
0.27146804 0.15119488 0.02203589
0.28158279 0.15540540 0.02378092
0.29138747 0.15967961 0.02562872
0.30089794 0.16400641 0.02757872
0.31012923 0.16837559 0.02963011
0.31909551 0.17277779 0.03178176
0.32781014 0.17720450 0.03403234
0.33628568 0.18164801 0.03638027
0.34453386 0.18610135 0.03882377
0.35256572 0.19055827 0.04136091
0.36039156 0.19501320 0.04398960
0.36802104 0.19946113 0.04670761
0.37546323 0.20389765 0.04951262
0.38272659 0.20831884 0.05240221
0.38981909 0.21272127 0.05537389
0.05198351 0.12343238 0.00929196
0.06457804 0.12454043 0.00960986
0.07670992 0.12563669 0.00992936
0.08847871 0.12673061 0.01025313
0.10157936 0.12800937 0.01063788
0.11496229 0.12950593 0.01109680
0.12858328 0.13121756 0.01163309
0.14222504 0.13313946 0.01224987
0.15573703 0.13526513 0.01295008
0.16901916 0.13758656 0.01373654
0.18200800 0.14009456 0.01461186
0.19466596 0.14277896 0.01557846
0.20697337 0.14562889 0.01663849
0.21892277 0.14863299 0.01779385
0.23051487 0.15177963 0.01904612
0.24175576 0.15505709 0.02039662
0.25265493 0.15845371 0.02184632
0.26322393 0.16195805 0.02339590
0.27347547 0.16555898 0.02504571
0.28342276 0.16924579 0.02679580
0.29307912 0.17300827 0.02864593
0.30245770 0.17683670 0.03059557
0.31157125 0.18072196 0.03264394
0.32043208 0.18465549 0.03479000
0.32905194 0.18862932 0.03703249
0.33744201 0.19263608 0.03936995
0.34561291 0.19666894 0.04180073
0.35357467 0.20072165 0.04432301
0.36133676 0.20478848 0.04693483
0.36890811 0.20886420 0.04963411
0.37629716 0.21294405 0.05241866
0.38351184 0.21702374 0.05528620
0.39055963 0.22109937 0.05823436
0.06583532 0.14416395 0.01250670
0.07791979 0.14507234 0.01283758
0.08980096 0.14597293 0.01316948
0.10065802 0.14687344 0.01350518
0.11215174 0.14792840 0.01390333
0.12429256 0.14916617 0.01437719
0.13680386 0.15058589 0.01492963
0.14947182 0.15218514 0.01556338
0.16213820 0.15396017 0.01628098
0.17469006 0.15590600 0.01708483
0.18704954 0.15801666 0.01797715
0.19916498 0.16028532 0.01895995
0.21100392 0.16270444 0.02003503
0.22254769 0.16526593 0.02120395
0.23378742 0.16796132 0.02246804
0.24472109 0.17078188 0.02382836
0.25535136 0.17371873 0.02528568
0.26568411 0.17676296 0.02684054
0.27572727 0.17990575 0.02849317
0.28549008 0.18313840 0.03024357
0.29498252 0.18645246 0.03209145
0.30421491 0.18983975 0.03403630
0.31319765 0.19329242 0.03607735
0.32194105 0.19680296 0.03821362
0.33045516 0.20036427 0.04044392
0.33874972 0.20396961 0.04276687
0.34683410 0.20761267 0.04518094
0.35471727 0.21128752 0.04768441
0.36240779 0.21498867 0.05027545
0.36991382 0.21871097 0.05295210
0.37724308 0.22244968 0.05571228
0.38440294 0.22620043 0.05855385
0.39140034 0.22995918 0.06147459
0.08078291 0.16347956 0.01625652
0.09252277 0.16423668 0.01659631
0.10302008 0.16498845 0.01693668
0.11260764 0.16574130 0.01728051
0.12289186 0.16662473 0.01768777
0.13389114 0.16766323 0.01817175
0.14535717 0.16885698 0.01873506
0.15708731 0.17020499 0.01938013
0.16892335 0.17170520 0.02010920
0.18074596 0.17335459 0.02092434
0.19246776 0.17514930 0.02182744
0.20402664 0.17708474 0.02282021
0.21537982 0.17915571 0.02390413
0.22649913 0.18135648 0.02508052
0.23736720 0.18368089 0.02635043
0.24797460 0.18612247 0.02771473
0.25831763 0.18867453 0.02917401
0.26839670 0.19133020 0.03072866
0.27821510 0.19408257 0.03237883
0.28777814 0.19692471 0.03412442
0.29709244 0.19984978 0.03596512
0.30616549 0.20285102 0.03790039
0.31500526 0.20592185 0.03992948
0.32362000 0.20905586 0.04205145
0.33201799 0.21224691 0.04426517
0.34020746 0.21548906 0.04656933
0.34819648 0.21877667 0.04896248
0.35599291 0.22210436 0.05144301
0.36360432 0.22546703 0.05400918
0.37103804 0.22885989 0.05665915
0.37830106 0.23227842 0.05939097
0.38540009 0.23571839 0.06220260
0.39234153 0.23917582 0.06509193
0.09671063 0.18156084 0.02053055
0.10680211 0.18220085 0.02087572
0.11598032 0.18283709 0.02122117
0.12447103 0.18347500 0.02156982
0.13368385 0.18422448 0.02198242
0.14364719 0.18510681 0.02247223
0.15414272 0.18612276 0.02304168
0.16498379 0.18727218 0.02369297
0.17601783 0.18855406 0.02442810
0.18712438 0.18996664 0.02524890
0.19821100 0.19150748 0.02615699
0.20920850 0.19317352 0.02715383
0.22006638 0.19496115 0.02824069
0.23074878 0.19686633 0.02941864
0.24123115 0.19888460 0.03068854
0.25149753 0.20101118 0.03205108
0.26153846 0.20324101 0.03350670
0.27134926 0.20556888 0.03505568
0.28092885 0.20798939 0.03669805
0.29027871 0.21049708 0.03843366
0.29940222 0.21308645 0.04026216
0.30830403 0.21575203 0.04218298
0.31698972 0.21848837 0.04419539
0.32546541 0.22129012 0.04629847
0.33373763 0.22415205 0.04849113
0.34181303 0.22706907 0.05077214
0.34969834 0.23003624 0.05314011
0.35740026 0.23304881 0.05559351
0.36492535 0.23610222 0.05813071
0.37228004 0.23919211 0.06074996
0.37947058 0.24231431 0.06344942
0.38650298 0.24546488 0.06622716
0.39338306 0.24864008 0.06908118
0.11179748 0.19855865 0.02531078
0.12055560 0.19910628 0.02565834
0.12862472 0.19965119 0.02600596
0.13617072 0.20019801 0.02635661
0.14444020 0.20084112 0.02677130
0.15347142 0.20159908 0.02726325
0.16307537 0.20247300 0.02783473
0.17308369 0.20346320 0.02848776
0.18335317 0.20456934 0.02922418
0.19376623 0.20579049 0.03004560
0.20422899 0.20712514 0.03095348
0.21466825 0.20857127 0.03194906
0.22502821 0.21012642 0.03303344
0.23526718 0.21178773 0.03420750
0.24535481 0.21355196 0.03547196
0.25526962 0.21541558 0.03682735
0.26499705 0.21737482 0.03827400
0.27452789 0.21942567 0.03981208
0.28385699 0.22156397 0.04144155
0.29298227 0.22378543 0.04316219
0.30190396 0.22608567 0.04497361
0.31062401 0.22846028 0.04687525
0.31914561 0.23090480 0.04886637
0.32747284 0.23341482 0.05094607
0.33561040 0.23598595 0.05311331
0.34356340 0.23861389 0.05536690
0.35133720 0.24129438 0.05770551
0.35893731 0.24402333 0.06012771
0.36636925 0.24679670 0.06263193
0.37363855 0.24961063 0.06521653
0.38075063 0.25246139 0.06787975
0.38771083 0.25534538 0.07061977
0.39452433 0.25825916 0.07343470
0.12612857 0.21459841 0.03057399
0.13378894 0.21507196 0.03092146
0.14092257 0.21554349 0.03126884
0.14765508 0.21601702 0.03161911
0.15509649 0.21657436 0.03203317
0.16329363 0.21723184 0.03252412
0.17208464 0.21799070 0.03309412
0.18132007 0.21885157 0.03374507
0.19086819 0.21981452 0.03447866
0.20061703 0.22087914 0.03529636
0.21047412 0.22204457 0.03619947
0.22036485 0.22330949 0.03718910
0.23023025 0.22467226 0.03826619
0.24002459 0.22613084 0.03943151
0.24971303 0.22768290 0.04068563
0.25926963 0.22932585 0.04202899
0.26867555 0.23105685 0.04346182
0.27791757 0.23287284 0.04498421
0.28698690 0.23477061 0.04659605
0.29587819 0.23674680 0.04829709
0.30458875 0.23879794 0.05008691
0.31311794 0.24092048 0.05196493
0.32146666 0.24311081 0.05393042
0.32963700 0.24536531 0.05598252
0.33763188 0.24768034 0.05812020
0.34545487 0.25005227 0.06034232
0.35310997 0.25247752 0.06264764
0.36060148 0.25495256 0.06503476
0.36793388 0.25747392 0.06750221
0.37511177 0.26003820 0.07004843
0.38213975 0.26264211 0.07267174
0.38902244 0.26528244 0.07537044
0.39576437 0.26795609 0.07814270
0.13977073 0.22978503 0.03629347
0.14651958 0.23019829 0.03663880
0.15286045 0.23061004 0.03698397
0.15889132 0.23102377 0.03733189
0.16560654 0.23151103 0.03774306
0.17305972 0.23208627 0.03823041
0.18111339 0.23275077 0.03879602
0.18963634 0.23350533 0.03944167
0.19850927 0.23435027 0.04016896
0.20762759 0.23528554 0.04097924
0.21690229 0.23631069 0.04187370
0.22625937 0.23742492 0.04285336
0.23563856 0.23862713 0.04391902
0.24499161 0.23991591 0.04507137
0.25428054 0.24128959 0.04631089
0.26347595 0.24274624 0.04763793
0.27255548 0.24428374 0.04905265
0.28150255 0.24589976 0.05055507
0.29030517 0.24759183 0.05214507
0.29895506 0.24935731 0.05382234
0.30744687 0.25119345 0.05558645
0.31577754 0.25309742 0.05743683
0.32394583 0.25506630 0.05937275
0.33195189 0.25709712 0.06139337
0.33979696 0.25918688 0.06349770
0.34748309 0.26133257 0.06568466
0.35501294 0.26353116 0.06795304
0.36238963 0.26577966 0.07030153
0.36961658 0.26807510 0.07272872
0.37669745 0.27041453 0.07523311
0.38363603 0.27279508 0.07781315
0.39043620 0.27521393 0.08046718
0.39710185 0.27766832 0.08319349
0.15278532 0.24420695 0.04244028
0.15877070 0.24457054 0.04278185
0.16443614 0.24493296 0.04312317
0.16986018 0.24529731 0.04346716
0.17593823 0.24572662 0.04387360
0.18272890 0.24623376 0.04435523
0.19011602 0.24682000 0.04491404
0.19798543 0.24748621 0.04555176
0.20623028 0.24823289 0.04626988
0.21475431 0.24906020 0.04706968
0.22347335 0.24996800 0.04795227
0.23231557 0.25095582 0.04891856
0.24122087 0.25202296 0.04996931
0.25013985 0.25316845 0.05110511
0.25903252 0.25439110 0.05232639
0.26786697 0.25568951 0.05363342
0.27661815 0.25706207 0.05502634
0.28526667 0.25850703 0.05650512
0.29379786 0.26002245 0.05806959
0.30220088 0.26160629 0.05971945
0.31046798 0.26325638 0.06145427
0.31859392 0.26497043 0.06327345
0.32657545 0.26674611 0.06517631
0.33441094 0.26858099 0.06716202
0.34209999 0.27047260 0.06922964
0.34964321 0.27241844 0.07137813
0.35704194 0.27441599 0.07360633
0.36429815 0.27646271 0.07591299
0.37141424 0.27855606 0.07829678
0.37839294 0.28069354 0.08075627
0.38523720 0.28287264 0.08328998
0.39195017 0.28509092 0.08589635
0.39853509 0.28734594 0.08857375
0.16522729 0.25793936 0.04898437
0.17056783 0.25826155 0.04932085
0.17565456 0.25858283 0.04965705
0.18055196 0.25890594 0.04999584
0.18607011 0.25928683 0.05039606
0.19227099 0.25973698 0.05087027
0.19905681 0.26025765 0.05142036
0.20632879 0.26084973 0.05204801
0.21399209 0.26151382 0.05275464
0.22195911 0.26225022 0.05354147
0.23015137 0.26305898 0.05440953
0.23850027 0.26393989 0.05535969
0.24694706 0.26489252 0.05639265
0.25544228 0.26591623 0.05750894
0.26394495 0.26701018 0.05870895
0.27242151 0.26817334 0.05999291
0.28084493 0.26940453 0.06136092
0.28919365 0.27070240 0.06281294
0.29745078 0.27206547 0.06434879
0.30560329 0.27349213 0.06596816
0.31364134 0.27498067 0.06767060
0.32155773 0.27652927 0.06945556
0.32934743 0.27813603 0.07132235
0.33700710 0.27979899 0.07327020
0.34453485 0.28151611 0.07529820
0.35192989 0.28328533 0.07740534
0.35919235 0.28510454 0.07959053
0.36632305 0.28697161 0.08185259
0.37332340 0.28888438 0.08419024
0.38019520 0.29084073 0.08660214
0.38694063 0.29283849 0.08934367
0.39356207 0.29487554 0.09187882
0.40006211 0.29694977 0.09444049
0.17714535 0.27104670 0.05589530
0.18193696 0.27133404 0.05622568
0.18652504 0.27162066 0.05655575
0.19096365 0.27190900 0.05688832
0.19598875 0.27224902 0.05728118
0.20166431 0.27265104 0.05774661
0.20790818 0.27311626 0.05828647
0.21463526 0.27364559 0.05890236
0.22176194 0.27423966 0.05959565
0.22920917 0.27489886 0.06036751
0.23690456 0.27562338 0.06121894
0.24478348 0.27641319 0.06215076
0.25278935 0.27726804 0.06316361
0.26087356 0.27818754 0.06425800
0.26899494 0.27917110 0.06543428
0.27711909 0.28021799 0.06669267
0.28521763 0.28132733 0.06803325
0.29326738 0.28249810 0.06945597
0.30124969 0.28372916 0.07096063
0.30914975 0.28501925 0.07254694
0.31695593 0.28636701 0.07421447
0.32465933 0.28777100 0.07596268
0.33225328 0.28922968 0.07779091
0.33973295 0.29074145 0.07969842
0.34709502 0.29230466 0.08168435
0.35433745 0.29391758 0.08374773
0.36145917 0.29557847 0.08588755
0.36845995 0.29728553 0.08810265
0.37534022 0.29903695 0.09064322
0.38210091 0.30083090 0.09296775
0.38874338 0.30266556 0.09532670
0.39526933 0.30453907 0.09771715
0.40168068 0.30644961 0.10013627
0.18858261 0.28358459 0.06314292
0.19290348 0.28384232 0.06346640
0.19705952 0.28409947 0.06378956
0.20109686 0.28435824 0.06411516
0.20568668 0.28466349 0.06449976
0.21089378 0.28502452 0.06495538
0.21664926 0.28544247 0.06548382
0.22288004 0.28591823 0.06608664
0.22951273 0.28645246 0.06676516
0.23647650 0.28704562 0.06752053
0.24370516 0.28769796 0.06835368
0.25113840 0.28840957 0.06926541
0.25872245 0.28918037 0.07025634
0.26641020 0.29001012 0.07132695
0.27416098 0.29089843 0.07247758
0.28194017 0.29184479 0.07370843
0.28971861 0.29284855 0.07501957
0.29747205 0.29390894 0.07641095
0.30518052 0.29502509 0.07788239
0.31282775 0.29619601 0.07943360
0.32040067 0.29742063 0.08106418
0.32788889 0.29869779 0.08277360
0.33528433 0.30002627 0.08456126
0.34258081 0.30140475 0.08642643
0.34977376 0.30283188 0.08836830
0.35685992 0.30430624 0.09063739
0.36383715 0.30582637 0.09269851
0.37070421 0.30739077 0.09480375
0.37746060 0.30899791 0.09695022
0.38410642 0.31064624 0.09913507
0.39064226 0.31233420 0.10135555
0.39706912 0.31406020 0.10360897
0.40338829 0.31582266 0.10589271
0.19957720 0.29560139 0.07069774
0.20349165 0.29583377 0.07101373
0.20727137 0.29606567 0.07132942
0.21095633 0.29629910 0.07164747
0.21516076 0.29657451 0.07202315
0.21994944 0.29690035 0.07246818
0.22526460 0.29727769 0.07298432
0.23104363 0.29770741 0.07357309
0.23722232 0.29819014 0.07423578
0.24373753 0.29872639 0.07497347
0.25052913 0.29931646 0.07578710
0.25754135 0.29996053 0.07667743
0.26472358 0.30065861 0.07764507
0.27203069 0.30141059 0.07869048
0.27942303 0.30221624 0.07981398
0.28686629 0.30307520 0.08101578
0.29433106 0.30398701 0.08229596
0.30179243 0.30495107 0.08365445
0.30922951 0.30596674 0.08509111
0.31662495 0.30703324 0.08660565
0.32396449 0.30814973 0.08819770
0.33123654 0.30931528 0.09012166
0.33843178 0.31052891 0.09184866
0.34554286 0.31178954 0.09363023
0.35256407 0.31309607 0.09546374
0.35949109 0.31444731 0.09734655
0.36632077 0.31584207 0.09927603
0.37305092 0.31727908 0.10124956
0.37968019 0.31875706 0.10326454
0.38620788 0.32027470 0.10531843
0.39263385 0.32183064 0.10740869
0.39895841 0.32342355 0.10953289
0.40518226 0.32505206 0.11168862
0.21016298 0.30713942 0.07853131
0.21372430 0.30734992 0.07883941
0.21717456 0.30756005 0.07914719
0.22054884 0.30777158 0.07945729
0.22441106 0.30802122 0.07982356
0.22882528 0.30831665 0.08025745
0.23374311 0.30865887 0.08076067
0.23911096 0.30904872 0.08133468
0.24487280 0.30948685 0.08198074
0.25097255 0.30997374 0.08269994
0.25735590 0.31050976 0.08349315
0.26397161 0.31109512 0.08436114
0.27077242 0.31172993 0.08530449
0.27771549 0.31241416 0.08632366
0.28476264 0.31314768 0.08741897
0.29188024 0.31393026 0.08859064
0.29903905 0.31476158 0.09009375
0.30621391 0.31564120 0.09140620
0.31338336 0.31656862 0.09278212
0.32052928 0.31754325 0.09421958
0.32763650 0.31856442 0.09571654
0.33469245 0.31963139 0.09727086
0.34168680 0.32074337 0.09888037
0.34861118 0.32189949 0.10054280
0.35545888 0.32309884 0.10225588
0.36222463 0.32434045 0.10401727
0.36890436 0.32562331 0.10582466
0.37549503 0.32694636 0.10767572
0.38199447 0.32830854 0.10956811
0.38840125 0.32970872 0.11149956
0.39471452 0.33114576 0.11346777
0.40093397 0.33261851 0.11547051
0.40705968 0.33412578 0.11750560
0.22037004 0.31823594 0.08661642
0.22362275 0.31842745 0.08691633
0.22678319 0.31861864 0.08721594
0.22988249 0.31881115 0.08751780
0.23343990 0.31903839 0.08787435
0.23751830 0.31930735 0.08829672
0.24207714 0.31961901 0.08878657
0.24707059 0.31997414 0.08960196
0.25244986 0.32037338 0.09022859
0.25816529 0.32081723 0.09092314
0.26416799 0.32130605 0.09168557
0.27041116 0.32184011 0.09251557
0.27685095 0.32241955 0.09341264
0.28344703 0.32304443 0.09437605
0.29016292 0.32371469 0.09540490
0.29696604 0.32443021 0.09649810
0.30382764 0.32519074 0.09765440
0.31072264 0.32599600 0.09887243
0.31762932 0.32684559 0.10015065
0.32452906 0.32773906 0.10148745
0.33140606 0.32867589 0.10288108
0.33824698 0.32965549 0.10432973
0.34504066 0.33067722 0.10583150
0.35177787 0.33174038 0.10738446
0.35845107 0.33284421 0.10898659
0.36505412 0.33398792 0.11063586
0.37158214 0.33517067 0.11233023
0.37803133 0.33639159 0.11406762
0.38439877 0.33764975 0.11584596
0.39068232 0.33894422 0.11766320
0.39688051 0.34027402 0.11951727
0.40299240 0.34163816 0.12140616
0.40901752 0.34303564 0.12332786
0.23022527 0.32892392 0.09507622
0.23320682 0.32909883 0.09535692
0.23611114 0.32927348 0.09563684
0.23896613 0.32944936 0.09591837
0.24225122 0.32965700 0.09625026
0.24602776 0.32990281 0.09664251
0.25026179 0.33018771 0.09709625
0.25491410 0.33051243 0.09761225
0.25994227 0.33087759 0.09819105
0.26530241 0.33128367 0.09883293
0.27095069 0.33173106 0.09953795
0.27684449 0.33222005 0.10030594
0.28294336 0.33275081 0.10113655
0.28920959 0.33332344 0.10202923
0.29560858 0.33393796 0.10298329
0.30210903 0.33459431 0.10399784
0.30868295 0.33529233 0.10507187
0.31530559 0.33603181 0.10620424
0.32195526 0.33681248 0.10739369
0.32861310 0.33763398 0.10863882
0.33526287 0.33849590 0.10993818
0.34189068 0.33939779 0.11129020
0.34848473 0.34033913 0.11269326
0.35503510 0.34131934 0.11414567
0.36153350 0.34233782 0.11564569
0.36797310 0.34339390 0.11719153
0.37434828 0.34448688 0.11878139
0.38065454 0.34561603 0.12041343
0.38688830 0.34678059 0.12208582
0.39304679 0.34797974 0.12379669
0.39912792 0.34921268 0.12554422
0.40513018 0.35047854 0.12732657
0.41105260 0.35177647 0.12914192
0.23975274 0.33923269 0.10307439
0.24249485 0.33939302 0.10333374
0.24517187 0.33955313 0.10359242
0.24780900 0.33971439 0.10385265
0.25085008 0.33990479 0.10415950
0.25435465 0.34013024 0.10452227
0.25829429 0.34039159 0.10494204
0.26263548 0.34068953 0.10541960
0.26734134 0.34102466 0.10595551
0.27237315 0.34139745 0.10655011
0.27769169 0.34180830 0.10720354
0.28325832 0.34225749 0.10791574
0.28903587 0.34274524 0.10868648
0.29498924 0.34327167 0.10951538
0.30108584 0.34383685 0.11040187
0.30729581 0.34444076 0.11134527
0.31359213 0.34508333 0.11234475
0.31995060 0.34576442 0.11339938
0.32634976 0.34648381 0.11450809
0.33277073 0.34724125 0.11566972
0.33919704 0.34803642 0.11688303
0.34561443 0.34886896 0.11814669
0.35201063 0.34973845 0.11945930
0.35837517 0.35064444 0.12081939
0.36469916 0.35158641 0.12222544
0.37097516 0.35256383 0.12367591
0.37719693 0.35357612 0.12516919
0.38335935 0.35462265 0.12670367
0.38945825 0.35570279 0.12827770
0.39549026 0.35681585 0.12988964
0.40145276 0.35796114 0.13153783
