BT601_PAL_to_BT601_NTSC.cube
TITLE "Custom LUT"
LUT_3D_SIZE 9
# BT601 PAL to BT601 NTSC by Francesco Bucciantini
0.00000000 0.00000000 0.00000000
0.13598936 0.00000000 0.00022370
0.26712181 0.00000000 0.00059926
0.39825427 0.00000000 0.00118322
0.52938672 0.00000000 0.00199045
0.66051918 0.00000000 0.00303296
0.79165163 0.00000000 0.00432092
0.92278409 0.00000000 0.00586319
1.00000000 0.00000000 0.00766769
0.00000000 0.12869537 0.00210877
0.12599126 0.12665904 0.00233247
0.26140306 0.12318888 0.00270803
0.39433923 0.11765755 0.00329199
0.52645146 0.10971442 0.00409922
0.65819315 0.09887417 0.00514173
0.78973811 0.08438691 0.00642968
0.92116684 0.06561542 0.00797196
1.00000000 0.04390842 0.00977646
0.00000000 0.25575752 0.00564909
0.10786115 0.25457725 0.00587279
0.25154441 0.25258484 0.00624835
0.38767966 0.24945912 0.00683231
0.52148536 0.24508105 0.00763954
0.65426831 0.23932414 0.00868205
0.78651421 0.23204213 0.00997001
0.91844465 0.22305605 0.01151228
1.00000000 0.21213680 0.01331678
0.00000000 0.38281967 0.01115397
0.07489200 0.38200862 0.01137767
0.23550409 0.38064321 0.01175323
0.37709757 0.37851064 0.01233719
0.51366555 0.37554341 0.01314442
0.64811541 0.37167745 0.01418693
0.78147265 0.36684702 0.01547489
0.91419412 0.36098101 0.01701716
1.00000000 0.35399940 0.01882166
0.00000000 0.50988182 0.01876355
0.02636091 0.50927280 0.01898725
0.21164452 0.50824867 0.01936281
0.36197783 0.50665203 0.01994677
0.50265072 0.50443644 0.02075400
0.63950664 0.50156029 0.02179651
0.77444488 0.49798356 0.02308446
0.90828233 0.49366581 0.02462674
1.00000000 0.48856462 0.02643124
0.00000000 0.63694396 0.02859104
0.00000000 0.63646098 0.02881474
0.17704056 0.63564924 0.02919030
0.34150512 0.63438488 0.02977426
0.48804997 0.63263272 0.03058149
0.62820388 0.63036224 0.03162400
0.76526520 0.62754523 0.03291195
0.90058414 0.62415429 0.03445423
1.00000000 0.62016198 0.03625873
0.00000000 0.76400611 0.04073232
0.00000000 0.76360861 0.04095602
0.12509823 0.76294075 0.04133158
0.31448317 0.76190104 0.04191554
0.46937474 0.76046127 0.04272277
0.61393639 0.75859749 0.04376528
0.75375703 0.75628805 0.04505323
0.89097226 0.75351251 0.04659551
1.00000000 0.75025098 0.04840001
0.00000000 0.89106826 0.05527102
0.00000000 0.89073221 0.05549472
0.03868992 0.89016772 0.05587028
0.27897566 0.88928920 0.05645424
0.44597484 0.88807322 0.05726147
0.59637862 0.88650012 0.05830398
0.73972170 0.88455239 0.05959193
0.87931019 0.88221385 0.06113421
1.00000000 0.87946902 0.06293871
0.00000000 1.00000000 0.07228164
0.00000000 1.00000000 0.07250534
0.00000000 1.00000000 0.07288090
0.23140612 1.00000000 0.07346486
0.41693380 1.00000000 0.07427209
0.57512186 1.00000000 0.07531460
0.72292667 1.00000000 0.07660256
0.86544586 1.00000000 0.07814483
1.00000000 1.00000000 0.07994933
0.00000000 0.00000000 0.12320030
0.13504964 0.00000000 0.12337368
0.26657611 0.00000000 0.12366438
0.39787907 0.00000000 0.12411548
0.52910492 0.00000000 0.12473721
0.66029566 0.00000000 0.12553705
0.79146767 0.00000000 0.12652042
0.92262856 0.00000000 0.12769111
1.00000000 0.00000000 0.12905154
0.00000000 0.12705460 0.12482816
0.12500000 0.12500000 0.12500000
0.26084674 0.12149785 0.12528813
0.39396038 0.11591314 0.12573524
0.52616804 0.10788774 0.12635152
0.65796879 0.09692312 0.12714439
0.78955366 0.08224345 0.12811926
0.92101101 0.06344487 0.12927995
1.00000000 0.04173787 0.13062889
0.00000000 0.25480588 0.12752903
0.10676209 0.25362171 0.12769837
0.25096887 0.25162266 0.12798232
0.38729446 0.24848635 0.12842297
0.52119916 0.24409308 0.12903039
0.65404252 0.23831551 0.12981193
0.78632894 0.23100623 0.13077300
0.91828831 0.22198458 0.13191741
1.00000000 0.21101902 0.13324766
0.00000000 0.38216560 0.13165215
0.07359747 0.38135320 0.13181780
0.23489457 0.37998551 0.13209557
0.37670187 0.37784934 0.13252668
0.51337488 0.37487704 0.13312100
0.64788735 0.37100437 0.13388580
0.78128608 0.36616540 0.13482645
0.91403698 0.36028872 0.13594679
1.00000000 0.35329403 0.13724938
0.00000000 0.50939064 0.13720757
0.02506638 0.50878102 0.13736847
0.21097716 0.50775587 0.13763831
0.36156620 0.50615765 0.13805713
0.50235353 0.50393984 0.13863459
0.63927533 0.50106077 0.13937784
0.77425647 0.49748038 0.14029218
0.90812406 0.49315814 0.14138149
1.00000000 0.48805155 0.14264839
0.00000000 0.63655441 0.14415414
0.00000000 0.63607112 0.14430945
0.17626928 0.63525885 0.14456991
0.34106995 0.63399367 0.14497424
0.48774371 0.63224036 0.14553181
0.62796816 0.62996839 0.14624960
0.76507434 0.62714950 0.14713285
0.90042438 0.62375630 0.14818545
1.00000000 0.61976129 0.14941009
0.00000000 0.76368550 0.15241477
0.00000000 0.76328782 0.15256387
0.12410212 0.76261965 0.15281394
0.31401296 0.76157946 0.15320217
0.46905613 0.76013904 0.15373764
0.61369489 0.75827440 0.15442714
0.75356302 0.75596389 0.15527582
0.89081060 0.75318706 0.15628754
1.00000000 0.74992401 0.15746510
0.00000000 0.89079721 0.16188961
0.00000000 0.89046105 0.16203212
0.03739539 0.88989637 0.16227116
0.27845083 0.88901756 0.16264232
0.44563943 0.88780117 0.16315432
0.59612965 0.88622753 0.16381375
0.73952371 0.88427915 0.16462566
0.87914617 0.88193981 0.16559389
1.00000000 0.87919404 0.16672126
0.00000000 1.00000000 0.17246715
0.00000000 1.00000000 0.17260291
0.00000000 1.00000000 0.17283064
0.23078732 1.00000000 0.17318428
0.41657515 1.00000000 0.17367220
0.57486325 1.00000000 0.17430076
0.72272372 1.00000000 0.17507488
0.86527895 1.00000000 0.17599835
1.00000000 1.00000000 0.17707404
0.00000000 0.00000000 0.24719601
0.13346153 0.00000000 0.24729688
0.26565770 0.00000000 0.24746613
0.39724837 0.00000000 0.24772912
0.52863146 0.00000000 0.24809224
0.65992024 0.00000000 0.24856052
0.79115871 0.00000000 0.24913799
0.92236738 0.00000000 0.24982795
1.00000000 0.00000000 0.25063311
0.00000000 0.12426675 0.24814543
0.12332366 0.12218043 0.24824596
0.25991037 0.11862265 0.24841465
0.39332355 0.11294495 0.24867676
0.52569186 0.10477587 0.24903868
0.65759195 0.09359309 0.24950540
0.78924389 0.07835344 0.25008096
0.92074932 0.05980081 0.25076865
1.00000000 0.03809381 0.25157117
0.00000000 0.25320113 0.24973227
0.10490061 0.25201035 0.24983224
0.25000000 0.25000000 0.25000000
0.38664692 0.24684568 0.25026065
0.52071831 0.24242656 0.25062057
0.65366328 0.23661384 0.25108472
0.78601779 0.22925811 0.25165711
0.91802577 0.22017585 0.25234103
1.00000000 0.20913126 0.25313918
0.00000000 0.38106506 0.25218229
0.07142414 0.38025038 0.25228140
0.23386820 0.37887883 0.25244773
0.37603664 0.37673658 0.25270617
0.51288650 0.37375572 0.25306304
0.64750428 0.36987172 0.25352326
0.78097275 0.36501829 0.25409083
0.91377309 0.35912360 0.25476900
1.00000000 0.35210679 0.25556047
0.00000000 0.50856493 0.25553502
0.02289305 0.50795429 0.25563299
0.20985281 0.50692744 0.25579740
0.36087411 0.50532653 0.25605286
0.50185418 0.50310498 0.25640562
0.63888679 0.50022101 0.25686057
0.77394005 0.49663444 0.25742165
0.90785827 0.49230464 0.25809210
1.00000000 0.48718895 0.25887460
0.00000000 0.63589985 0.25980843
0.00000000 0.63541602 0.25990498
0.17496842 0.63460287 0.26006701
0.34033819 0.63333631 0.26031876
0.48722911 0.63158107 0.26066642
0.62757222 0.62930658 0.26111479
0.76475381 0.62648455 0.26166780
0.90015609 0.62308753 0.26232864
1.00000000 0.61908796 0.26309996
0.00000000 0.76314691 0.26500357
0.00000000 0.76274892 0.26509844
0.12241746 0.76208025 0.26525765
0.31322206 0.76103926 0.26550503
0.46852074 0.75959773 0.26584665
0.61328923 0.75773165 0.26628727
0.75323719 0.75541935 0.26683073
0.89053912 0.75264035 0.26748021
1.00000000 0.74937472 0.26823834
0.00000000 0.89034196 0.27110771
0.00000000 0.89000560 0.27120067
0.03522206 0.88944060 0.27135668
0.27756770 0.88856130 0.27159909
0.44507574 0.88734422 0.27193387
0.59571141 0.88576969 0.27236568
0.73919119 0.88382020 0.27289831
0.87887072 0.88147952 0.27353489
1.00000000 0.87873217 0.27427802
0.00000000 1.00000000 0.27809703
0.00000000 1.00000000 0.27818789
0.00000000 1.00000000 0.27834037
0.22974525 1.00000000 0.27857732
0.41597233 1.00000000 0.27890456
0.57442882 1.00000000 0.27932667
0.72238287 1.00000000 0.27984736
0.86499866 1.00000000 0.28046972
1.00000000 1.00000000 0.28119632
0.00000000 0.00000000 0.37119171
0.13096548 0.00000000 0.37126110
0.26422401 0.00000000 0.37137757
0.39626575 0.00000000 0.37155859
0.52789441 0.00000000 0.37180868
0.65933603 0.00000000 0.37213143
0.79067804 0.00000000 0.37252979
0.92196110 0.00000000 0.37300627
1.00000000 0.00000000 0.37356302
0.00000000 0.11984537 0.37184532
0.12068598 0.11770686 0.37191459
0.25844845 0.11405741 0.37203086
0.39233132 0.10822605 0.37221158
0.52495056 0.09981842 0.37246125
0.65700554 0.08827071 0.37278345
0.78876196 0.07268726 0.37318113
0.92034226 0.05413463 0.37365681
1.00000000 0.03242763 0.37421262
0.00000000 0.25068800 0.37294016
0.10196421 0.24948670 0.37300923
0.24848694 0.24745844 0.37312517
0.38563796 0.24427552 0.37330537
0.51996972 0.23981533 0.37355434
0.65307312 0.23394675 0.37387563
0.78553371 0.22651711 0.37427219
0.91761737 0.21733828 0.37474653
1.00000000 0.20616757 0.37530078
0.00000000 0.37934767 0.37463638
0.06804481 0.37852941 0.37470515
0.23226457 0.37715179 0.37482058
0.37500000 0.37500000 0.37500000
0.51212617 0.37200569 0.37524788
0.64690816 0.36810389 0.37556777
0.78048527 0.36322773 0.37596261
0.91336259 0.35730472 0.37643489
1.00000000 0.35025311 0.37698674
0.00000000 0.50727829 0.37696898
0.01951372 0.50666607 0.37703734
0.20809454 0.50563654 0.37715208
0.35979543 0.50403144 0.37733042
0.50107673 0.50180403 0.37757682
0.63828214 0.49891239 0.37789480
0.77344777 0.49531616 0.37828729
0.90744483 0.49097452 0.37875676
1.00000000 0.48584459 0.37930534
0.00000000 0.63488064 0.37996092
0.00000000 0.63439599 0.38002876
0.17293059 0.63358146 0.38014262
0.33919741 0.63231273 0.38031961
0.48642785 0.63055448 0.38056413
0.62695603 0.62827607 0.38087969
0.76425511 0.62544913 0.38126920
0.89973874 0.62204613 0.38173512
1.00000000 0.61803947 0.38227955
0.00000000 0.76230863 0.38362603
0.00000000 0.76191017 0.38369324
0.11976640 0.76124070 0.38380605
0.31198860 0.76019847 0.38398140
0.46768703 0.75875521 0.38422365
0.61265790 0.75688689 0.38453630
0.75273024 0.75457178 0.38492222
0.89011681 0.75178940 0.38538384
1.00000000 0.74851976 0.38592327
0.00000000 0.88963356 0.38797059
0.00000000 0.88929692 0.38803707
0.03184273 0.88873142 0.38814865
0.27618947 0.88785134 0.38832209
0.44419783 0.88663319 0.38856171
0.59506048 0.88505727 0.38887096
0.73867383 0.88310605 0.38925270
0.87844224 0.88076328 0.38970933
1.00000000 0.87801347 0.39024294
0.00000000 1.00000000 0.39299443
0.00000000 1.00000000 0.39306008
0.00000000 1.00000000 0.39317027
0.22811687 1.00000000 0.39334155
0.41503329 1.00000000 0.39357819
0.57375263 1.00000000 0.39388360
0.72185253 1.00000000 0.39426060
0.86456262 1.00000000 0.39471158
1.00000000 1.00000000 0.39523859
0.00000000 0.00000000 0.49518742
0.12745957 0.00000000 0.49523955
0.26223071 0.00000000 0.49532705
0.39490351 0.00000000 0.49546307
0.52687381 0.00000000 0.49565104
0.65852755 0.00000000 0.49589369
0.79001308 0.00000000 0.49619331
0.92139917 0.00000000 0.49655184
1.00000000 0.00000000 0.49697099
0.00000000 0.11354746 0.49567859
0.11697478 0.11133035 0.49573066
0.25641547 0.10754250 0.49581808
0.39095569 0.10147806 0.49595397
0.52392406 0.09270588 0.49614175
0.65619402 0.08034802 0.49638415
0.78809524 0.06485471 0.49668346
0.91977924 0.04630209 0.49704163
1.00000000 0.02459509 0.49746037
0.00000000 0.24717722 0.49650208
0.09781661 0.24596096 0.49655407
0.24638202 0.24390716 0.49664133
0.38423900 0.24068348 0.49677699
0.51893310 0.23616473 0.49696445
0.65225640 0.23021636 0.49720645
0.78486401 0.22268103 0.49750526
0.91705250 0.21336382 0.49786282
1.00000000 0.20201188 0.49828086
0.00000000 0.37696119 0.49777977
0.06337345 0.37613790 0.49783163
0.23003206 0.37475177 0.49791866
0.37356244 0.37258658 0.49805397
0.51107323 0.36957340 0.49824094
0.64608317 0.36564659 0.49848231
0.77981087 0.36073853 0.49878033
0.91279482 0.35477572 0.49913697
1.00000000 0.34767520 0.49955391
0.00000000 0.50549421 0.49954049
0.01484236 0.50487978 0.49959215
0.20564356 0.50384652 0.49967888
0.35829922 0.50223558 0.49981370
0.50000000 0.50000000 0.50000000
0.63744532 0.49709765 0.50024050
0.77276670 0.49348795 0.50053746
0.90687297 0.48912979 0.50089282
1.00000000 0.48398000 0.50130827
0.00000000 0.63346890 0.50180506
0.00000000 0.63298311 0.50185649
0.17008250 0.63216665 0.50194282
0.33761445 0.63089491 0.50207701
0.48531803 0.62913247 0.50226246
0.62610321 0.62684861 0.50250185
0.76356517 0.62401484 0.50279745
0.89916148 0.62060355 0.50315118
1.00000000 0.61658700 0.50356473
0.00000000 0.76114821 0.50458848
0.00000000 0.76074909 0.50463962
0.11603576 0.76007851 0.50472546
0.31027606 0.75903455 0.50485890
0.46653209 0.75758890 0.50504331
0.61178405 0.75571746 0.50528135
0.75202886 0.75339847 0.50557529
0.88953267 0.75061139 0.50592704
1.00000000 0.74733618 0.50633827
0.00000000 0.88865331 0.50790102
0.00000000 0.88831625 0.50795181
0.02717137 0.88775007 0.50803708
0.27427404 0.88686892 0.50816963
0.44298141 0.88564929 0.50835281
0.59415944 0.88407144 0.50858927
0.73795802 0.88211782 0.50888126
0.87784956 0.87977216 0.50923067
1.00000000 0.87701893 0.50963918
0.00000000 1.00000000 0.51174892
0.00000000 1.00000000 0.51179933
0.00000000 1.00000000 0.51188394
0.22584944 1.00000000 0.51201547
0.41373176 1.00000000 0.51219724
0.57281654 1.00000000 0.51243189
0.72111874 1.00000000 0.51272163
0.86395948 1.00000000 0.51306836
1.00000000 1.00000000 0.51347375
0.00000000 0.00000000 0.61918313
0.12283122 0.00000000 0.61922447
0.25963638 0.00000000 0.61929389
0.39313739 0.00000000 0.61940180
0.52555273 0.00000000 0.61955094
0.65748187 0.00000000 0.61974350
0.78915341 0.00000000 0.61998130
0.92067289 0.00000000 0.62026594
1.00000000 0.00000000 0.62059879
0.00000000 0.10505982 0.61957280
0.11206337 0.10272806 0.61961412
0.25376872 0.09873751 0.61968349
0.38917210 0.09232932 0.61979133
0.52259531 0.08301310 0.61994038
0.65514438 0.07023257 0.62013280
0.78723329 0.05473927 0.62037045
0.91905155 0.03618664 0.62065490
1.00000000 0.01447964 0.62098753
0.00000000 0.24257775 0.62022643
0.09229663 0.24134137 0.62026771
0.24364018 0.23925321 0.62033700
0.38242494 0.23597465 0.62044472
0.51759119 0.23137694 0.62059360
0.65120002 0.22532087 0.62078581
0.78399821 0.21764256 0.62102320
0.91632242 0.20813762 0.62130733
1.00000000 0.19653890 0.62163959
0.00000000 0.37385732 0.62124133
0.05734056 0.37302740 0.62128253
0.22712116 0.37163007 0.62135170
0.37169794 0.36944722 0.62145924
0.50971011 0.36640916 0.62160786
0.64501607 0.36244939 0.62179975
0.77893897 0.35749923 0.62203672
0.91206098 0.35148390 0.62232036
1.00000000 0.34431878 0.62265206
0.00000000 0.50318057 0.62264138
0.00880947 0.50256326 0.62268249
0.20244210 0.50152512 0.62275149
0.35635803 0.49990654 0.62285878
0.49860593 0.49766029 0.62300705
0.63636288 0.49474395 0.62319848
0.77188618 0.49111663 0.62343489
0.90613384 0.48673688 0.62371786
1.00000000 0.48156111 0.62404877
0.00000000 0.63164075 0.62444460
0.00000000 0.63115347 0.62448558
0.16634886 0.63033451 0.62455438
0.33555969 0.62905886 0.62466133
0.48388092 0.62729097 0.62480915
0.62500000 0.62500000 0.62500000
0.76267313 0.62215735 0.62523570
0.89841536 0.61873526 0.62551781
1.00000000 0.61470585 0.62584772
0.00000000 0.75964672 0.62666481
0.00000000 0.75924675 0.62670564
0.11109744 0.75857474 0.62677418
0.30805132 0.75752854 0.62688074
0.46503624 0.75607977 0.62702800
0.61065357 0.75420428 0.62721814
0.75112200 0.75188025 0.62745295
0.88877766 0.74908707 0.62773401
1.00000000 0.74580464 0.62806269
0.00000000 0.88738558 0.62931255
0.00000000 0.88704799 0.62935320
0.02113848 0.88648092 0.62942143
0.27178241 0.88559838 0.62952752
0.44140549 0.88437682 0.62967413
0.59299367 0.88279647 0.62986342
0.73703248 0.88083974 0.63009720
0.87708348 0.87849033 0.63037702
1.00000000 0.87573268 0.63070424
0.00000000 1.00000000 0.63239561
0.00000000 1.00000000 0.63243605
0.00000000 1.00000000 0.63250393
0.22289221 1.00000000 0.63260947
0.41204488 1.00000000 0.63275533
0.57160525 1.00000000 0.63294365
0.72016988 1.00000000 0.63317622
0.86317987 1.00000000 0.63345460
1.00000000 1.00000000 0.63378015
0.00000000 0.00000000 0.74317883
0.11694489 0.00000000 0.74321287
0.25639921 0.00000000 0.74327000
0.39094471 0.00000000 0.74335884
0.52391588 0.00000000 0.74348162
0.65618754 0.00000000 0.74364015
0.78808992 0.00000000 0.74383595
0.91977475 0.00000000 0.74407035
1.00000000 0.00000000 0.74434450
0.00000000 0.09393755 0.74349961
0.10579569 0.09143811 0.74353363
0.25046494 0.08714929 0.74359074
0.38695752 0.07998673 0.74367953
0.52094891 0.07027626 0.74380225
0.65384514 0.05773554 0.74396071
0.78616699 0.04224224 0.74415643
0.91815165 0.02368961 0.74439072
1.00000000 0.00198261 0.74466474
0.00000000 0.23678870 0.74403782
0.08519589 0.23552610 0.74407181
0.24021532 0.23339317 0.74412888
0.38017216 0.23004304 0.74421760
0.51592839 0.22534220 0.74434023
0.64989242 0.21914517 0.74449856
0.78292712 0.21127920 0.74469412
0.91541957 0.20152693 0.74492823
1.00000000 0.18960140 0.74520204
0.00000000 0.36998794 0.74487385
0.04988729 0.36914964 0.74490780
0.22348048 0.36773810 0.74496480
0.36938192 0.36553286 0.74505341
0.50802088 0.36246326 0.74517589
0.64369514 0.35846166 0.74533403
0.77786032 0.35345806 0.74552936
0.91115347 0.34737601 0.74576318
1.00000000 0.34012874 0.74603666
0.00000000 0.50030713 0.74602786
0.00135620 0.49968618 0.74606175
0.19842857 0.49864194 0.74611865
0.35394574 0.49701378 0.74620712
0.49687814 0.49475414 0.74632939
0.63502289 0.49182024 0.74648727
0.77079683 0.48817082 0.74668228
0.90521978 0.48376398 0.74691571
1.00000000 0.47855559 0.74718873
0.00000000 0.62937443 0.74751537
0.00000000 0.62888530 0.74754919
0.16164559 0.62806321 0.74760597
0.33300464 0.62678268 0.74769425
0.48209945 0.62500800 0.74781626
0.62363421 0.62270816 0.74797380
0.76156951 0.61985442 0.74816839
0.89749264 0.61641886 0.74840132
1.00000000 0.61237340 0.74867376
0.00000000 0.75778729 0.74934871
0.00000000 0.75738625 0.74938244
0.10479331 0.75671245 0.74943907
0.30528210 0.75566347 0.74952712
0.46318150 0.75421082 0.74964880
0.60925389 0.75233030 0.74980593
0.75000000 0.75000000 0.75000000
0.88784390 0.74719923 0.75023232
1.00000000 0.74390780 0.75050404
0.00000000 0.88581662 0.75153770
0.00000000 0.88547838 0.75157133
0.01368520 0.88491020 0.75162778
0.26867561 0.88402593 0.75171555
0.43945075 0.88280198 0.75183686
0.59155010 0.88121853 0.75199349
0.73588729 0.87925794 0.75218695
0.87613603 0.87690388 0.75241854
1.00000000 0.87414073 0.75268941
0.00000000 1.00000000 0.75409017
0.00000000 1.00000000 0.75412368
0.00000000 1.00000000 0.75417992
0.21919223 1.00000000 0.75426737
0.40995140 1.00000000 0.75438823
0.57010507 1.00000000 0.75454429
0.71899577 1.00000000 0.75473705
0.86221563 1.00000000 0.75496779
1.00000000 1.00000000 0.75523767
0.00000000 0.00000000 0.86717454
0.10962744 0.00000000 0.86720331
0.25247478 0.00000000 0.86725162
0.38830318 0.00000000 0.86732673
0.52194887 0.00000000 0.86743054
0.65463407 0.00000000 0.86756460
0.78681439 0.00000000 0.86773018
0.91869798 0.00000000 0.86792841
1.00000000 0.00000000 0.86816028
0.00000000 0.07925545 0.86744576
0.09796736 0.07656448 0.86747452
0.24645786 0.07204673 0.86752282
0.38428931 0.06502203 0.86759790
0.51897035 0.05531156 0.86770168
0.65228574 0.04277084 0.86783568
0.78488806 0.02727754 0.86800121
0.91707278 0.00872491 0.86819937
1.00000000 0.00000000 0.86843117
0.00000000 0.22969188 0.86790089
0.07607037 0.22839574 0.86792964
0.23605774 0.22620548 0.86797791
0.37745741 0.22276356 0.86805295
0.51392999 0.21793023 0.86815667
0.64832293 0.21155159 0.86829059
0.78164244 0.20344296 0.86845602
0.91433714 0.19336926 0.86865408
1.00000000 0.18101602 0.86888574
0.00000000 0.36530256 0.86860807
0.04096228 0.36445388 0.86863679
0.21905371 0.36302478 0.86868501
0.36659003 0.36079187 0.86875998
0.50599051 0.35768325 0.86886361
0.64210959 0.35362989 0.86899742
0.77656655 0.34856011 0.86916270
0.91006544 0.34239536 0.86936058
1.00000000 0.33504614 0.86959203
0.00000000 0.49684397 0.86958458
0.00000000 0.49621861 0.86961327
0.19353369 0.49516691 0.86966143
0.35103630 0.49352707 0.86973631
0.49480109 0.49125110 0.86983981
0.63341436 0.48829579 0.86997345
0.76949018 0.48461940 0.87013853
0.90412388 0.48017947 0.87033616
1.00000000 0.47493127 0.87056733
0.00000000 0.62664922 0.87084393
0.00000000 0.62615784 0.87087257
0.15587342 0.62533196 0.87092066
0.32992055 0.62404551 0.87099542
0.47995738 0.62226259 0.87109875
0.62199456 0.61995202 0.87123219
0.76024569 0.61708484 0.87139700
0.89638633 0.61363295 0.87159432
1.00000000 0.60956802 0.87182512
0.00000000 0.75555418 0.87239703
0.00000000 0.75515186 0.87242561
0.09691579 0.75447590 0.87247360
0.30193527 0.75342355 0.87254822
0.46095062 0.75196623 0.87265135
0.60757335 0.75007963 0.87278453
0.74865406 0.74774176 0.87294902
0.88672435 0.74493181 0.87314595
1.00000000 0.74162953 0.87337631
0.00000000 0.88393383 0.87425282
0.00000000 0.88359479 0.87428134
0.00476020 0.88302528 0.87432922
0.26491260 0.88213894 0.87440366
0.43709855 0.88091211 0.87450655
0.58981661 0.87932491 0.87463941
0.73451344 0.87735968 0.87480353
0.87500000 0.87500000 0.87500000
1.00000000 0.87223022 0.87522982
0.00000000 1.00000000 0.87641866
0.00000000 1.00000000 0.87644710
0.00000000 1.00000000 0.87649485
0.21469128 1.00000000 0.87656909
0.40743061 1.00000000 0.87667170
0.56830324 1.00000000 0.87680421
0.71758710 1.00000000 0.87696787
0.86105944 1.00000000 0.87716382
1.00000000 1.00000000 0.87739301
0.00000000 0.00000000 0.99117024
0.10064636 0.00000000 0.99119507
0.24781401 0.00000000 0.99123675
0.38519013 0.00000000 0.99130156
0.51963771 0.00000000 0.99139113
0.65281148 0.00000000 0.99150680
0.78531914 0.00000000 0.99164969
0.91743637 0.00000000 0.99182075
1.00000000 0.00000000 0.99202086
0.00000000 0.06174640 0.99140426
0.08829576 0.05905543 0.99142908
0.24169615 0.05453768 0.99147075
0.38114440 0.04751298 0.99153554
0.51664551 0.03780251 0.99162509
0.65045617 0.02526180 0.99174073
0.78338882 0.00976849 0.99188358
0.91580870 0.00000000 0.99205460
1.00000000 0.00000000 0.99225466
0.00000000 0.22114310 0.99179701
0.06562791 0.21980433 0.99182182
0.23111180 0.21754115 0.99186347
0.37425689 0.21398230 0.99192823
0.51158167 0.20897975 0.99201774
0.64648146 0.20236834 0.99213333
0.78013642 0.19394716 0.99227612
0.91306888 0.18345664 0.99244706
1.00000000 0.17054361 0.99264703
0.00000000 0.35974612 0.99240735
0.03051982 0.35888483 0.99243214
0.21377674 0.35743439 0.99247377
0.36329725 0.35516782 0.99253848
0.50360430 0.35201172 0.99262793
0.64024918 0.34789534 0.99274345
0.77504984 0.34274492 0.99288613
0.90879061 0.33647925 0.99305696
1.00000000 0.32900546 0.99325680
0.00000000 0.49276052 0.99325036
0.00000000 0.49212987 0.99327513
0.18767636 0.49106925 0.99331671
0.34760272 0.48941544 0.99338137
0.49235956 0.48711993 0.99347074
0.63152685 0.48413900 0.99358614
0.76795832 0.48043032 0.99372869
0.90283980 0.47595080 0.99389936
1.00000000 0.47065489 0.99409901
0.00000000 0.62344468 0.99433790
0.00000000 0.62295064 0.99436264
0.14891022 0.62212027 0.99440418
0.32627734 0.62082680 0.99446875
0.47743876 0.61903411 0.99455801
0.62007034 0.61671078 0.99467327
0.75869362 0.61382766 0.99481565
0.89509002 0.61035637 0.99498611
1.00000000 0.60626834 0.99518552
0.00000000 0.75293230 0.99567967
0.00000000 0.75252846 0.99570438
0.08717702 0.75184996 0.99574585
0.29797552 0.75079363 0.99581033
0.45832658 0.74933079 0.99589945
0.60560087 0.74743701 0.99601454
0.74707595 0.74509018 0.99615671
0.88541247 0.74226940 0.99632691
1.00000000 0.73895429 0.99652602
0.00000000 0.88172530 0.99728375
0.00000000 0.88138533 0.99730841
0.00000000 0.88081425 0.99734981
0.26044851 0.87992546 0.99741417
0.43433030 0.87869523 0.99750314
0.58778160 0.87710363 0.99761802
0.73290248 0.87513292 0.99775993
0.87366876 0.87276663 0.99792984
1.00000000 0.86998905 0.99812859
0.00000000 1.00000000 0.99915693
0.00000000 1.00000000 0.99918153
0.00000000 1.00000000 0.99922284
0.20932275 1.00000000 0.99928707
0.40446161 1.00000000 0.99937585
0.56618747 1.00000000 0.99949050
0.71593514 1.00000000 0.99963211
0.85970450 1.00000000 0.99980166
1.00000000 1.00000000 1.00000000
