BT601_NTSC_to_BT2020_HLG.cube
TITLE "BT601_NTSC_to_BT2020_HLG"
LUT_3D_SIZE 9
# BT601 NTSC SDR to BT2020 HLG HDR by Francesco Bucciantini
0.00000000 0.00000000 0.00000000
0.11067321 0.04088707 0.01786611
0.18114127 0.06692077 0.02924185
0.25453228 0.09403432 0.04108945
0.33013048 0.12196329 0.05329335
0.40751454 0.15055203 0.06578556
0.48640462 0.17969716 0.07852088
0.55981685 0.20932466 0.09146698
0.61940379 0.23937878 0.10459949
0.08478113 0.13544181 0.04105481
0.13941449 0.14147875 0.04477383
0.20000000 0.15107241 0.05040420
0.26828068 0.16488461 0.05808477
0.34084303 0.18226225 0.06727317
0.41624025 0.20251024 0.07754507
0.49373809 0.22502345 0.08860601
0.56488863 0.24932167 0.10025819
0.62305291 0.27503942 0.11236793
0.13876314 0.22168058 0.06719531
0.17749301 0.22541968 0.06952991
0.22818275 0.23156137 0.07328230
0.28989979 0.24080019 0.07876264
0.35810800 0.25301645 0.08576358
0.43049194 0.26797051 0.09403696
0.50575119 0.28536529 0.10334766
0.57309273 0.30489193 0.11349633
0.62901664 0.32625830 0.12432322
0.19498427 0.31149645 0.09442010
0.22420398 0.31416841 0.09609554
0.26614098 0.31860387 0.09884453
0.32063304 0.32538053 0.10297329
0.38341231 0.33452217 0.10842203
0.45175986 0.34597103 0.11507777
0.52305608 0.35961244 0.12280343
0.58514571 0.37529569 0.13145860
0.63791183 0.39285142 0.14091206
0.25289621 0.40401348 0.12246365
0.27605263 0.40607715 0.12376002
0.31107661 0.40951836 0.12590644
0.35880799 0.41481242 0.12917309
0.41586371 0.42202125 0.13355721
0.47960880 0.43115288 0.13901469
0.54451565 0.44217413 0.14547465
0.60057292 0.45502056 0.15285141
0.64952199 0.46960526 0.16105403
0.31217622 0.49871606 0.15116968
0.33121376 0.50038904 0.15222178
0.36092403 0.50316787 0.15397194
0.40279111 0.50740472 0.15665444
0.45435683 0.51310094 0.16028866
0.51303527 0.52019874 0.16486361
0.56889214 0.52859564 0.17034612
0.61870981 0.53815793 0.17668752
0.66348052 0.54873323 0.18382961
0.37260991 0.58219041 0.18043437
0.38869874 0.58324308 0.18131674
0.41430702 0.58499656 0.18278854
0.45124808 0.58768936 0.18505379
0.49781952 0.59134617 0.18814023
0.54788320 0.59596080 0.19205286
0.59503758 0.60150222 0.19677929
0.63884121 0.60791957 0.20229377
0.67934468 0.61514687 0.20856082
0.43404383 0.64822311 0.21018342
0.44793148 0.64895144 0.21094139
0.47032564 0.65016757 0.21220782
0.50315277 0.65204227 0.21416212
0.54203030 0.65460179 0.21683462
0.58226976 0.65785402 0.22023808
0.62202237 0.66179196 0.22437156
0.66029992 0.66639618 0.22922321
0.69665743 0.67163691 0.23477250
0.49636237 0.70337387 0.24036084
0.50842267 0.70390921 0.24102393
0.52703695 0.70480438 0.24213307
0.55260674 0.70618745 0.24384765
0.58283673 0.70808187 0.24619813
0.61556921 0.71049912 0.24920087
0.64916109 0.71344107 0.25286135
0.68251984 0.71690142 0.25717609
0.71499139 0.72086690 0.26213430
0.03377311 0.02368093 0.13628033
0.11571163 0.04724975 0.13744644
0.18426281 0.07098715 0.13938225
0.25676313 0.09697030 0.14233998
0.33185351 0.12424102 0.14633014
0.40891164 0.15240309 0.15132768
0.48757572 0.18125081 0.15728272
0.56063134 0.21065991 0.16412963
0.61998785 0.24054727 0.17179459
0.09126042 0.13749644 0.14232999
0.14344693 0.14344693 0.14344693
0.20283151 0.15291716 0.14530282
0.27039812 0.16657648 0.14814239
0.34251218 0.18379422 0.15198028
0.41760815 0.20389013 0.15679785
0.49489183 0.22626608 0.16255262
0.56568040 0.25044377 0.16918638
0.62362520 0.27605701 0.17663204
0.14281397 0.22294184 0.15194584
0.18067759 0.22666014 0.15299260
0.23066857 0.23276910 0.15473404
0.29186043 0.24196181 0.15740356
0.35969704 0.25412223 0.16102086
0.43181470 0.26901483 0.16557559
0.50685232 0.28634618 0.17103527
0.57384907 0.30581020 0.17735204
0.62957018 0.32711659 0.18446840
0.19788756 0.31239530 0.16579349
0.22673343 0.31505964 0.16675335
0.26827532 0.31948273 0.16835251
0.32240684 0.32624114 0.17080932
0.38489690 0.33535931 0.17414840
0.45302052 0.34678054 0.17836822
0.52405593 0.36039131 0.18344757
0.58585286 0.37604207 0.18935071
0.63843856 0.39356451 0.19603198
0.25514137 0.40470691 0.18322028
0.27811091 0.40676705 0.18408930
0.31290458 0.41020248 0.18553910
0.36039395 0.41548783 0.18777118
0.41723285 0.42268514 0.19081366
0.48079645 0.43180273 0.19467258
0.54540272 0.44280780 0.19933690
0.60122172 0.45563636 0.20478252
0.65001565 0.47020196 0.21097565
0.31399780 0.49927797 0.20353034
0.33293119 0.50094773 0.20431299
0.36250073 0.50371797 0.20562024
0.40420452 0.50794196 0.20763656
0.45561030 0.51362136 0.21039197
0.51409257 0.52069893 0.21389796
0.56966641 0.52907292 0.21815161
0.61929614 0.53861039 0.22313854
0.66393716 0.54915975 0.22883543
0.37413737 0.58254422 0.22611698
0.39016321 0.58359482 0.22682171
0.41568128 0.58534487 0.22799995
0.45251017 0.58803246 0.22982000
0.49896383 0.59168234 0.23231244
0.54875377 0.59628841 0.23549231
0.59570675 0.60181985 0.23936252
0.63936521 0.60822601 0.24391617
0.67976260 0.61544118 0.24913840
0.43535580 0.64846776 0.25049830
0.44920288 0.64919509 0.25113462
0.47153667 0.65040957 0.25219929
0.50426997 0.65228175 0.25384590
0.54292975 0.65483787 0.25610463
0.58298834 0.65808585 0.25899254
0.62259796 0.66201875 0.26251653
0.66076474 0.66661720 0.26667509
0.69703684 0.67185155 0.27145985
0.49751003 0.70355363 0.27630719
0.50950752 0.70408843 0.27688420
0.52801485 0.70498271 0.27785023
0.55345466 0.70636441 0.27934567
0.58355304 0.70825696 0.28139979
0.61616592 0.71067186 0.28403064
0.64965575 0.71361099 0.28724761
0.68293042 0.71706809 0.29105304
0.71533386 0.72102991 0.29544325
0.05527719 0.03875910 0.22305300
0.12370985 0.05633844 0.22376737
0.18938777 0.07733471 0.22496161
0.26046544 0.10170900 0.22680604
0.33472631 0.12797387 0.22933125
0.41124648 0.15546119 0.23255188
0.48953552 0.18382964 0.23647022
0.56199047 0.21288278 0.24107851
0.62096415 0.24249633 0.24636090
0.10120972 0.14087850 0.22679977
0.14997322 0.14669187 0.22750238
0.20749835 0.15596519 0.22867711
0.27391621 0.16937888 0.23049182
0.34529631 0.18633785 0.23297708
0.41989464 0.20618600 0.23614800
0.49682277 0.22833707 0.24000763
0.56700183 0.25231640 0.24454927
0.62458189 0.27775700 0.24975826
0.14936792 0.22504343 0.23295461
0.18590141 0.22872756 0.23363871
0.23478274 0.23478274 0.23478274
0.29512278 0.24389957 0.23655061
0.36234915 0.25596795 0.23897287
0.43402636 0.27075904 0.24206526
0.50868584 0.28798544 0.24583201
0.57511171 0.30734567 0.25026797
0.63049567 0.32855250 0.25536034
0.20266828 0.31389856 0.24221435
0.23091772 0.31655025 0.24287238
0.27182088 0.32095279 0.24397311
0.32536305 0.32768088 0.24567486
0.38737652 0.33676008 0.24800801
0.45512914 0.34813535 0.25098911
0.52572208 0.36169514 0.25462388
0.58703380 0.37729182 0.25890925
0.63931938 0.39475880 0.26383489
0.25886688 0.40586841 0.25446018
0.28153263 0.40792268 0.25508662
0.31594971 0.41134846 0.25613487
0.36304097 0.41661927 0.25775633
0.41952139 0.42379737 0.25998109
0.48278377 0.43289153 0.26282641
0.54688216 0.44386961 0.26629967
0.60230571 0.45666834 0.27040006
0.65084139 0.47120204 0.27512004
0.31703243 0.50021984 0.26945298
0.33579476 0.50188179 0.27004464
0.36513247 0.50463771 0.27103505
0.40656641 0.50884028 0.27256789
0.45770700 0.51449167 0.27467270
0.51585371 0.52153555 0.27736736
0.57095883 0.52987136 0.28066072
0.62027621 0.53936745 0.28455425
0.66470119 0.54987352 0.28904319
0.37668782 0.58313664 0.28689580
0.39260957 0.58418378 0.28745156
0.41797832 0.58592810 0.28838219
0.45462116 0.58860701 0.28982330
0.50087769 0.59224530 0.29180367
0.55020586 0.59683708 0.29434154
0.59682457 0.60235183 0.29744702
0.64024149 0.60873930 0.30112358
0.68046205 0.61593420 0.30536905
0.43754956 0.64887773 0.30647954
0.45132934 0.64960341 0.30699985
0.47356285 0.65081513 0.30787140
0.50613002 0.65268309 0.30922169
0.54442971 0.65523352 0.31107859
0.58418829 0.65847438 0.31346044
0.62356014 0.66239884 0.31637831
0.66154241 0.66698765 0.31983733
0.69767199 0.67221133 0.32383756
0.49943085 0.70385501 0.32791153
0.51131416 0.70438891 0.32839789
0.52964468 0.70528169 0.32921279
0.55486922 0.70666109 0.33047590
0.58474922 0.70855053 0.33221402
0.61716324 0.71096150 0.33444538
0.65048314 0.71389590 0.33718171
0.68361761 0.71734755 0.34042941
0.71590734 0.72130325 0.34419040
0.07767324 0.05446269 0.31342492
0.13520980 0.06810241 0.31393371
0.19709209 0.08628195 0.31478606
0.26611992 0.10866756 0.31610682
0.33914490 0.13357106 0.31792351
0.41485086 0.16010028 0.32025446
0.49256735 0.18776915 0.32311098
0.56408349 0.21629378 0.32649868
0.62247168 0.24549620 0.33041827
0.11498249 0.14598174 0.31610232
0.15959177 0.15159954 0.31660681
0.21455333 0.16058972 0.31745199
0.27929850 0.17364654 0.31876170
0.34958133 0.19022543 0.32056335
0.42342541 0.20970594 0.32287523
0.49981040 0.23152049 0.32570877
0.56903734 0.25520086 0.32906973
0.62605936 0.28037987 0.33295905
0.15902308 0.22827278 0.32054702
0.19374442 0.23190562 0.32104453
0.24104045 0.23787991 0.32187804
0.30012501 0.24688239 0.32316982
0.36643481 0.25881172 0.32494703
0.43744307 0.27344904 0.32722795
0.51149999 0.29051597 0.33002412
0.57705747 0.30971806 0.33334156
0.63192528 0.33077283 0.33718162
0.20988568 0.31622180 0.32733826
0.23727738 0.31885416 0.32782546
0.27724386 0.32322533 0.32864178
0.32990707 0.32990707 0.32990707
0.39120088 0.33892664 0.33164818
0.45838859 0.35023155 0.33388332
0.52828233 0.36371320 0.33662422
0.58885470 0.37922689 0.33987725
0.64068042 0.39660865 0.34364428
0.26455553 0.40766786 0.33650041
0.28677201 0.40971311 0.33697437
0.32062718 0.41312404 0.33776858
0.36711893 0.41837248 0.33899981
0.42305527 0.42552100 0.34069445
0.48585773 0.43457910 0.34287062
0.54915852 0.44551560 0.34554023
0.60397826 0.45826836 0.34871010
0.65211781 0.47275288 0.35238272
0.32169415 0.50167601 0.34797622
0.34019948 0.50332455 0.34843457
0.36918733 0.50605849 0.34920272
0.41021190 0.51022819 0.35039377
0.46094822 0.51583657 0.35203357
0.51855812 0.52282869 0.35414007
0.57295004 0.53110581 0.35672536
0.62178953 0.54053827 0.35979669
0.66588273 0.55097774 0.36335727
0.38061960 0.58405393 0.36165141
0.39638345 0.58509572 0.36209245
0.42152513 0.58683122 0.36283168
0.45788422 0.58949673 0.36397814
0.50381640 0.59311714 0.36555701
0.55244056 0.59768688 0.36758602
0.59854893 0.60317588 0.37007738
0.64159556 0.60953450 0.37303881
0.68154422 0.61669812 0.37647416
0.44093898 0.64951335 0.37737548
0.45461604 0.65023646 0.37779816
0.47669628 0.65144391 0.37850672
0.50898435 0.65330535 0.37960584
0.54673730 0.65584698 0.38111997
0.58603824 0.65907685 0.38306656
0.62504605 0.66298825 0.38545788
0.66274494 0.66756215 0.38830202
0.69865515 0.67276932 0.39160350
0.50239266 0.70432263 0.39497913
0.51408756 0.70485514 0.39538300
0.53214978 0.70574560 0.39606010
0.55704676 0.70712144 0.39711064
0.58659341 0.70900604 0.39855827
0.61870302 0.71141091 0.40042010
0.65176211 0.71433802 0.40270838
0.68468090 0.71778122 0.40543153
0.71679542 0.72172745 0.40859463
0.10074283 0.07063857 0.40651472
0.14965854 0.08161838 0.40690714
0.20727102 0.09730466 0.40756509
0.27374404 0.11761063 0.40858605
0.34515975 0.14094272 0.40999317
0.41978235 0.16630009 0.41180330
0.49672787 0.19308256 0.41402868
0.56693700 0.22092220 0.41667785
0.62453490 0.24958367 0.41975621
0.13166989 0.15275566 0.40858257
0.17200441 0.15813299 0.40897300
0.22393999 0.16677134 0.40962764
0.28657222 0.17937877 0.41064347
0.35541960 0.19547208 0.41204356
0.42825817 0.21447658 0.41384472
0.50388394 0.23585029 0.41605918
0.57181349 0.25913530 0.41869550
0.62808183 0.28396565 0.42175914
0.17147690 0.23266303 0.41203086
0.20409039 0.23622836 0.41241802
0.24943233 0.24209600 0.41306720
0.30690553 0.25094728 0.41407460
0.37200868 0.26269208 0.41546313
0.44212264 0.27712452 0.41724953
0.51531856 0.29397815 0.41944601
0.57971276 0.31296789 0.42206118
0.63388283 0.33381774 0.42510056
0.21947206 0.31940546 0.41733604
0.24579777 0.32201180 0.41771829
0.28457010 0.32634067 0.41835925
0.33608729 0.33295991 0.41935393
0.39642668 0.34189895 0.42072504
0.46285644 0.35310871 0.42248919
0.53176216 0.36648453 0.42465857
0.59134165 0.38188566 0.42724183
0.64254494 0.39915166 0.43024461
0.27222346 0.41014230 0.42456044
0.29386081 0.41217527 0.42493619
0.32698283 0.41556599 0.42556627
0.37268257 0.42078398 0.42654414
0.42789221 0.42789221 0.42789221
0.49007522 0.43690115 0.42962694
0.55225825 0.44778094 0.43176046
0.60626483 0.46047097 0.43430148
0.65386737 0.47488831 0.43725578
0.32802913 0.50366961 0.43371245
0.34619600 0.50529995 0.43408028
0.37472026 0.50800408 0.43469711
0.41519850 0.51212918 0.43565449
0.46539150 0.51767917 0.43697445
0.52223042 0.52460099 0.43867326
0.57566656 0.53279832 0.44076300
0.62386059 0.54214421 0.44325241
0.66750327 0.55249301 0.44614745
0.38598869 0.58531423 0.44475924
0.40154181 0.58634873 0.44511794
0.42637944 0.58807216 0.44571949
0.46235695 0.59071938 0.44665325
0.50780076 0.59431537 0.44794080
0.55548440 0.59885497 0.44959818
0.60090552 0.60430878 0.45163737
0.64345061 0.61062795 0.45406716
0.68302943 0.61774875 0.45689368
0.44558183 0.65038828 0.45763664
0.45912060 0.65110787 0.45798525
0.48099410 0.65230947 0.45856992
0.51285644 0.65416196 0.45947757
0.54987891 0.65669154 0.46072928
0.58856440 0.65990632 0.46234082
0.62707994 0.66379982 0.46432404
0.66439403 0.66835328 0.46668779
0.70000535 0.67353779 0.46943833
0.50640851 0.70496702 0.47225793
0.51785186 0.70549762 0.47259576
0.53555586 0.70638489 0.47316238
0.56001383 0.70775584 0.47404208
0.58911179 0.70963380 0.47525544
0.62080992 0.71203031 0.47681788
0.65351514 0.71494737 0.47874114
0.68614040 0.71837898 0.48103406
0.71801583 0.72231218 0.48370302
0.12435741 0.08719656 0.50179778
0.16647319 0.09630677 0.50211351
0.21972010 0.10991647 0.50264232
0.28328686 0.12824076 0.50346148
0.35277599 0.14992760 0.50458768
0.42606674 0.17398033 0.50603172
0.50204252 0.19973560 0.50779979
0.57055607 0.22675990 0.50989423
0.62716472 0.25476546 0.51231405
0.15050782 0.16108297 0.50345869
0.18681853 0.16619109 0.50377150
0.23550958 0.17443083 0.50429543
0.29570134 0.18652125 0.50510707
0.36282053 0.20204645 0.50622299
0.43441997 0.22048501 0.50765393
0.50901117 0.24132715 0.50940611
0.57533617 0.26412977 0.51148194
0.63066037 0.28853063 0.51388051
0.18633296 0.23821318 0.50621288
0.21672225 0.24169665 0.50652091
0.25986945 0.24743465 0.50703687
0.31544675 0.25610149 0.50783618
0.37908588 0.26762018 0.50893526
0.44809383 0.28180034 0.51034475
0.52013246 0.29838999 0.51207089
0.58308465 0.31711564 0.51411619
0.63637965 0.33770952 0.51647991
0.23126528 0.32347068 0.51041288
0.25638289 0.32604453 0.51071377
0.29376145 0.33032056 0.51121779
0.34390451 0.33686159 0.51199867
0.40307538 0.34569976 0.51307253
0.46856348 0.35679013 0.51444991
0.53615831 0.37003290 0.51613706
0.59450312 0.38529222 0.51813664
0.64492448 0.40241208 0.52044816
0.28181778 0.41331602 0.51606090
0.30277024 0.41533347 0.51635244
0.33501257 0.41869861 0.51684084
0.37974721 0.42387804 0.51759760
0.43405920 0.43093524 0.51863846
0.49546883 0.43988186 0.51997379
0.55618355 0.45068970 0.52160986
0.60917523 0.46330006 0.52354949
0.65610184 0.47763201 0.52579252
0.33603387 0.50621180 0.52310073
0.35378994 0.50781924 0.52338103
0.38174719 0.51048582 0.52385062
0.42155123 0.51455472 0.52457836
0.47106782 0.52003107 0.52557948
0.52686416 0.52686416 0.52686416
0.57911487 0.53496071 0.52843866
0.62650027 0.54419712 0.53030600
0.66957464 0.55443111 0.53246637
0.39281409 0.58692883 0.53143195
0.40810718 0.58795405 0.53169950
0.43256800 0.58966216 0.53214777
0.46807007 0.59228612 0.53284258
0.51281846 0.59585105 0.53379861
0.55934026 0.60035232 0.53502578
0.60390373 0.60576134 0.53653033
0.64581821 0.61203027 0.53831548
0.68492947 0.61909654 0.54038177
0.45150727 0.65151193 0.54092306
0.46487350 0.65222701 0.54117679
0.48648841 0.65342115 0.54160196
0.51773617 0.65526222 0.54226105
0.55385620 0.65777639 0.54316816
0.59177490 0.66097190 0.54433289
0.62967287 0.66484251 0.54576145
0.66650152 0.66936983 0.54745721
0.70173415 0.67452538 0.54942109
0.51146488 0.70579581 0.55142393
0.52259893 0.70632395 0.55166320
0.53986084 0.70720715 0.55206418
0.56377427 0.70857183 0.55268589
0.59231257 0.71044129 0.55354175
0.62349468 0.71282707 0.55464104
0.65575399 0.71573127 0.55598988
0.68800784 0.71914801 0.55759180
0.71957972 0.72306452 0.55944804
0.14843156 0.10407681 0.58494841
0.18514990 0.11182010 0.58514680
0.23418814 0.12373508 0.58547938
0.29464997 0.14026558 0.58599528
0.36196417 0.16033411 0.58670599
0.43370500 0.18302430 0.58761968
0.50842002 0.20766090 0.58874208
0.57492840 0.23377081 0.59007691
0.63036120 0.26102525 0.59162614
0.17093790 0.17081120 0.58599352
0.20363773 0.17563661 0.58619076
0.24906209 0.18345259 0.58652140
0.30660471 0.19498440 0.58703431
0.37176054 0.20988451 0.58774090
0.44191387 0.22768922 0.58864934
0.51514907 0.24792647 0.58976531
0.57959453 0.27017268 0.59109255
0.63379552 0.29407255 0.59263305
0.20319236 0.24489643 0.58773449
0.23137782 0.24828615 0.58792982
0.27221186 0.25387526 0.58825727
0.32568975 0.26232940 0.58876523
0.38765096 0.27358601 0.58946503
0.45536276 0.28747204 0.59036477
0.52590619 0.30375208 0.59147012
0.58716449 0.32216622 0.59278482
0.63941695 0.34245651 0.59431087
0.24505263 0.32842354 0.59040832
0.26888539 0.33095887 0.59060075
0.30473423 0.33517221 0.59092335
0.35332347 0.34162036 0.59142380
0.41114100 0.35033850 0.59211330
0.47551961 0.36128650 0.59299984
0.54144438 0.37437026 0.59408908
0.59833330 0.38945967 0.59538473
0.64782121 0.40640401 0.59688885
0.29323783 0.41720364 0.59403983
0.31342779 0.41920237 0.59422839
0.34467460 0.42253670 0.59454452
0.38829770 0.42766965 0.59503495
0.44155923 0.43466530 0.59571069
0.50204479 0.44353669 0.59657962
0.56091698 0.45425758 0.59764734
0.61270667 0.46677156 0.59891755
0.65882438 0.48100008 0.60039237
0.34566736 0.50930344 0.59862325
0.36295245 0.51088345 0.59880704
0.39025387 0.51350506 0.59911518
0.42926985 0.51750659 0.59959326
0.47798750 0.52289463 0.60025202
0.53242787 0.52962119 0.60109922
0.58328523 0.53759659 0.60214037
0.62970854 0.54670125 0.60337917
0.67210100 0.55679688 0.60481780
0.40108612 0.58890364 0.60412824
0.41607527 0.58991764 0.60430646
0.44009344 0.59160718 0.60460528
0.47503342 0.59420296 0.60506892
0.51882922 0.59773026 0.60570785
0.56399194 0.60218506 0.60652965
0.60753974 0.60753974 0.60753974
0.64870061 0.61374771 0.60874183
0.68724930 0.62074775 0.61013812
0.45872211 0.65289045 0.61050477
0.47188403 0.65360005 0.61067675
0.49319178 0.65478508 0.61096512
0.52358653 0.65661224 0.61141258
0.55865081 0.65910763 0.61202929
0.59566332 0.66227965 0.61282261
0.63282522 0.66612236 0.61379787
0.66907135 0.67061780 0.61495875
0.70384715 0.67573800 0.61630752
0.51752055 0.70681445 0.61768781
0.52829482 0.70733960 0.61785302
0.54504015 0.70821781 0.61813006
0.56831347 0.70957483 0.61855997
0.59618944 0.71143389 0.61915255
0.62675684 0.71380655 0.61991496
0.65848179 0.71669501 0.62085240
0.69028834 0.72009356 0.62196852
0.72149311 0.72398964 0.62326563
0.17290415 0.12123643 0.65081132
0.20529103 0.12794540 0.65094861
0.25041566 0.13847982 0.65117887
0.30770526 0.15342987 0.65153632
0.37266872 0.17196894 0.65202925
0.44267816 0.19329818 0.65266385
0.51576916 0.21677025 0.65344477
0.58002722 0.24189891 0.65437542
0.63411517 0.26832904 0.65545819
0.19257125 0.18177666 0.65153510
0.22210864 0.18631830 0.65167184
0.26437822 0.19370375 0.65190117
0.31917138 0.20465876 0.65225717
0.38219081 0.21890135 0.65274812
0.45072363 0.23602684 0.65338018
0.52223213 0.25560482 0.65415798
0.58456385 0.27723558 0.65508494
0.63747882 0.30057438 0.65616343
0.22170037 0.25266688 0.65274367
0.24778945 0.25595371 0.65287949
0.28629218 0.26137892 0.65310727
0.33754664 0.26959785 0.65346089
0.39766467 0.28056299 0.65394855
0.46391719 0.29411981 0.65457639
0.53258337 0.31005099 0.65534901
0.59193056 0.32811181 0.65626983
0.64298740 0.34805567 0.65734123
0.26060451 0.33425785 0.65460681
0.28313119 0.33674926 0.65474122
0.31737497 0.34089104 0.65496665
0.36428202 0.34723301 0.65531661
0.42059582 0.35581365 0.65579925
0.48371770 0.36659818 0.65642063
0.54757531 0.37949885 0.65718535
0.60281440 0.39439209 0.65809678
0.65122930 0.41113320 0.65915732
0.30635330 0.42181177 0.65715074
0.32573133 0.42378877 0.65728325
0.35589957 0.42708729 0.65750550
0.39829514 0.43216619 0.65785054
0.45037592 0.43909021 0.65832639
0.50965506 0.44787396 0.65893907
0.56642502 0.45849344 0.65969312
0.61684567 0.47089487 0.66059189
0.66203092 0.48500244 0.66163778
0.35686109 0.51293658 0.66038348
0.37362869 0.51448495 0.66051362
0.40020245 0.51705467 0.66073190
0.43833380 0.52097841 0.66107077
0.48614398 0.52626437 0.66153814
0.53887019 0.53286766 0.66213993
0.58815441 0.54070268 0.66288063
0.63347610 0.54965443 0.66376357
0.67508000 0.55958922 0.66479112
0.41077243 0.59124007 0.66429830
0.42542044 0.59224095 0.66442562
0.44893892 0.59390878 0.66463917
0.48323977 0.59647160 0.66497073
0.52577077 0.59995487 0.66542803
0.56940749 0.60435527 0.66601690
0.61179865 0.60964631 0.66674174
0.65209214 0.61578281 0.66760586
0.68998820 0.62270515 0.66861164
0.46721504 0.65452731 0.66887610
0.48014420 0.65523046 0.66900021
0.50109867 0.65640477 0.66920837
0.53034925 0.65821553 0.66953156
0.56422801 0.66068881 0.66997737
0.60021098 0.66383315 0.67055147
0.63652835 0.66764298 0.67125820
0.67210082 0.67210082 0.67210082
0.70634496 0.67717933 0.67308170
0.52451209 0.70802665 0.67408758
0.53488502 0.70854826 0.67420813
0.55105106 0.70942056 0.67441032
0.57360161 0.71076852 0.67472426
0.60072390 0.71261528 0.67515732
0.63058643 0.71497242 0.67571505
0.66169442 0.71784226 0.67640171
0.69298142 0.72121928 0.67722050
0.72375771 0.72509118 0.67817376
0.19772914 0.13864315 0.70586113
0.22659518 0.14454644 0.70596205
0.26815849 0.15394905 0.70613137
0.32230963 0.16752425 0.70639431
0.38481547 0.18465364 0.70675716
0.45295134 0.20466518 0.70722468
0.52400114 0.22696473 0.70780058
0.58581407 0.25107516 0.70848778
0.63840965 0.27662994 0.70928847
0.21513869 0.19382055 0.70639342
0.24193638 0.19808624 0.70649404
0.28124156 0.20504827 0.70666285
0.33327366 0.21542715 0.70692502
0.39404414 0.22900098 0.70728680
0.46081749 0.24542274 0.70775293
0.53017831 0.26430564 0.70832714
0.59020800 0.28527744 0.70901232
0.64169421 0.30800748 0.70981067
0.24156163 0.26146549 0.70728351
0.26570770 0.26464307 0.70738364
0.30193407 0.26989366 0.70755161
0.35091125 0.27786085 0.70781248
0.40906987 0.28851212 0.70817246
0.47373001 0.30171197 0.70863630
0.54009191 0.31726214 0.70920769
0.59735036 0.33493434 0.70988951
0.64707638 0.35449457 0.71068396
0.27769710 0.34095742 0.70865878
0.29893852 0.34340022 0.70875814
0.33155367 0.34746273 0.70892483
0.37669930 0.35368689 0.70918371
0.43139519 0.36211463 0.70954095
0.49313668 0.37271688 0.71000125
0.55449158 0.38541280 0.71056830
0.60791870 0.40008596 0.71124496
0.65513610 0.41659832 0.71203343
0.32101917 0.42714028 0.71054262
0.33956129 0.42909273 0.71064094
0.36859933 0.43235079 0.71080589
0.40968279 0.43736857 0.71106205
0.46047741 0.44421150 0.71141556
0.51816664 0.45289594 0.71187107
0.57266131 0.46340035 0.71243223
0.62156984 0.47567387 0.71310189
0.66571107 0.48964377 0.71388224
0.36952782 0.51709581 0.71294653
0.38574521 0.51860873 0.71304354
0.41153732 0.52112028 0.71320628
0.44870646 0.52495677 0.71345904
0.49551684 0.53012809 0.71380785
0.54612455 0.53659277 0.71425731
0.59368809 0.54426969 0.71481104
0.63778577 0.55304892 0.71547187
0.67850364 0.56280192 0.71624196
0.42182338 0.59393555 0.71587248
0.43610036 0.59492149 0.71596791
0.45907202 0.59656463 0.71612802
0.49266788 0.59908994 0.71637668
0.53356461 0.60252306 0.71671985
0.57554239 0.60686147 0.71716206
0.61665622 0.61207994 0.71770689
0.65598035 0.61813489 0.71835712
0.69314041 0.62496849 0.71911491
0.47696002 0.65642364 0.71931435
0.48963193 0.65711939 0.71940796
0.51001716 0.65828141 0.71956502
0.53795021 0.66007336 0.71980895
0.57054004 0.66252125 0.72014560
0.60538906 0.66563382 0.72057943
0.64076595 0.66940588 0.72111396
0.67558142 0.67382052 0.72175194
0.70922386 0.67885111 0.72249552
0.53235979 0.70943459 0.72325908
0.54229951 0.70995212 0.72335065
0.55783670 0.71081762 0.72350428
0.57959666 0.71215513 0.72374290
0.60588737 0.71398769 0.72407223
0.63496545 0.71632693 0.72449666
0.66538143 0.71917530 0.72501962
0.69608176 0.72252747 0.72564384
0.72637144 0.72637144 0.72637144
