BT601_NTSC-J_to_BT601_NTSC.cube
TITLE "BT601_NTSC-J_to_BT601_NTSC_v3"
LUT_3D_SIZE 5
# BT601 NTSC-J Japan (1953) to BT601 NTSC SMPTE C (1987) standard (smpte170m) by Francesco Bucciantini
0.00000000 0.00000000 0.00000000
0.32706113 0.00000000 0.00000000
0.63226252 0.00000000 0.00000000
0.93746390 0.00000000 0.00000000
1.00000000 0.00000000 0.00000000
0.00000000 0.25136626 0.00000000
0.26457134 0.24250462 0.00000000
0.60207468 0.22076352 0.00000000
0.91802707 0.17961942 0.00000000
1.00000000 0.10232482 0.00000000
0.00000000 0.50234496 0.00000000
0.00732239 0.49781568 0.00000000
0.52500927 0.48713544 0.00000000
0.87105524 0.46869101 0.00000000
1.00000000 0.44084412 0.00000000
0.00000000 0.75332365 0.00000000
0.00000000 0.75037378 0.00000000
0.35995506 0.74347687 0.00000000
0.78544720 0.73176625 0.00000000
1.00000000 0.71458686 0.00000000
0.00000000 1.00000000 0.00000000
0.00000000 1.00000000 0.00000000
0.00000000 0.99714180 0.00000000
0.64093264 0.98868474 0.00000000
1.00000000 0.97639707 0.00000000
0.00000000 0.01656496 0.25950057
0.31514753 0.00000000 0.25583903
0.62618046 0.00000000 0.24715543
0.93350376 0.00000000 0.23198041
1.00000000 0.00000000 0.20856826
0.00000000 0.25863587 0.25373568
0.25000000 0.25000000 0.25000000
0.59566779 0.22886971 0.24113338
0.91397383 0.18916052 0.22561198
1.00000000 0.11622596 0.20158755
0.00000000 0.50613449 0.23988728
0.00000000 0.50164014 0.23596179
0.51761009 0.49104463 0.22662465
0.86675968 0.47275478 0.21020473
1.00000000 0.44516333 0.18456468
0.00000000 0.75580302 0.21499696
0.00000000 0.75286365 0.21068214
0.34910564 0.74599159 0.20037055
0.78063514 0.73432422 0.18205053
1.00000000 0.71721076 0.15284849
0.00000000 1.00000000 0.17432221
0.00000000 1.00000000 0.16919425
0.00000000 0.99896624 0.15680159
0.63493837 0.99052650 0.13421444
1.00000000 0.97826453 0.09608090
0.00000000 0.05502078 0.51630614
0.28573275 0.03538894 0.51442238
0.61181481 0.00000000 0.51002172
0.92423791 0.00000000 0.50256155
1.00000000 0.00000000 0.49164586
0.00000000 0.27485221 0.51334779
0.21291820 0.26668354 0.51145286
0.58050838 0.24680273 0.50702581
0.90448689 0.20994252 0.49951991
1.00000000 0.14487685 0.48853498
0.00000000 0.51482202 0.50641167
0.00000000 0.51040592 0.50449008
0.50000000 0.50000000 0.50000000
0.85669631 0.48205538 0.49238483
1.00000000 0.45503231 0.48123425
0.00000000 0.76152530 0.49456982
0.00000000 0.75860989 0.49260110
0.32259067 0.75179457 0.48799954
0.76933794 0.74022588 0.48019083
1.00000000 0.72326278 0.46874627
0.00000000 1.00000000 0.47704045
0.00000000 1.00000000 0.47499798
0.00000000 1.00000000 0.47022176
0.62078656 0.99478757 0.46210922
1.00000000 0.98258469 0.45020157
0.00000000 0.11566931 0.77311170
0.22910743 0.09900555 0.77188301
0.58692106 0.05423283 0.76902239
0.90848210 0.00000000 0.76420440
1.00000000 0.00000000 0.75722724
0.00000000 0.30024051 0.77118322
0.13441040 0.29271613 0.76995119
0.55414391 0.27452855 0.76708276
0.88834439 0.24136430 0.76225151
1.00000000 0.18531097 0.75525483
0.00000000 0.52904742 0.76668595
0.00000000 0.52475421 0.76544608
0.46899207 0.51464552 0.76255930
0.83954212 0.49724014 0.75769683
1.00000000 0.47109932 0.75065424
0.00000000 0.77100817 0.75908765
0.00000000 0.76813169 0.75783434
0.27291377 0.76140852 0.75491606
0.75000000 0.75000000 0.75000000
1.00000000 0.73328064 0.74287857
0.00000000 1.00000000 0.74802967
0.00000000 1.00000000 0.74675629
0.00000000 1.00000000 0.74379105
0.59628649 1.00000000 0.73879503
1.00000000 0.98977474 0.73155590
0.00000000 0.17888171 1.00000000
0.11588677 0.16698941 1.00000000
0.54910750 0.13650840 1.00000000
0.88531367 0.07039932 1.00000000
1.00000000 0.00000000 1.00000000
0.00000000 0.33357886 1.00000000
0.00000000 0.32677009 1.00000000
0.51383171 0.31042647 1.00000000
0.86458139 0.28110188 1.00000000
1.00000000 0.23336309 1.00000000
0.00000000 0.54881319 1.00000000
0.00000000 0.54468069 1.00000000
0.42045129 0.53495975 1.00000000
0.81421463 0.51825442 1.00000000
1.00000000 0.49324917 1.00000000
0.00000000 0.78440956 1.00000000
0.00000000 0.78158652 1.00000000
0.18252184 0.77498975 1.00000000
0.72124806 0.76380068 1.00000000
1.00000000 0.74741469 1.00000000
0.00000000 1.00000000 1.00000000
0.00000000 1.00000000 1.00000000
0.00000000 1.00000000 1.00000000
0.55913399 1.00000000 1.00000000
1.00000000 1.00000000 1.00000000
