Clog3_to_BT601_NTSC.cube
TITLE "Clog3_to_BT601_NTSC"
LUT_3D_SIZE 5
# Clog3 to BT601 NTSC by Francesco Bucciantini
0.00000000 0.00000000 0.00000000
0.49234312 0.00000000 0.00000000
0.82005007 0.00000000 0.00000000
0.97490676 0.00000000 0.00000000
0.99348944 0.00000000 0.00000000
0.00000000 0.40344126 0.00000000
0.29673447 0.34708488 0.00000000
0.80313829 0.00000000 0.00000000
0.97388005 0.00000000 0.00000000
0.99347310 0.00000000 0.00000000
0.00000000 0.77572179 0.00000000
0.00000000 0.76934171 0.00000000
0.71394964 0.74450251 0.00000000
0.96989044 0.44302735 0.00000000
0.99341630 0.00000000 0.00000000
0.00000000 0.95983048 0.00000000
0.00000000 0.95933382 0.00000000
0.00000000 0.95756447 0.00000000
0.93464313 0.94757653 0.00000000
0.99313083 0.79900291 0.00000000
0.00000000 0.99251182 0.00000000
0.00000000 0.99250608 0.00000000
0.00000000 0.99248628 0.00000000
0.00000000 0.99238983 0.00000000
0.99131921 0.99188780 0.00000000
0.00000000 0.00000000 0.37291831
0.47156731 0.00000000 0.36803800
0.81781388 0.00000000 0.35075124
0.97476485 0.00000000 0.25321709
0.99348713 0.00000000 0.00000000
0.00000000 0.32837234 0.26397042
0.25720976 0.25720976 0.25720976
0.80051867 0.00000000 0.23265192
0.97373026 0.00000000 0.05503425
0.99347078 0.00000000 0.00000000
0.00000000 0.76735975 0.00000000
0.00000000 0.76051834 0.00000000
0.70857785 0.73371384 0.00000000
0.96970978 0.37572206 0.00000000
0.99341394 0.00000000 0.00000000
0.00000000 0.95918322 0.00000000
0.00000000 0.95867635 0.00000000
0.00000000 0.95687037 0.00000000
0.93415342 0.94666660 0.00000000
0.99312828 0.79218557 0.00000000
0.00000000 0.99250436 0.00000000
0.00000000 0.99249861 0.00000000
0.00000000 0.99247877 0.00000000
0.00000000 0.99238211 0.00000000
0.99131499 0.99187893 0.00000000
0.00000000 0.00000000 0.75921266
0.38271130 0.00000000 0.75860354
0.80973929 0.00000000 0.75648531
0.97426826 0.00000000 0.74581264
0.99347918 0.00000000 0.67823603
0.00000000 0.00000000 0.74687401
0.03449718 0.00000000 0.74620318
0.79101035 0.00000000 0.74386864
0.97320606 0.00000000 0.73206494
0.99346279 0.00000000 0.65550471
0.00000000 0.73343128 0.69284711
0.00000000 0.72447976 0.69185473
0.68838856 0.68838856 0.68838856
0.96907744 0.00000000 0.67055081
0.99340583 0.00000000 0.53794269
0.00000000 0.95685275 0.00000000
0.00000000 0.95630877 0.00000000
0.00000000 0.95436940 0.00000000
0.93243099 0.94337597 0.00000000
0.99311950 0.76513621 0.00000000
0.00000000 0.99247858 0.00000000
0.00000000 0.99247279 0.00000000
0.00000000 0.99245281 0.00000000
0.00000000 0.99235544 0.00000000
0.99130046 0.99184825 0.00000000
0.00000000 0.00000000 0.95348876
0.00000000 0.00000000 0.95343794
0.76016071 0.00000000 0.95326259
0.97169703 0.00000000 0.95241013
0.99344082 0.00000000 0.94803538
0.00000000 0.00000000 0.95249264
0.00000000 0.00000000 0.95244043
0.73072123 0.00000000 0.95226026
0.97049126 0.00000000 0.95138432
0.99342425 0.00000000 0.94688669
0.00000000 0.00000000 0.94885029
0.00000000 0.00000000 0.94879290
0.52147620 0.00000000 0.94859484
0.96579800 0.00000000 0.94763152
0.99336667 0.00000000 0.94267534
0.00000000 0.94298399 0.92529002
0.00000000 0.94220560 0.92519552
0.00000000 0.93941955 0.92486914
0.92327730 0.92327730 0.92327730
0.99307709 0.32507761 0.91496644
0.00000000 0.99235239 0.00000000
0.00000000 0.99234639 0.00000000
0.00000000 0.99232570 0.00000000
0.00000000 0.99222479 0.00000000
0.99122996 0.99169745 0.00000000
0.00000000 0.00000000 0.99217598
0.00000000 0.00000000 0.99217544
0.00000000 0.00000000 0.99217359
0.95345166 0.00000000 0.99216470
0.99325101 0.00000000 0.99212179
0.00000000 0.00000000 0.99216556
0.00000000 0.00000000 0.99216502
0.00000000 0.00000000 0.99216316
0.95116430 0.00000000 0.99215425
0.99323355 0.00000000 0.99211121
0.00000000 0.00000000 0.99212946
0.00000000 0.00000000 0.99212892
0.00000000 0.00000000 0.99212704
0.94210247 0.00000000 0.99211804
0.99317281 0.00000000 0.99207456
0.00000000 0.02805679 0.99195123
0.00000000 0.00000000 0.99195065
0.00000000 0.00000000 0.99194868
0.84096988 0.00000000 0.99193922
0.99286654 0.00000000 0.99189352
0.00000000 0.99167728 0.99094781
0.00000000 0.99167005 0.99094705
0.00000000 0.99164507 0.99094445
0.00000000 0.99152285 0.99093195
0.99087140 0.99087140 0.99087140
