Clog3_to_BT601_PAL.cube
TITLE "Clog3_to_BT601_PAL"
LUT_3D_SIZE 9
# Clog3 to BT601 PAL by Francesco Bucciantini
0.00000000 0.00000000 0.00000000
0.22944999 0.00000000 0.00000000
0.45498542 0.00000000 0.00000000
0.65487686 0.00000000 0.00000000
0.80157679 0.00000000 0.00000000
0.90573412 0.00000000 0.00000000
0.96901766 0.00000000 0.00000000
0.99023301 0.00000000 0.00000000
0.99306730 0.00000000 0.00000000
0.00000000 0.16085489 0.00000000
0.04844743 0.10552265 0.00000000
0.38397913 0.03200398 0.00000000
0.63242093 0.00000000 0.00000000
0.79433760 0.00000000 0.00000000
0.90354750 0.00000000 0.00000000
0.96851381 0.00000000 0.00000000
0.99021778 0.00000000 0.00000000
0.99306036 0.00000000 0.00000000
0.00000000 0.38684926 0.00000000
0.00000000 0.36372255 0.00000000
0.29690153 0.33912101 0.00000000
0.60640668 0.27923639 0.00000000
0.78661763 0.06487298 0.00000000
0.90129024 0.00000000 0.00000000
0.96800001 0.00000000 0.00000000
0.99020250 0.00000000 0.00000000
0.99305343 0.00000000 0.00000000
0.00000000 0.60632675 0.00000000
0.00000000 0.59791575 0.00000000
0.00000000 0.58908260 0.00000000
0.53179278 0.56834025 0.00000000
0.76800064 0.51240625 0.00000000
0.89614979 0.30071728 0.00000000
0.96685360 0.00000000 0.00000000
0.99016931 0.00000000 0.00000000
0.99303841 0.00000000 0.00000000
0.00000000 0.76686495 0.00000000
0.00000000 0.76409186 0.00000000
0.00000000 0.76125921 0.00000000
0.13419719 0.75491811 0.00000000
0.71405493 0.73983287 0.00000000
0.88342580 0.69936869 0.00000000
0.96415383 0.53326255 0.00000000
0.99009556 0.00000000 0.00000000
0.99300530 0.00000000 0.00000000
0.00000000 0.88230149 0.00000000
0.00000000 0.88142927 0.00000000
0.00000000 0.88054836 0.00000000
0.00000000 0.87861258 0.00000000
0.36453415 0.87420305 0.00000000
0.84560460 0.86363741 0.00000000
0.95719047 0.83487427 0.00000000
0.98991455 0.71440695 0.00000000
0.99293174 0.00000000 0.00000000
0.00000000 0.95646954 0.00000000
0.00000000 0.95624486 0.00000000
0.00000000 0.95601899 0.00000000
0.00000000 0.95552635 0.00000000
0.00000000 0.95442294 0.00000000
0.59159203 0.95188241 0.00000000
0.93468901 0.94565357 0.00000000
0.98893623 0.92785749 0.00000000
0.99276524 0.84562523 0.00000000
0.00000000 0.98878736 0.00000000
0.00000000 0.98876675 0.00000000
0.00000000 0.98874598 0.00000000
0.00000000 0.98870048 0.00000000
0.00000000 0.98859769 0.00000000
0.00000000 0.98835705 0.00000000
0.75725793 0.98775138 0.00000000
0.98218796 0.98599860 0.00000000
0.99237139 0.97942368 0.00000000
0.00000000 0.99232995 0.00000000
0.00000000 0.99232747 0.00000000
0.00000000 0.99232500 0.00000000
0.00000000 0.99231966 0.00000000
0.00000000 0.99230793 0.00000000
0.00000000 0.99228212 0.00000000
0.00000000 0.99222497 0.00000000
0.87599512 0.99209656 0.00000000
0.99132110 0.99179836 0.00000000
0.00000000 0.00000000 0.15331151
0.20490099 0.00000000 0.14797170
0.44266929 0.00000000 0.14249397
0.65088498 0.00000000 0.13011960
0.80024936 0.00000000 0.09968167
0.90532801 0.00000000 0.01850779
0.96892362 0.00000000 0.00000000
0.99023014 0.00000000 0.00000000
0.99306599 0.00000000 0.00000000
0.00000000 0.07506912 0.00766146
0.00000000 0.00000000 0.00000000
0.36907092 0.00000000 0.00000000
0.62782089 0.00000000 0.00000000
0.79292175 0.00000000 0.00000000
0.90312781 0.00000000 0.00000000
0.96841780 0.00000000 0.00000000
0.99021490 0.00000000 0.00000000
0.99305906 0.00000000 0.00000000
0.00000000 0.35340003 0.00000000
0.00000000 0.32803234 0.00000000
0.27768242 0.30070993 0.00000000
0.60101761 0.23216767 0.00000000
0.78510338 0.00000000 0.00000000
0.90085632 0.00000000 0.00000000
0.96790197 0.00000000 0.00000000
0.99019962 0.00000000 0.00000000
0.99305212 0.00000000 0.00000000
0.00000000 0.59419283 0.00000000
0.00000000 0.58515075 0.00000000
0.00000000 0.57562736 0.00000000
0.52355211 0.55314753 0.00000000
0.76623088 0.49160939 0.00000000
0.89568260 0.25715877 0.00000000
0.96675103 0.00000000 0.00000000
0.99016640 0.00000000 0.00000000
0.99303709 0.00000000 0.00000000
0.00000000 0.76288814 0.00000000
0.00000000 0.76002411 0.00000000
0.00000000 0.75709714 0.00000000
0.09450659 0.75053946 0.00000000
0.71138282 0.73490803 0.00000000
0.88287099 0.69274379 0.00000000
0.96404046 0.51472442 0.00000000
0.99009259 0.00000000 0.00000000
0.99300398 0.00000000 0.00000000
0.00000000 0.88105370 0.00000000
0.00000000 0.88016740 0.00000000
0.00000000 0.87927218 0.00000000
0.00000000 0.87730466 0.00000000
0.34882869 0.87282127 0.00000000
0.84474102 0.86206957 0.00000000
0.95704839 0.83273068 0.00000000
0.98991019 0.70845610 0.00000000
0.99293039 0.00000000 0.00000000
0.00000000 0.95614843 0.00000000
0.00000000 0.95592164 0.00000000
0.00000000 0.95569364 0.00000000
0.00000000 0.95519636 0.00000000
0.00000000 0.95408248 0.00000000
0.58570974 0.95151751 0.00000000
0.93444373 0.94522681 0.00000000
0.98892384 0.92723716 0.00000000
0.99276382 0.84370919 0.00000000
0.00000000 0.98875789 0.00000000
0.00000000 0.98873701 0.00000000
0.00000000 0.98871596 0.00000000
0.00000000 0.98866986 0.00000000
0.00000000 0.98856574 0.00000000
0.00000000 0.98832210 0.00000000
0.75532843 0.98770937 0.00000000
0.98214498 0.98593844 0.00000000
0.99236981 0.97930470 0.00000000
0.00000000 0.99232641 0.00000000
0.00000000 0.99232394 0.00000000
0.00000000 0.99232146 0.00000000
0.00000000 0.99231612 0.00000000
0.00000000 0.99230438 0.00000000
0.00000000 0.99227855 0.00000000
0.00000000 0.99222133 0.00000000
0.87538551 0.99209280 0.00000000
0.99131898 0.99179427 0.00000000
0.00000000 0.00000000 0.37989564
0.17768641 0.00000000 0.37747977
0.42978442 0.00000000 0.37505194
0.64679492 0.00000000 0.36975874
0.79890771 0.00000000 0.35790629
0.90491991 0.00000000 0.33054611
0.96882934 0.00000000 0.26162197
0.99022728 0.00000000 0.00000000
0.99306469 0.00000000 0.00000000
0.00000000 0.00000000 0.32676803
0.00000000 0.00000000 0.32397618
0.35357855 0.00000000 0.32116522
0.62309426 0.00000000 0.31501777
0.79148999 0.00000000 0.30115243
0.90270604 0.00000000 0.26853453
0.96832153 0.00000000 0.18060113
0.99021203 0.00000000 0.00000000
0.99305775 0.00000000 0.00000000
0.00000000 0.31666380 0.26404128
0.00000000 0.28831406 0.26064318
0.25720976 0.25720976 0.25720976
0.59546014 0.17510446 0.24965702
0.78357127 0.00000000 0.23237953
0.90042020 0.00000000 0.19007106
0.96780367 0.00000000 0.05171522
0.99019673 0.00000000 0.00000000
0.99305081 0.00000000 0.00000000
0.00000000 0.58115761 0.03170822
0.00000000 0.57139713 0.02376842
0.00000000 0.56108352 0.01583870
0.51494645 0.53659384 0.00000000
0.76443775 0.46836889 0.00000000
0.89521293 0.20592001 0.00000000
0.96664818 0.00000000 0.00000000
0.99016349 0.00000000 0.00000000
0.99303578 0.00000000 0.00000000
0.00000000 0.75878578 0.00000000
0.00000000 0.75582587 0.00000000
0.00000000 0.75279932 0.00000000
0.04617487 0.74601270 0.00000000
0.70866259 0.72980169 0.00000000
0.88231289 0.68581406 0.00000000
0.96392677 0.49421680 0.00000000
0.99008961 0.00000000 0.00000000
0.99300265 0.00000000 0.00000000
0.00000000 0.87978736 0.00000000
0.00000000 0.87888665 0.00000000
0.00000000 0.87797678 0.00000000
0.00000000 0.87597676 0.00000000
0.33244064 0.87141768 0.00000000
0.84387060 0.86047504 0.00000000
0.95690590 0.83054268 0.00000000
0.98990577 0.70225281 0.00000000
0.99292904 0.00000000 0.00000000
0.00000000 0.95582472 0.00000000
0.00000000 0.95559579 0.00000000
0.00000000 0.95536565 0.00000000
0.00000000 0.95486367 0.00000000
0.00000000 0.95373920 0.00000000
0.57963011 0.95114954 0.00000000
0.93419755 0.94479625 0.00000000
0.98891139 0.92661041 0.00000000
0.99276241 0.84175622 0.00000000
0.00000000 0.98872807 0.00000000
0.00000000 0.98870691 0.00000000
0.00000000 0.98868558 0.00000000
0.00000000 0.98863889 0.00000000
0.00000000 0.98853343 0.00000000
0.00000000 0.98828677 0.00000000
0.75337176 0.98766695 0.00000000
0.98210189 0.98587776 0.00000000
0.99236823 0.97918484 0.00000000
0.00000000 0.99232288 0.00000000
0.00000000 0.99232041 0.00000000
0.00000000 0.99231793 0.00000000
0.00000000 0.99231258 0.00000000
0.00000000 0.99230083 0.00000000
0.00000000 0.99227497 0.00000000
0.00000000 0.99221770 0.00000000
0.87477208 0.99208903 0.00000000
0.99131687 0.99179018 0.00000000
0.00000000 0.00000000 0.60100847
0.10347736 0.00000000 0.60011390
0.40057314 0.00000000 0.59921578
0.63759166 0.00000000 0.59726090
0.79595591 0.00000000 0.59290138
0.90403037 0.00000000 0.58295479
0.96862456 0.00000000 0.55899235
0.99022110 0.00000000 0.49213298
0.99306188 0.00000000 0.21992834
0.00000000 0.00000000 0.58159661
0.00000000 0.00000000 0.58059569
0.31770851 0.00000000 0.57959031
0.61240732 0.00000000 0.57740034
0.78833740 0.00000000 0.57250841
0.90178654 0.00000000 0.56130386
0.96811243 0.00000000 0.53404950
0.99020582 0.00000000 0.45572080
0.99305493 0.00000000 0.11971740
0.00000000 0.21939908 0.55979861
0.00000000 0.17859411 0.55866702
0.20721707 0.12874665 0.55752975
0.58281706 0.00000000 0.55505025
0.78019468 0.00000000 0.54950037
0.89946927 0.00000000 0.53672885
0.96759015 0.00000000 0.50529047
0.99019050 0.00000000 0.41257455
0.99304799 0.00000000 0.00000000
0.00000000 0.54924645 0.50144612
0.00000000 0.53753673 0.49989906
0.00000000 0.52505511 0.49834154
0.49493632 0.49493632 0.49493632
0.76047679 0.40828253 0.48726641
0.89418847 0.02869941 0.46935285
0.96642477 0.00000000 0.42394665
0.99015720 0.00000000 0.29883173
0.99303295 0.00000000 0.00000000
0.00000000 0.74945015 0.28100712
0.00000000 0.74626390 0.27779531
0.00000000 0.74300196 0.27455382
0.00000000 0.73567271 0.26743689
0.70260703 0.71807916 0.25123249
0.88109438 0.66965961 0.21209597
0.96367981 0.44098676 0.09255558
0.99008319 0.00000000 0.00000000
0.99299979 0.00000000 0.00000000
0.00000000 0.87698287 0.00000000
0.00000000 0.87604981 0.00000000
0.00000000 0.87510704 0.00000000
0.00000000 0.87303400 0.00000000
0.29418274 0.86830469 0.00000000
0.84196409 0.85693148 0.00000000
0.95659625 0.82565106 0.00000000
0.98989604 0.68787898 0.00000000
0.99292612 0.00000000 0.00000000
0.00000000 0.95511552 0.00000000
0.00000000 0.95488191 0.00000000
0.00000000 0.95464704 0.00000000
0.00000000 0.95413473 0.00000000
0.00000000 0.95298698 0.00000000
0.56574629 0.95034297 0.00000000
0.93366193 0.94385180 0.00000000
0.98888425 0.92523238 0.00000000
0.99275935 0.83740019 0.00000000
0.00000000 0.98866235 0.00000000
0.00000000 0.98864059 0.00000000
0.00000000 0.98861866 0.00000000
0.00000000 0.98857065 0.00000000
0.00000000 0.98846229 0.00000000
0.00000000 0.98820905 0.00000000
0.74904347 0.98757377 0.00000000
0.98200830 0.98574477 0.00000000
0.99236482 0.97892262 0.00000000
0.00000000 0.99231525 0.00000000
0.00000000 0.99231277 0.00000000
0.00000000 0.99231029 0.00000000
0.00000000 0.99230492 0.00000000
0.00000000 0.99229315 0.00000000
0.00000000 0.99226724 0.00000000
0.00000000 0.99220984 0.00000000
0.87343196 0.99208089 0.00000000
0.99131230 0.99178133 0.00000000
0.00000000 0.00000000 0.76306996
0.00000000 0.00000000 0.76277166
0.32793651 0.00000000 0.76247304
0.61541377 0.00000000 0.76182598
0.78921257 0.00000000 0.76039745
0.90204053 0.00000000 0.75721186
0.96817008 0.00000000 0.74994508
0.99020753 0.00000000 0.73245739
0.99305571 0.00000000 0.68400143
0.00000000 0.00000000 0.75678473
0.00000000 0.00000000 0.75647114
0.22175071 0.00000000 0.75615718
0.58634473 0.00000000 0.75547681
0.78112182 0.00000000 0.75397431
0.89972898 0.00000000 0.75062162
0.96764836 0.00000000 0.74296244
0.99019220 0.00000000 0.72446375
0.99304875 0.00000000 0.67265849
0.00000000 0.00000000 0.75018048
0.00000000 0.00000000 0.74985027
0.03299606 0.00000000 0.74951963
0.55149974 0.00000000 0.74880302
0.77245041 0.00000000 0.74722001
0.89734061 0.00000000 0.74368524
0.96711627 0.00000000 0.73559728
0.99017681 0.00000000 0.71598618
0.99304180 0.00000000 0.66041772
0.00000000 0.45144399 0.73466543
0.00000000 0.43185655 0.73429382
0.00000000 0.41124259 0.73392165
0.44240041 0.36286000 0.73311475
0.75134401 0.22582684 0.73133093
0.89189331 0.00000000 0.72734105
0.96592889 0.00000000 0.71817592
0.99014338 0.00000000 0.69573489
0.99302673 0.00000000 0.63020844
0.00000000 0.72633075 0.69289367
0.00000000 0.72253304 0.69239290
0.00000000 0.71863261 0.69189105
0.00000000 0.70982143 0.69080187
0.68838856 0.68838856 0.68838856
0.87835862 0.62702497 0.68296298
0.96313153 0.27905820 0.67034991
0.99006909 0.00000000 0.63850406
0.99299352 0.00000000 0.53537780
0.00000000 0.87048027 0.51812847
0.00000000 0.86946980 0.51671067
0.00000000 0.86844831 0.51528405
0.00000000 0.86620028 0.51216769
0.18836217 0.86106208 0.50516193
0.83765268 0.84864846 0.48887453
0.95590833 0.81405405 0.44770169
0.98987381 0.65056412 0.33136439
0.99291971 0.00000000 0.00000000
0.00000000 0.95351137 0.00000000
0.00000000 0.95326705 0.00000000
0.00000000 0.95302141 0.00000000
0.00000000 0.95248553 0.00000000
0.00000000 0.95128465 0.00000000
0.53101606 0.94851646 0.00000000
0.93246878 0.94170946 0.00000000
0.98882356 0.92208988 0.00000000
0.99275264 0.82713006 0.00000000
0.00000000 0.98851193 0.00000000
0.00000000 0.98848883 0.00000000
0.00000000 0.98846555 0.00000000
0.00000000 0.98841462 0.00000000
0.00000000 0.98829975 0.00000000
0.00000000 0.98803181 0.00000000
0.73903106 0.98736195 0.00000000
0.98180057 0.98544381 0.00000000
0.99235733 0.97833142 0.00000000
0.00000000 0.99229849 0.00000000
0.00000000 0.99229599 0.00000000
0.00000000 0.99229350 0.00000000
0.00000000 0.99228811 0.00000000
0.00000000 0.99227628 0.00000000
0.00000000 0.99225024 0.00000000
0.00000000 0.99219258 0.00000000
0.87041921 0.99206299 0.00000000
0.99130228 0.99176188 0.00000000
0.00000000 0.00000000 0.87969994
0.00000000 0.00000000 0.87960540
0.04682480 0.00000000 0.87951088
0.55354485 0.00000000 0.87930644
0.77293034 0.00000000 0.87885698
0.89747044 0.00000000 0.87786391
0.96714501 0.00000000 0.87564560
0.99017764 0.00000000 0.87056658
0.99304217 0.00000000 0.85824670
0.00000000 0.00000000 0.87773172
0.00000000 0.00000000 0.87763481
0.00000000 0.00000000 0.87753791
0.51092523 0.00000000 0.87732834
0.76361868 0.00000000 0.87686757
0.89499962 0.00000000 0.87584939
0.96660156 0.00000000 0.87357439
0.99016217 0.00000000 0.86836232
0.99303519 0.00000000 0.85570039
0.00000000 0.00000000 0.87571644
0.00000000 0.00000000 0.87561708
0.00000000 0.00000000 0.87551772
0.45614635 0.00000000 0.87530283
0.75356816 0.00000000 0.87483032
0.89244379 0.00000000 0.87378609
0.96604724 0.00000000 0.87145220
0.99014666 0.00000000 0.86610180
0.99302820 0.00000000 0.85308325
0.00000000 0.00000000 0.87118819
0.00000000 0.00000000 0.87108318
0.00000000 0.00000000 0.87097817
0.28284482 0.00000000 0.87075106
0.72877795 0.00000000 0.87025160
0.88660334 0.00000000 0.86914749
0.96481002 0.00000000 0.86667821
0.99011295 0.00000000 0.86100910
0.99301308 0.00000000 0.84716499
0.00000000 0.65649849 0.86032789
0.00000000 0.65034711 0.86020865
0.00000000 0.64395512 0.86008940
0.00000000 0.62922361 0.85983143
0.65154520 0.59149889 0.85926396
0.87202158 0.46242922 0.85800859
0.96189378 0.00000000 0.85519661
0.99003802 0.00000000 0.84871701
0.99297974 0.00000000 0.83274886
0.00000000 0.85421563 0.83068206
0.00000000 0.85299649 0.83051861
0.00000000 0.85176238 0.83035511
0.00000000 0.84904052 0.83000126
0.00000000 0.84278805 0.82922213
0.82749492 0.82749492 0.82749492
0.95435298 0.78329672 0.82360761
0.98982056 0.51655462 0.81455046
0.99290565 0.00000000 0.79159173
0.00000000 0.94973511 0.70477381
0.00000000 0.94946511 0.70431255
0.00000000 0.94919360 0.70385038
0.00000000 0.94860109 0.70284765
0.00000000 0.94727243 0.70062739
0.42213636 0.94420489 0.69564354
0.92975455 0.93663211 0.68409934
0.98868445 0.91454634 0.65522626
0.99273791 0.80029796 0.56480528
0.00000000 0.98815024 0.00000000
0.00000000 0.98812406 0.00000000
0.00000000 0.98809770 0.00000000
0.00000000 0.98804006 0.00000000
0.00000000 0.98791028 0.00000000
0.00000000 0.98760862 0.00000000
0.71408455 0.98685938 0.00000000
0.98133202 0.98473610 0.00000000
0.99234089 0.97695118 0.00000000
0.00000000 0.99226150 0.00000000
0.00000000 0.99225898 0.00000000
0.00000000 0.99225646 0.00000000
0.00000000 0.99225102 0.00000000
0.00000000 0.99223907 0.00000000
0.00000000 0.99221276 0.00000000
0.00000000 0.99215448 0.00000000
0.86341909 0.99202350 0.00000000
0.99128023 0.99171893 0.00000000
0.00000000 0.00000000 0.95499985
0.00000000 0.00000000 0.95497523
0.00000000 0.00000000 0.95495062
0.27180338 0.00000000 0.95489743
0.72744772 0.00000000 0.95478071
0.88630766 0.00000000 0.95452378
0.96474846 0.00000000 0.95395472
0.99011131 0.00000000 0.95267667
0.99301234 0.00000000 0.94971607
0.00000000 0.00000000 0.95448969
0.00000000 0.00000000 0.95446470
0.00000000 0.00000000 0.95443974
0.13416181 0.00000000 0.95438578
0.71405230 0.00000000 0.95426737
0.88342526 0.00000000 0.95400672
0.96415371 0.00000000 0.95342938
0.99009555 0.00000000 0.95213262
0.99300530 0.00000000 0.94912801
0.00000000 0.00000000 0.95397279
0.00000000 0.00000000 0.95394744
0.00000000 0.00000000 0.95392212
0.00000000 0.00000000 0.95386738
0.69926154 0.00000000 0.95374724
0.88043508 0.00000000 0.95348281
0.96354690 0.00000000 0.95289705
0.99007975 0.00000000 0.95158126
0.99299826 0.00000000 0.94853184
0.00000000 0.00000000 0.95283124
0.00000000 0.00000000 0.95280510
0.00000000 0.00000000 0.95277896
0.00000000 0.00000000 0.95272249
0.66110825 0.00000000 0.95259854
0.87356847 0.00000000 0.95232568
0.96219181 0.00000000 0.95172123
0.99004541 0.00000000 0.95036313
0.99298301 0.00000000 0.94721403
0.00000000 0.02777781 0.95020268
0.00000000 0.00000000 0.95017465
0.00000000 0.00000000 0.95014664
0.00000000 0.00000000 0.95008611
0.52021414 0.00000000 0.94995324
0.85620995 0.00000000 0.94966074
0.95899375 0.00000000 0.94901260
0.98996641 0.00000000 0.94755560
0.99294939 0.00000000 0.94417304
0.00000000 0.80413628 0.94375594
0.00000000 0.80212413 0.94372316
0.00000000 0.80007753 0.94369038
0.00000000 0.79552823 0.94361956
0.00000000 0.78488593 0.94346408
0.80100569 0.75761444 0.94312171
0.95069535 0.66549853 0.94236262
0.98968144 0.00000000 0.94065392
0.99287467 0.00000000 0.93667451
0.00000000 0.93998018 0.92531098
0.00000000 0.93964041 0.92526323
0.00000000 0.93929856 0.92521551
0.00000000 0.93855193 0.92511234
0.00000000 0.93687453 0.92488578
0.00000000 0.93298498 0.92438646
0.92327730 0.92327730 0.92327730
0.98834905 0.89400212 0.92076995
0.99270545 0.70375343 0.91487177
0.00000000 0.98719073 0.83916324
0.00000000 0.98715709 0.83901328
0.00000000 0.98712324 0.83886328
0.00000000 0.98704931 0.83853869
0.00000000 0.98688334 0.83782417
0.00000000 0.98649974 0.83624121
0.63719692 0.98555714 0.83268360
0.98023745 0.98293139 0.82442225
0.99230463 0.97347193 0.80366029
0.00000000 0.99217917 0.00000000
0.00000000 0.99217660 0.00000000
0.00000000 0.99217402 0.00000000
0.00000000 0.99216845 0.00000000
0.00000000 0.99215622 0.00000000
0.00000000 0.99212930 0.00000000
0.00000000 0.99206965 0.00000000
0.84581600 0.99193549 0.00000000
0.99123149 0.99162306 0.00000000
0.00000000 0.00000000 0.98848027
0.00000000 0.00000000 0.98847782
0.00000000 0.00000000 0.98847536
0.00000000 0.00000000 0.98847006
0.49847957 0.00000000 0.98845841
0.85435556 0.00000000 0.98843273
0.95867050 0.00000000 0.98837566
0.98995762 0.00000000 0.98824656
0.99294616 0.00000000 0.98794361
0.00000000 0.00000000 0.98842932
0.00000000 0.00000000 0.98842682
0.00000000 0.00000000 0.98842432
0.00000000 0.00000000 0.98841892
0.43950409 0.00000000 0.98840705
0.85010363 0.00000000 0.98838088
0.95794212 0.00000000 0.98832274
0.98993699 0.00000000 0.98819127
0.99293899 0.00000000 0.98788292
0.00000000 0.00000000 0.98837747
0.00000000 0.00000000 0.98837493
0.00000000 0.00000000 0.98837238
0.00000000 0.00000000 0.98836687
0.36538488 0.00000000 0.98835478
0.84565219 0.00000000 0.98832813
0.95719832 0.00000000 0.98826891
0.98991479 0.00000000 0.98813504
0.99293182 0.00000000 0.98782125
0.00000000 0.00000000 0.98826224
0.00000000 0.00000000 0.98825959
0.00000000 0.00000000 0.98825694
0.00000000 0.00000000 0.98825121
0.10391927 0.00000000 0.98823864
0.83526680 0.00000000 0.98821091
0.95553486 0.00000000 0.98814933
0.98986139 0.00000000 0.98801021
0.99291628 0.00000000 0.98768450
0.00000000 0.00000000 0.98799372
0.00000000 0.00000000 0.98799083
0.00000000 0.00000000 0.98798795
0.00000000 0.00000000 0.98798172
0.00000000 0.00000000 0.98796804
0.80789911 0.00000000 0.98793790
0.95159501 0.00000000 0.98787099
0.98971727 0.00000000 0.98772000
0.99288203 0.00000000 0.98736732
0.00000000 0.27138128 0.98732370
0.00000000 0.23829946 0.98732027
0.00000000 0.20072947 0.98731684
0.00000000 0.08841945 0.98730944
0.00000000 0.00000000 0.98729317
0.70636405 0.00000000 0.98725734
0.94127099 0.00000000 0.98717788
0.98926091 0.00000000 0.98699895
0.99280589 0.00000000 0.98658280
0.00000000 0.90786635 0.98541181
0.00000000 0.90725750 0.98540697
0.00000000 0.90664370 0.98540213
0.00000000 0.90529886 0.98539168
0.00000000 0.90225584 0.98536875
0.00000000 0.89508013 0.98531827
0.90591781 0.87637677 0.98520646
0.98745527 0.81106027 0.98495545
0.99263333 0.00000000 0.98437519
0.00000000 0.98412876 0.97836329
0.00000000 0.98407436 0.97835387
0.00000000 0.98401969 0.97834446
0.00000000 0.98390048 0.97832412
0.00000000 0.98363373 0.97827950
0.00000000 0.98302135 0.97818134
0.00000000 0.98153570 0.97796418
0.97747782 0.97747782 0.97747782
0.99222394 0.96303151 0.97635876
0.00000000 0.99199207 0.93069843
0.00000000 0.99198936 0.93065527
0.00000000 0.99198664 0.93061213
0.00000000 0.99198077 0.93051887
0.00000000 0.99196789 0.93031410
0.00000000 0.99193952 0.92986292
0.00000000 0.99187662 0.92886127
0.79064749 0.99173494 0.92659990
0.99112241 0.99140380 0.92129665
0.00000000 0.00000000 0.99225323
0.00000000 0.00000000 0.99225296
0.00000000 0.00000000 0.99225270
0.00000000 0.00000000 0.99225212
0.00000000 0.00000000 0.99225087
0.68719048 0.00000000 0.99224811
0.93988299 0.00000000 0.99224208
0.98919393 0.00000000 0.99222882
0.99279687 0.00000000 0.99219963
0.00000000 0.00000000 0.99224775
0.00000000 0.00000000 0.99224748
0.00000000 0.00000000 0.99224722
0.00000000 0.00000000 0.99224664
0.00000000 0.00000000 0.99224538
0.66920935 0.00000000 0.99224262
0.93870252 0.00000000 0.99223658
0.98913625 0.00000000 0.99222330
0.99278940 0.00000000 0.99219407
0.00000000 0.00000000 0.99224227
0.00000000 0.00000000 0.99224200
0.00000000 0.00000000 0.99224173
0.00000000 0.00000000 0.99224116
0.00000000 0.00000000 0.99223990
0.64886134 0.00000000 0.99223713
0.93749299 0.00000000 0.99223108
0.98907656 0.00000000 0.99221778
0.99278192 0.00000000 0.99218850
0.00000000 0.00000000 0.99223040
0.00000000 0.00000000 0.99223014
0.00000000 0.00000000 0.99222987
0.00000000 0.00000000 0.99222929
0.00000000 0.00000000 0.99222803
0.59356417 0.00000000 0.99222525
0.93477285 0.00000000 0.99221918
0.98894046 0.00000000 0.99220584
0.99276573 0.00000000 0.99217646
0.00000000 0.00000000 0.99220429
0.00000000 0.00000000 0.99220402
0.00000000 0.00000000 0.99220375
0.00000000 0.00000000 0.99220317
0.00000000 0.00000000 0.99220190
0.34082534 0.00000000 0.99219910
0.92824329 0.00000000 0.99219298
0.98860651 0.00000000 0.99217955
0.99273001 0.00000000 0.99214995
0.00000000 0.00000000 0.99214645
0.00000000 0.00000000 0.99214618
0.00000000 0.00000000 0.99214590
0.00000000 0.00000000 0.99214531
0.00000000 0.00000000 0.99214402
0.00000000 0.00000000 0.99214118
0.91049366 0.00000000 0.99213496
0.98768800 0.00000000 0.99212131
0.99265055 0.00000000 0.99209123
0.00000000 0.50591408 0.99201647
0.00000000 0.49107106 0.99201618
0.00000000 0.47503121 0.99201590
0.00000000 0.43535754 0.99201529
0.00000000 0.32802563 0.99201395
0.00000000 0.00000000 0.99201100
0.84032871 0.00000000 0.99200456
0.98458713 0.00000000 0.99199040
0.99247020 0.00000000 0.99195920
0.00000000 0.97018735 0.99171438
0.00000000 0.97004887 0.99171407
0.00000000 0.96990973 0.99171376
0.00000000 0.96960651 0.99171309
0.00000000 0.96892865 0.99171163
0.00000000 0.96737490 0.99170843
0.00000000 0.96360889 0.99170142
0.96924132 0.95321714 0.99168602
0.99204070 0.91257913 0.99165206
0.00000000 0.99154500 0.99094861
0.00000000 0.99154192 0.99094823
0.00000000 0.99153885 0.99094785
0.00000000 0.99153221 0.99094702
0.00000000 0.99151761 0.99094522
0.00000000 0.99148546 0.99094126
0.00000000 0.99141403 0.99093259
0.00000000 0.99125252 0.99091351
0.99087140 0.99087140 0.99087140
