Clog3_to_BT601_NTSC.cube
TITLE "Clog3_to_BT601_NTSC"
LUT_3D_SIZE 33
# Clog3 to BT601 NTSC by Francesco Bucciantini
0.00000000 0.00000000 0.00000000
0.00000000 0.00000000 0.00000000
0.07824045 0.00000000 0.00000000
0.19713880 0.00000000 0.00000000
0.26707573 0.00000000 0.00000000
0.32356966 0.00000000 0.00000000
0.37782488 0.00000000 0.00000000
0.43504097 0.00000000 0.00000000
0.49234312 0.00000000 0.00000000
0.54502682 0.00000000 0.00000000
0.59369760 0.00000000 0.00000000
0.63882389 0.00000000 0.00000000
0.68073736 0.00000000 0.00000000
0.71967380 0.00000000 0.00000000
0.75580012 0.00000000 0.00000000
0.78923267 0.00000000 0.00000000
0.82005007 0.00000000 0.00000000
0.84830241 0.00000000 0.00000000
0.87401796 0.00000000 0.00000000
0.89720814 0.00000000 0.00000000
0.91787132 0.00000000 0.00000000
0.93599566 0.00000000 0.00000000
0.95156127 0.00000000 0.00000000
0.96454202 0.00000000 0.00000000
0.97490676 0.00000000 0.00000000
0.98262044 0.00000000 0.00000000
0.98764491 0.00000000 0.00000000
0.98993957 0.00000000 0.00000000
0.99065645 0.00000000 0.00000000
0.99136520 0.00000000 0.00000000
0.99207357 0.00000000 0.00000000
0.99278163 0.00000000 0.00000000
0.99348944 0.00000000 0.00000000
0.00000000 0.00000000 0.00000000
0.00000000 0.00000000 0.00000000
0.00000000 0.00000000 0.00000000
0.12663396 0.00000000 0.00000000
0.21615182 0.00000000 0.00000000
0.28194573 0.00000000 0.00000000
0.34246632 0.00000000 0.00000000
0.40458625 0.00000000 0.00000000
0.46843169 0.00000000 0.00000000
0.52713072 0.00000000 0.00000000
0.58020270 0.00000000 0.00000000
0.62860016 0.00000000 0.00000000
0.67297281 0.00000000 0.00000000
0.71377331 0.00000000 0.00000000
0.75132075 0.00000000 0.00000000
0.78584085 0.00000000 0.00000000
0.81749235 0.00000000 0.00000000
0.84638488 0.00000000 0.00000000
0.87259157 0.00000000 0.00000000
0.89615792 0.00000000 0.00000000
0.91710841 0.00000000 0.00000000
0.93545130 0.00000000 0.00000000
0.95118228 0.00000000 0.00000000
0.96428729 0.00000000 0.00000000
0.97474460 0.00000000 0.00000000
0.98252646 0.00000000 0.00000000
0.98760043 0.00000000 0.00000000
0.98993034 0.00000000 0.00000000
0.99065066 0.00000000 0.00000000
0.99136045 0.00000000 0.00000000
0.99206966 0.00000000 0.00000000
0.99277842 0.00000000 0.00000000
0.99348680 0.00000000 0.00000000
0.00000000 0.00000000 0.00000000
0.00000000 0.00000000 0.00000000
0.00000000 0.00000000 0.00000000
0.04239750 0.00000000 0.00000000
0.16511911 0.00000000 0.00000000
0.24301178 0.00000000 0.00000000
0.31056685 0.00000000 0.00000000
0.37775032 0.00000000 0.00000000
0.44638256 0.00000000 0.00000000
0.51102367 0.00000000 0.00000000
0.56827577 0.00000000 0.00000000
0.61968939 0.00000000 0.00000000
0.66627851 0.00000000 0.00000000
0.70872951 0.00000000 0.00000000
0.74751776 0.00000000 0.00000000
0.78297690 0.00000000 0.00000000
0.81534218 0.00000000 0.00000000
0.84477864 0.00000000 0.00000000
0.87140018 0.00000000 0.00000000
0.89528277 0.00000000 0.00000000
0.91647386 0.00000000 0.00000000
0.93499920 0.00000000 0.00000000
0.95086788 0.00000000 0.00000000
0.96407614 0.00000000 0.00000000
0.97461023 0.00000000 0.00000000
0.98244857 0.00000000 0.00000000
0.98756349 0.00000000 0.00000000
0.98992254 0.00000000 0.00000000
0.99064590 0.00000000 0.00000000
0.99135653 0.00000000 0.00000000
0.99206645 0.00000000 0.00000000
0.99277578 0.00000000 0.00000000
0.99348464 0.00000000 0.00000000
0.00000000 0.09819980 0.00000000
0.00000000 0.06923809 0.00000000
0.00000000 0.04484703 0.00000000
0.00000000 0.02479570 0.00000000
0.11162715 0.00703770 0.00000000
0.20638207 0.00000000 0.00000000
0.28186508 0.00000000 0.00000000
0.35422001 0.00000000 0.00000000
0.42660649 0.00000000 0.00000000
0.49668512 0.00000000 0.00000000
0.55783656 0.00000000 0.00000000
0.61198803 0.00000000 0.00000000
0.66054832 0.00000000 0.00000000
0.70444434 0.00000000 0.00000000
0.74430575 0.00000000 0.00000000
0.78056930 0.00000000 0.00000000
0.81354138 0.00000000 0.00000000
0.84343742 0.00000000 0.00000000
0.87040778 0.00000000 0.00000000
0.89455521 0.00000000 0.00000000
0.91594715 0.00000000 0.00000000
0.93462439 0.00000000 0.00000000
0.95060747 0.00000000 0.00000000
0.96390137 0.00000000 0.00000000
0.97449904 0.00000000 0.00000000
0.98238409 0.00000000 0.00000000
0.98753286 0.00000000 0.00000000
0.98991598 0.00000000 0.00000000
0.99064198 0.00000000 0.00000000
0.99135332 0.00000000 0.00000000
0.99206381 0.00000000 0.00000000
0.99277361 0.00000000 0.00000000
0.99348285 0.00000000 0.00000000
0.00000000 0.17834184 0.00000000
0.00000000 0.16006307 0.00000000
0.00000000 0.14376134 0.00000000
0.00000000 0.12928202 0.00000000
0.04822912 0.11544949 0.00000000
0.16873332 0.10043244 0.00000000
0.25403282 0.08164116 0.00000000
0.33205735 0.05703948 0.00000000
0.40827600 0.02741486 0.00000000
0.48303903 0.00000000 0.00000000
0.54806014 0.00000000 0.00000000
0.60485965 0.00000000 0.00000000
0.65529084 0.00000000 0.00000000
0.70053902 0.00000000 0.00000000
0.74139375 0.00000000 0.00000000
0.77839555 0.00000000 0.00000000
0.81192081 0.00000000 0.00000000
0.84223360 0.00000000 0.00000000
0.86951891 0.00000000 0.00000000
0.89390465 0.00000000 0.00000000
0.91547681 0.00000000 0.00000000
0.93429005 0.00000000 0.00000000
0.95037537 0.00000000 0.00000000
0.96374568 0.00000000 0.00000000
0.97440002 0.00000000 0.00000000
0.98232667 0.00000000 0.00000000
0.98750554 0.00000000 0.00000000
0.98991005 0.00000000 0.00000000
0.99063851 0.00000000 0.00000000
0.99135046 0.00000000 0.00000000
0.99206147 0.00000000 0.00000000
0.99277169 0.00000000 0.00000000
0.99348127 0.00000000 0.00000000
0.00000000 0.23695725 0.00000000
0.00000000 0.22270844 0.00000000
0.00000000 0.21038928 0.00000000
0.00000000 0.19979365 0.00000000
0.00000000 0.19001072 0.00000000
0.12314104 0.17980712 0.00000000
0.22322497 0.16772442 0.00000000
0.30841028 0.15205857 0.00000000
0.38910131 0.13122194 0.00000000
0.46838230 0.10225909 0.00000000
0.53773476 0.05965384 0.00000000
0.59742034 0.00633069 0.00000000
0.64985202 0.00000000 0.00000000
0.69652574 0.00000000 0.00000000
0.73841650 0.00000000 0.00000000
0.77618197 0.00000000 0.00000000
0.81027574 0.00000000 0.00000000
0.84101465 0.00000000 0.00000000
0.86862067 0.00000000 0.00000000
0.89324829 0.00000000 0.00000000
0.91500289 0.00000000 0.00000000
0.93395351 0.00000000 0.00000000
0.95014191 0.00000000 0.00000000
0.96358916 0.00000000 0.00000000
0.97430049 0.00000000 0.00000000
0.98226894 0.00000000 0.00000000
0.98747805 0.00000000 0.00000000
0.98990402 0.00000000 0.00000000
0.99063503 0.00000000 0.00000000
0.99134761 0.00000000 0.00000000
0.99205912 0.00000000 0.00000000
0.99276977 0.00000000 0.00000000
0.99347969 0.00000000 0.00000000
0.00000000 0.29077149 0.00000000
0.00000000 0.27897828 0.00000000
0.00000000 0.26893532 0.00000000
0.00000000 0.26042105 0.00000000
0.00000000 0.25266922 0.00000000
0.05416095 0.24470413 0.00000000
0.18347282 0.23544298 0.00000000
0.27955322 0.22373664 0.00000000
0.36631105 0.20875676 0.00000000
0.45045949 0.18923789 0.00000000
0.52535880 0.16306463 0.00000000
0.58862602 0.12612086 0.00000000
0.64348641 0.06788479 0.00000000
0.69186335 0.00000000 0.00000000
0.73497725 0.00000000 0.00000000
0.77363608 0.00000000 0.00000000
0.80839023 0.00000000 0.00000000
0.83962134 0.00000000 0.00000000
0.86759618 0.00000000 0.00000000
0.89250097 0.00000000 0.00000000
0.91446403 0.00000000 0.00000000
0.93357126 0.00000000 0.00000000
0.94987696 0.00000000 0.00000000
0.96341163 0.00000000 0.00000000
0.97418765 0.00000000 0.00000000
0.98220347 0.00000000 0.00000000
0.98744682 0.00000000 0.00000000
0.98989710 0.00000000 0.00000000
0.99063110 0.00000000 0.00000000
0.99134439 0.00000000 0.00000000
0.99205648 0.00000000 0.00000000
0.99276759 0.00000000 0.00000000
0.99347791 0.00000000 0.00000000
0.00000000 0.34594600 0.00000000
0.00000000 0.33596310 0.00000000
0.00000000 0.32754159 0.00000000
0.00000000 0.32046312 0.00000000
0.00000000 0.31407002 0.00000000
0.00000000 0.30755480 0.00000000
0.12318208 0.30005161 0.00000000
0.24034384 0.29068536 0.00000000
0.33660185 0.27890725 0.00000000
0.42661697 0.26394556 0.00000000
0.50912015 0.24466221 0.00000000
0.57729213 0.21925628 0.00000000
0.63538565 0.18454017 0.00000000
0.68598475 0.13360901 0.00000000
0.73067096 0.04678159 0.00000000
0.77046537 0.00000000 0.00000000
0.80605173 0.00000000 0.00000000
0.83789895 0.00000000 0.00000000
0.86633301 0.00000000 0.00000000
0.89158145 0.00000000 0.00000000
0.91380210 0.00000000 0.00000000
0.93310231 0.00000000 0.00000000
0.94955223 0.00000000 0.00000000
0.96319419 0.00000000 0.00000000
0.97404947 0.00000000 0.00000000
0.98212329 0.00000000 0.00000000
0.98740852 0.00000000 0.00000000
0.98988849 0.00000000 0.00000000
0.99062632 0.00000000 0.00000000
0.99134047 0.00000000 0.00000000
0.99205326 0.00000000 0.00000000
0.99276495 0.00000000 0.00000000
0.99347574 0.00000000 0.00000000
0.00000000 0.40344126 0.00000000
0.00000000 0.39486470 0.00000000
0.00000000 0.38767531 0.00000000
0.00000000 0.38166636 0.00000000
0.00000000 0.37626694 0.00000000
0.00000000 0.37079247 0.00000000
0.01837288 0.36452432 0.00000000
0.18351004 0.35675703 0.00000000
0.29673447 0.34708488 0.00000000
0.39557251 0.33496232 0.00000000
0.48731809 0.31963380 0.00000000
0.56244738 0.30000912 0.00000000
0.62495336 0.27441879 0.00000000
0.67850528 0.24006131 0.00000000
0.72524085 0.19144779 0.00000000
0.76649431 0.11375847 0.00000000
0.80313829 0.00000000 0.00000000
0.83576190 0.00000000 0.00000000
0.86477080 0.00000000 0.00000000
0.89044716 0.00000000 0.00000000
0.91298721 0.00000000 0.00000000
0.93252591 0.00000000 0.00000000
0.94915358 0.00000000 0.00000000
0.96292748 0.00000000 0.00000000
0.97388005 0.00000000 0.00000000
0.98202496 0.00000000 0.00000000
0.98736145 0.00000000 0.00000000
0.98987775 0.00000000 0.00000000
0.99062050 0.00000000 0.00000000
0.99133569 0.00000000 0.00000000
0.99204934 0.00000000 0.00000000
0.99276173 0.00000000 0.00000000
0.99347310 0.00000000 0.00000000
0.00000000 0.46341794 0.00000000
0.00000000 0.45631387 0.00000000
0.00000000 0.45028149 0.00000000
0.00000000 0.44518529 0.00000000
0.00000000 0.44056660 0.00000000
0.00000000 0.43588677 0.00000000
0.00000000 0.43054896 0.00000000
0.08558485 0.42396590 0.00000000
0.24038002 0.41581892 0.00000000
0.35425798 0.40569115 0.00000000
0.45706680 0.39302625 0.00000000
0.54256932 0.37706168 0.00000000
0.61130441 0.35671309 0.00000000
0.66887624 0.33035516 0.00000000
0.71833149 0.29535100 0.00000000
0.76148544 0.24683223 0.00000000
0.79948789 0.17330509 0.00000000
0.83309809 0.02985720 0.00000000
0.86283141 0.00000000 0.00000000
0.88904348 0.00000000 0.00000000
0.91198132 0.00000000 0.00000000
0.93181580 0.00000000 0.00000000
0.94866317 0.00000000 0.00000000
0.96259971 0.00000000 0.00000000
0.97367196 0.00000000 0.00000000
0.98190415 0.00000000 0.00000000
0.98730350 0.00000000 0.00000000
0.98986428 0.00000000 0.00000000
0.99061340 0.00000000 0.00000000
0.99132987 0.00000000 0.00000000
0.99204457 0.00000000 0.00000000
0.99275782 0.00000000 0.00000000
0.99346988 0.00000000 0.00000000
0.00000000 0.51970059 0.00000000
0.00000000 0.51439224 0.00000000
0.00000000 0.50991493 0.00000000
0.00000000 0.50615426 0.00000000
0.00000000 0.50276125 0.00000000
0.00000000 0.49930824 0.00000000
0.00000000 0.49533941 0.00000000
0.00000000 0.49040006 0.00000000
0.15056486 0.48421889 0.00000000
0.29677095 0.47642913 0.00000000
0.41399903 0.46652290 0.00000000
0.51510051 0.45377505 0.00000000
0.59305794 0.43714043 0.00000000
0.65628494 0.41577287 0.00000000
0.70943613 0.38822186 0.00000000
0.75510994 0.35189950 0.00000000
0.79488118 0.30220951 0.00000000
0.82975846 0.22912804 0.00000000
0.86041236 0.09602746 0.00000000
0.88729963 0.00000000 0.00000000
0.91073556 0.00000000 0.00000000
0.93093848 0.00000000 0.00000000
0.94805840 0.00000000 0.00000000
0.96219602 0.00000000 0.00000000
0.97341583 0.00000000 0.00000000
0.98175540 0.00000000 0.00000000
0.98723196 0.00000000 0.00000000
0.98984729 0.00000000 0.00000000
0.99060475 0.00000000 0.00000000
0.99132278 0.00000000 0.00000000
0.99203875 0.00000000 0.00000000
0.99275304 0.00000000 0.00000000
0.99346596 0.00000000 0.00000000
0.00000000 0.57124286 0.00000000
0.00000000 0.56724360 0.00000000
0.00000000 0.56388757 0.00000000
0.00000000 0.56108090 0.00000000
0.00000000 0.55855823 0.00000000
0.00000000 0.55600034 0.00000000
0.00000000 0.55307211 0.00000000
0.00000000 0.54944550 0.00000000
0.00000000 0.54493487 0.00000000
0.20883532 0.53929469 0.00000000
0.35429557 0.53219411 0.00000000
0.47530288 0.52317671 0.00000000
0.56791072 0.51159411 0.00000000
0.63946743 0.49649020 0.00000000
0.69780493 0.47638465 0.00000000
0.74689892 0.44883103 0.00000000
0.78901411 0.41073013 0.00000000
0.82554090 0.35898920 0.00000000
0.85737714 0.28432286 0.00000000
0.88512257 0.15760915 0.00000000
0.90918641 0.00000000 0.00000000
0.92985081 0.00000000 0.00000000
0.94731033 0.00000000 0.00000000
0.96169746 0.00000000 0.00000000
0.97309977 0.00000000 0.00000000
0.98157179 0.00000000 0.00000000
0.98714337 0.00000000 0.00000000
0.98982573 0.00000000 0.00000000
0.99059420 0.00000000 0.00000000
0.99131413 0.00000000 0.00000000
0.99203166 0.00000000 0.00000000
0.99274723 0.00000000 0.00000000
0.99346119 0.00000000 0.00000000
0.00000000 0.61872619 0.00000000
0.00000000 0.61569730 0.00000000
0.00000000 0.61316553 0.00000000
0.00000000 0.61105522 0.00000000
0.00000000 0.60916391 0.00000000
0.00000000 0.60725151 0.00000000
0.00000000 0.60506883 0.00000000
0.00000000 0.60237536 0.00000000
0.00000000 0.59904053 0.00000000
0.02403025 0.59489444 0.00000000
0.26523892 0.58971276 0.00000000
0.41403833 0.58319376 0.00000000
0.53164265 0.57492235 0.00000000
0.61632556 0.56431088 0.00000000
0.68227377 0.55049686 0.00000000
0.73615867 0.53215359 0.00000000
0.78145275 0.50710882 0.00000000
0.82016482 0.47148296 0.00000000
0.85354027 0.41815898 0.00000000
0.88238807 0.34053053 0.00000000
0.90725018 0.21403688 0.00000000
0.92849651 0.00000000 0.00000000
0.94638153 0.00000000 0.00000000
0.96107967 0.00000000 0.00000000
0.97270854 0.00000000 0.00000000
0.98134444 0.00000000 0.00000000
0.98703326 0.00000000 0.00000000
0.98979815 0.00000000 0.00000000
0.99058132 0.00000000 0.00000000
0.99130359 0.00000000 0.00000000
0.99202302 0.00000000 0.00000000
0.99274015 0.00000000 0.00000000
0.99345538 0.00000000 0.00000000
0.00000000 0.66262589 0.00000000
0.00000000 0.66032511 0.00000000
0.00000000 0.65840786 0.00000000
0.00000000 0.65681389 0.00000000
0.00000000 0.65538853 0.00000000
0.00000000 0.65395036 0.00000000
0.00000000 0.65231272 0.00000000
0.00000000 0.65029745 0.00000000
0.00000000 0.64781089 0.00000000
0.00000000 0.64473276 0.00000000
0.09213629 0.64090665 0.00000000
0.32197314 0.63612625 0.00000000
0.47534089 0.63011443 0.00000000
0.58304479 0.62249055 0.00000000
0.66091601 0.61271699 0.00000000
0.72181279 0.60000718 0.00000000
0.77155463 0.58315657 0.00000000
0.81322918 0.56020576 0.00000000
0.84864374 0.52768996 0.00000000
0.87892691 0.47868268 0.00000000
0.90481478 0.39883946 0.00000000
0.92680122 0.26920431 0.00000000
0.94522301 0.00000000 0.00000000
0.96031101 0.00000000 0.00000000
0.97222240 0.00000000 0.00000000
0.98106183 0.00000000 0.00000000
0.98689580 0.00000000 0.00000000
0.98976260 0.00000000 0.00000000
0.99056559 0.00000000 0.00000000
0.99129072 0.00000000 0.00000000
0.99201249 0.00000000 0.00000000
0.99273151 0.00000000 0.00000000
0.99344830 0.00000000 0.00000000
0.00000000 0.70327780 0.00000000
0.00000000 0.70152821 0.00000000
0.00000000 0.70007382 0.00000000
0.00000000 0.69886712 0.00000000
0.00000000 0.69778997 0.00000000
0.00000000 0.69670495 0.00000000
0.00000000 0.69547167 0.00000000
0.00000000 0.69395726 0.00000000
0.00000000 0.69209368 0.00000000
0.00000000 0.68979438 0.00000000
0.00000000 0.68694819 0.00000000
0.15612125 0.68341066 0.00000000
0.38036220 0.67899127 0.00000000
0.53167718 0.67343431 0.00000000
0.63024725 0.66638886 0.00000000
0.70208269 0.65735999 0.00000000
0.75832252 0.64562494 0.00000000
0.80413929 0.63008015 0.00000000
0.84231793 0.60893836 0.00000000
0.87450303 0.57906117 0.00000000
0.90172700 0.53424743 0.00000000
0.92466488 0.45967701 0.00000000
0.94376971 0.32501196 0.00000000
0.95934981 0.00000000 0.00000000
0.97161553 0.00000000 0.00000000
0.98070894 0.00000000 0.00000000
0.98672328 0.00000000 0.00000000
0.98971633 0.00000000 0.00000000
0.99054637 0.00000000 0.00000000
0.99127500 0.00000000 0.00000000
0.99199963 0.00000000 0.00000000
0.99272098 0.00000000 0.00000000
0.99343967 0.00000000 0.00000000
0.00000000 0.74092027 0.00000000
0.00000000 0.73959059 0.00000000
0.00000000 0.73848739 0.00000000
0.00000000 0.73757356 0.00000000
0.00000000 0.73675898 0.00000000
0.00000000 0.73593953 0.00000000
0.00000000 0.73500943 0.00000000
0.00000000 0.73386925 0.00000000
0.00000000 0.73246912 0.00000000
0.00000000 0.73074608 0.00000000
0.00000000 0.72862009 0.00000000
0.00000000 0.72598830 0.00000000
0.21408179 0.72271705 0.00000000
0.44136293 0.71863011 0.00000000
0.58307641 0.71349092 0.00000000
0.67376202 0.70697497 0.00000000
0.74010918 0.69862482 0.00000000
0.79197096 0.68777313 0.00000000
0.83401349 0.67340262 0.00000000
0.86877724 0.65387035 0.00000000
0.89777237 0.62630478 0.00000000
0.92195023 0.58507838 0.00000000
0.94193367 0.51695350 0.00000000
0.95814034 0.38265636 0.00000000
0.97085364 0.03872332 0.00000000
0.98026581 0.00000000 0.00000000
0.98650541 0.00000000 0.00000000
0.98965548 0.00000000 0.00000000
0.99052285 0.00000000 0.00000000
0.99125580 0.00000000 0.00000000
0.99198392 0.00000000 0.00000000
0.99270813 0.00000000 0.00000000
0.99342914 0.00000000 0.00000000
0.00000000 0.77572179 0.00000000
0.00000000 0.77471334 0.00000000
0.00000000 0.77387797 0.00000000
0.00000000 0.77318690 0.00000000
0.00000000 0.77257156 0.00000000
0.00000000 0.77195320 0.00000000
0.00000000 0.77125214 0.00000000
0.00000000 0.77039389 0.00000000
0.00000000 0.76934171 0.00000000
0.00000000 0.76804952 0.00000000
0.00000000 0.76645915 0.00000000
0.00000000 0.76449661 0.00000000
0.00000000 0.76206680 0.00000000
0.27044337 0.75904608 0.00000000
0.50089827 0.75527135 0.00000000
0.63027636 0.75052365 0.00000000
0.71394964 0.74450251 0.00000000
0.77519631 0.73678430 0.00000000
0.82287485 0.72675111 0.00000000
0.86124385 0.71346161 0.00000000
0.89264146 0.69539767 0.00000000
0.91846412 0.66991345 0.00000000
0.93959347 0.63185215 0.00000000
0.95660677 0.56921905 0.00000000
0.96989044 0.44302735 0.00000000
0.97970560 0.10555045 0.00000000
0.98622820 0.00000000 0.00000000
0.98957457 0.00000000 0.00000000
0.99049402 0.00000000 0.00000000
0.99123229 0.00000000 0.00000000
0.99196472 0.00000000 0.00000000
0.99269243 0.00000000 0.00000000
0.99341630 0.00000000 0.00000000
0.00000000 0.80779964 0.00000000
0.00000000 0.80703758 0.00000000
0.00000000 0.80640711 0.00000000
0.00000000 0.80588609 0.00000000
0.00000000 0.80542258 0.00000000
0.00000000 0.80495719 0.00000000
0.00000000 0.80443004 0.00000000
0.00000000 0.80378539 0.00000000
0.00000000 0.80299612 0.00000000
0.00000000 0.80202838 0.00000000
0.00000000 0.80083974 0.00000000
0.00000000 0.79937656 0.00000000
0.00000000 0.79757061 0.00000000
0.00000000 0.79533411 0.00000000
0.32728279 0.79255289 0.00000000
0.55494367 0.78907622 0.00000000
0.67378889 0.78470159 0.00000000
0.75106558 0.77915086 0.00000000
0.80748495 0.77203161 0.00000000
0.85111282 0.76277111 0.00000000
0.88587111 0.75049658 0.00000000
0.91392656 0.73380084 0.00000000
0.93657728 0.71023468 0.00000000
0.95464362 0.67504044 0.00000000
0.96866230 0.61723655 0.00000000
0.97899157 0.50184864 0.00000000
0.98587236 0.16597345 0.00000000
0.98946565 0.00000000 0.00000000
0.99045865 0.00000000 0.00000000
0.99120349 0.00000000 0.00000000
0.99194123 0.00000000 0.00000000
0.99267324 0.00000000 0.00000000
0.99340060 0.00000000 0.00000000
0.00000000 0.83723298 0.00000000
0.00000000 0.83666012 0.00000000
0.00000000 0.83618666 0.00000000
0.00000000 0.83579572 0.00000000
0.00000000 0.83544819 0.00000000
0.00000000 0.83509949 0.00000000
0.00000000 0.83470480 0.00000000
0.00000000 0.83422256 0.00000000
0.00000000 0.83363275 0.00000000
0.00000000 0.83291052 0.00000000
0.00000000 0.83202485 0.00000000
0.00000000 0.83093678 0.00000000
0.00000000 0.82959710 0.00000000
0.00000000 0.82794308 0.00000000
0.00000000 0.82589402 0.00000000
0.38587664 0.82334482 0.00000000
0.60441227 0.82015655 0.00000000
0.71397447 0.81614236 0.00000000
0.78529043 0.81104525 0.00000000
0.83707177 0.80450214 0.00000000
0.87673470 0.79598244 0.00000000
0.90791619 0.78467664 0.00000000
0.93263432 0.76927858 0.00000000
0.95210036 0.74751489 0.00000000
0.96707977 0.71497633 0.00000000
0.97807242 0.66153471 0.00000000
0.98541078 0.55539450 0.00000000
0.98931707 0.22205076 0.00000000
0.99041514 0.00000000 0.00000000
0.99116814 0.00000000 0.00000000
0.99191245 0.00000000 0.00000000
0.99264976 0.00000000 0.00000000
0.99338143 0.00000000 0.00000000
0.00000000 0.86407219 0.00000000
0.00000000 0.86364459 0.00000000
0.00000000 0.86329148 0.00000000
0.00000000 0.86300011 0.00000000
0.00000000 0.86274124 0.00000000
0.00000000 0.86248165 0.00000000
0.00000000 0.86218800 0.00000000
0.00000000 0.86182945 0.00000000
0.00000000 0.86139131 0.00000000
0.00000000 0.86085536 0.00000000
0.00000000 0.86019896 0.00000000
0.00000000 0.85939385 0.00000000
0.00000000 0.85840448 0.00000000
0.00000000 0.85718593 0.00000000
0.00000000 0.85568089 0.00000000
0.00000000 0.85381549 0.00000000
0.44712628 0.85149346 0.00000000
0.64993033 0.84858732 0.00000000
0.75108849 0.84492529 0.00000000
0.81675023 0.84027070 0.00000000
0.86402027 0.83428852 0.00000000
0.89976841 0.82648810 0.00000000
0.92738468 0.81611945 0.00000000
0.94875544 0.80197031 0.00000000
0.96501374 0.78192826 0.00000000
0.97687484 0.75189603 0.00000000
0.98480463 0.70248566 0.00000000
0.98911151 0.60451150 0.00000000
0.99036150 0.27721701 0.00000000
0.99112467 0.00000000 0.00000000
0.99187712 0.00000000 0.00000000
0.99262100 0.00000000 0.00000000
0.99335796 0.00000000 0.00000000
0.00000000 0.88834566 0.00000000
0.00000000 0.88802943 0.00000000
0.00000000 0.88776847 0.00000000
0.00000000 0.88755326 0.00000000
0.00000000 0.88736215 0.00000000
0.00000000 0.88717059 0.00000000
0.00000000 0.88695399 0.00000000
0.00000000 0.88668968 0.00000000
0.00000000 0.88636692 0.00000000
0.00000000 0.88597244 0.00000000
0.00000000 0.88548981 0.00000000
0.00000000 0.88489858 0.00000000
0.00000000 0.88417318 0.00000000
0.00000000 0.88328146 0.00000000
0.00000000 0.88218272 0.00000000
0.00000000 0.88082495 0.00000000
0.00000000 0.87914106 0.00000000
0.50610600 0.87704339 0.00000000
0.69193566 0.87441566 0.00000000
0.78531152 0.87110083 0.00000000
0.84553058 0.86688199 0.00000000
0.88836879 0.86145124 0.00000000
0.92022496 0.85435642 0.00000000
0.94427026 0.84490438 0.00000000
0.96227201 0.83197170 0.00000000
0.97529137 0.81359617 0.00000000
0.98399697 0.78596633 0.00000000
0.98882276 0.74035322 0.00000000
0.99029516 0.64978290 0.00000000
0.99107108 0.33322654 0.00000000
0.99183368 0.00000000 0.00000000
0.99258569 0.00000000 0.00000000
0.99332920 0.00000000 0.00000000
0.00000000 0.91006482 0.00000000
0.00000000 0.90983379 0.00000000
0.00000000 0.90964324 0.00000000
0.00000000 0.90948616 0.00000000
0.00000000 0.90934673 0.00000000
0.00000000 0.90920702 0.00000000
0.00000000 0.90904912 0.00000000
0.00000000 0.90885651 0.00000000
0.00000000 0.90862144 0.00000000
0.00000000 0.90833433 0.00000000
0.00000000 0.90798336 0.00000000
0.00000000 0.90755384 0.00000000
0.00000000 0.90702752 0.00000000
0.00000000 0.90638151 0.00000000
0.00000000 0.90558704 0.00000000
0.00000000 0.90460756 0.00000000
0.00000000 0.90339637 0.00000000
0.00000000 0.90189304 0.00000000
0.55969550 0.90001846 0.00000000
0.73073775 0.89766741 0.00000000
0.81676959 0.89469736 0.00000000
0.87168661 0.89091081 0.00000000
0.91013638 0.88602640 0.00000000
0.93810225 0.87962948 0.00000000
0.95855736 0.87108189 0.00000000
0.97315932 0.85934553 0.00000000
0.98290216 0.84260079 0.00000000
0.98841046 0.81730316 0.00000000
0.99021278 0.77532410 0.00000000
0.99100479 0.69161788 0.00000000
0.99178012 0.39121557 0.00000000
