Clog3_to_BT601_NTSC.cube
TITLE "Clog3_to_BT601_NTSC"
LUT_3D_SIZE 9
# Clog3 to BT601 NTSC by Francesco Bucciantini
0.00000000 0.00000000 0.00000000
0.26707573 0.00000000 0.00000000
0.49234312 0.00000000 0.00000000
0.68073736 0.00000000 0.00000000
0.82005007 0.00000000 0.00000000
0.91787132 0.00000000 0.00000000
0.97490676 0.00000000 0.00000000
0.99065645 0.00000000 0.00000000
0.99348944 0.00000000 0.00000000
0.00000000 0.17834184 0.00000000
0.04822912 0.11544949 0.00000000
0.40827600 0.02741486 0.00000000
0.65529084 0.00000000 0.00000000
0.81192081 0.00000000 0.00000000
0.91547681 0.00000000 0.00000000
0.97440002 0.00000000 0.00000000
0.99063851 0.00000000 0.00000000
0.99348127 0.00000000 0.00000000
0.00000000 0.40344126 0.00000000
0.00000000 0.37626694 0.00000000
0.29673447 0.34708488 0.00000000
0.62495336 0.27441879 0.00000000
0.80313829 0.00000000 0.00000000
0.91298721 0.00000000 0.00000000
0.97388005 0.00000000 0.00000000
0.99062050 0.00000000 0.00000000
0.99347310 0.00000000 0.00000000
0.00000000 0.61872619 0.00000000
0.00000000 0.60916391 0.00000000
0.00000000 0.59904053 0.00000000
0.53164265 0.57492235 0.00000000
0.78145275 0.50710882 0.00000000
0.90725018 0.21403688 0.00000000
0.97270854 0.00000000 0.00000000
0.99058132 0.00000000 0.00000000
0.99345538 0.00000000 0.00000000
0.00000000 0.77572179 0.00000000
0.00000000 0.77257156 0.00000000
0.00000000 0.76934171 0.00000000
0.00000000 0.76206680 0.00000000
0.71394964 0.74450251 0.00000000
0.89264146 0.69539767 0.00000000
0.96989044 0.44302735 0.00000000
0.99049402 0.00000000 0.00000000
0.99341630 0.00000000 0.00000000
0.00000000 0.88834566 0.00000000
0.00000000 0.88736215 0.00000000
0.00000000 0.88636692 0.00000000
0.00000000 0.88417318 0.00000000
0.00000000 0.87914106 0.00000000
0.84553058 0.86688199 0.00000000
0.96227201 0.83197170 0.00000000
0.99029516 0.64978290 0.00000000
0.99332920 0.00000000 0.00000000
0.00000000 0.95983048 0.00000000
0.00000000 0.95958296 0.00000000
0.00000000 0.95933382 0.00000000
0.00000000 0.95878934 0.00000000
0.00000000 0.95756447 0.00000000
0.00000000 0.95471667 0.00000000
0.93464313 0.94757653 0.00000000
0.98972524 0.92598872 0.00000000
0.99313083 0.79900291 0.00000000
0.00000000 0.98938619 0.00000000
0.00000000 0.98936856 0.00000000
0.00000000 0.98935071 0.00000000
0.00000000 0.98931131 0.00000000
0.00000000 0.98922095 0.00000000
0.00000000 0.98900281 0.00000000
0.10184775 0.98842165 0.00000000
0.98217038 0.98657559 0.00000000
0.99265417 0.97862618 0.00000000
0.00000000 0.99251182 0.00000000
0.00000000 0.99250895 0.00000000
0.00000000 0.99250608 0.00000000
0.00000000 0.99249988 0.00000000
0.00000000 0.99248628 0.00000000
0.00000000 0.99245632 0.00000000
0.00000000 0.99238983 0.00000000
0.33541402 0.99223981 0.00000000
0.99131921 0.99188780 0.00000000
0.00000000 0.00000000 0.14559575
0.24589744 0.00000000 0.14010317
0.48222149 0.00000000 0.13445914
0.67738486 0.00000000 0.12166924
0.81893723 0.00000000 0.08990592
0.91753830 0.00000000 0.00870216
0.97483589 0.00000000 0.00000000
0.99065392 0.00000000 0.00000000
0.99348829 0.00000000 0.00000000
0.00000000 0.09149701 0.00757815
0.00000000 0.00000000 0.00000000
0.39432788 0.00000000 0.00000000
0.65132764 0.00000000 0.00000000
0.81071894 0.00000000 0.00000000
0.91513022 0.00000000 0.00000000
0.97432721 0.00000000 0.00000000
0.99063596 0.00000000 0.00000000
0.99348012 0.00000000 0.00000000
0.00000000 0.36773029 0.00000000
0.00000000 0.33780556 0.00000000
0.27759372 0.30518053 0.00000000
0.62015836 0.22062745 0.00000000
0.80183536 0.00000000 0.00000000
0.91262626 0.00000000 0.00000000
0.97380525 0.00000000 0.00000000
0.99061794 0.00000000 0.00000000
0.99347194 0.00000000 0.00000000
0.00000000 0.60618424 0.00000000
0.00000000 0.59586328 0.00000000
0.00000000 0.58489799 0.00000000
0.52343301 0.55860348 0.00000000
0.77987738 0.48318121 0.00000000
0.90685514 0.14359759 0.00000000
0.97262923 0.00000000 0.00000000
0.99057874 0.00000000 0.00000000
0.99345422 0.00000000 0.00000000
0.00000000 0.77160978 0.00000000
0.00000000 0.76834989 0.00000000
0.00000000 0.76500559 0.00000000
0.00000000 0.75746522 0.00000000
0.71128761 0.73921451 0.00000000
0.89215308 0.68781153 0.00000000
0.96980023 0.41071313 0.00000000
0.99049137 0.00000000 0.00000000
0.99341512 0.00000000 0.00000000
0.00000000 0.88706441 0.00000000
0.00000000 0.88606395 0.00000000
0.00000000 0.88505145 0.00000000
0.00000000 0.88281922 0.00000000
0.00000000 0.87769661 0.00000000
0.84467022 0.86520381 0.00000000
0.96215155 0.82951643 0.00000000
0.99029236 0.63947650 0.00000000
0.99332800 0.00000000 0.00000000
0.00000000 0.95950829 0.00000000
0.00000000 0.95925824 0.00000000
0.00000000 0.95900655 0.00000000
0.00000000 0.95845649 0.00000000
0.00000000 0.95721899 0.00000000
0.00000000 0.95434139 0.00000000
0.93439872 0.94712380 0.00000000
0.98971881 0.92527492 0.00000000
0.99312956 0.79564324 0.00000000
0.00000000 0.98936322 0.00000000
0.00000000 0.98934527 0.00000000
0.00000000 0.98932709 0.00000000
0.00000000 0.98928699 0.00000000
0.00000000 0.98919505 0.00000000
0.00000000 0.98897335 0.00000000
0.05451265 0.98838369 0.00000000
0.98212753 0.98651508 0.00000000
0.99265272 0.97848637 0.00000000
0.00000000 0.99250809 0.00000000
0.00000000 0.99250521 0.00000000
0.00000000 0.99250235 0.00000000
0.00000000 0.99249614 0.00000000
0.00000000 0.99248253 0.00000000
0.00000000 0.99245253 0.00000000
0.00000000 0.99238597 0.00000000
0.31843372 0.99223579 0.00000000
0.99131710 0.99188337 0.00000000
0.00000000 0.00000000 0.37291831
0.22302655 0.00000000 0.37048435
0.47156731 0.00000000 0.36803800
0.67396054 0.00000000 0.36270320
0.81781388 0.00000000 0.35075124
0.91720383 0.00000000 0.32312394
0.97476485 0.00000000 0.25321709
0.99065138 0.00000000 0.00000000
0.99348713 0.00000000 0.00000000
0.00000000 0.00000000 0.32272591
0.00000000 0.00000000 0.31993084
0.37989892 0.00000000 0.31711638
0.64726764 0.00000000 0.31096040
0.80950510 0.00000000 0.29707103
0.91478209 0.00000000 0.26436642
0.97425421 0.00000000 0.17587430
0.99063342 0.00000000 0.00000000
0.99347896 0.00000000 0.00000000
0.00000000 0.32837234 0.26397042
0.00000000 0.29473704 0.26060736
0.25720976 0.25720976 0.25720976
0.61522710 0.15261366 0.24973731
0.80051867 0.00000000 0.23265192
0.91226366 0.00000000 0.19087577
0.97373026 0.00000000 0.05503425
0.99061539 0.00000000 0.00000000
0.99347078 0.00000000 0.00000000
0.00000000 0.59265790 0.05595172
0.00000000 0.58146710 0.04809523
0.00000000 0.56952981 0.04024871
0.51486129 0.54068973 0.02331128
0.77828292 0.45598792 0.00000000
0.90645820 0.03744742 0.00000000
0.97254972 0.00000000 0.00000000
0.99057615 0.00000000 0.00000000
0.99345305 0.00000000 0.00000000
0.00000000 0.76735975 0.00000000
0.00000000 0.76398386 0.00000000
0.00000000 0.76051834 0.00000000
0.00000000 0.75269631 0.00000000
0.70857785 0.73371384 0.00000000
0.89166203 0.67982558 0.00000000
0.96970978 0.37572206 0.00000000
0.99048872 0.00000000 0.00000000
0.99341394 0.00000000 0.00000000
0.00000000 0.88576272 0.00000000
0.00000000 0.88474489 0.00000000
0.00000000 0.88371468 0.00000000
0.00000000 0.88144298 0.00000000
0.00000000 0.87622749 0.00000000
0.84380306 0.86349432 0.00000000
0.96203076 0.82700307 0.00000000
0.99028956 0.62847981 0.00000000
0.99332679 0.00000000 0.00000000
0.00000000 0.95918322 0.00000000
0.00000000 0.95893062 0.00000000
0.00000000 0.95867635 0.00000000
0.00000000 0.95812065 0.00000000
0.00000000 0.95687037 0.00000000
0.00000000 0.95396263 0.00000000
0.93415342 0.94666660 0.00000000
0.98971231 0.92455266 0.00000000
0.99312828 0.79218557 0.00000000
0.00000000 0.98933986 0.00000000
0.00000000 0.98932158 0.00000000
0.00000000 0.98930307 0.00000000
0.00000000 0.98926227 0.00000000
0.00000000 0.98916875 0.00000000
0.00000000 0.98894346 0.00000000
0.00606677 0.98834525 0.00000000
0.98208457 0.98645397 0.00000000
0.99265126 0.97834542 0.00000000
0.00000000 0.99250436 0.00000000
0.00000000 0.99250148 0.00000000
0.00000000 0.99249861 0.00000000
0.00000000 0.99249240 0.00000000
0.00000000 0.99247877 0.00000000
0.00000000 0.99244874 0.00000000
0.00000000 0.99238211 0.00000000
0.30058737 0.99223177 0.00000000
0.99131499 0.99187893 0.00000000
0.00000000 0.00000000 0.59559884
0.16525803 0.00000000 0.59468526
0.44643919 0.00000000 0.59376797
0.66629515 0.00000000 0.59177116
0.81534746 0.00000000 0.58731703
0.91647541 0.00000000 0.57714863
0.97461056 0.00000000 0.55261627
0.99064591 0.00000000 0.48386353
0.99348464 0.00000000 0.20412844
0.00000000 0.00000000 0.57700366
0.00000000 0.00000000 0.57598703
0.34678603 0.00000000 0.57496582
0.63813457 0.00000000 0.57274118
0.80683772 0.00000000 0.56777083
0.91402380 0.00000000 0.55638155
0.97409569 0.00000000 0.52864632
0.99062792 0.00000000 0.44864578
0.99347646 0.00000000 0.10365353
0.00000000 0.22304162 0.55624671
0.00000000 0.17310481 0.55510478
0.20746354 0.10831043 0.55395710
0.60406110 0.00000000 0.55145478
0.79762256 0.00000000 0.54585324
0.91147374 0.00000000 0.53295966
0.97356739 0.00000000 0.50120074
0.99060986 0.00000000 0.40774978
0.99346828 0.00000000 0.00000000
0.00000000 0.55929976 0.50137894
0.00000000 0.54571588 0.49984764
0.00000000 0.53106730 0.49830612
0.49493632 0.49493632 0.49493632
0.77476708 0.38561536 0.48734847
0.90559312 0.00000000 0.46963915
0.97237705 0.00000000 0.42480099
0.99057056 0.00000000 0.30158527
0.99345054 0.00000000 0.00000000
0.00000000 0.75765646 0.30168603
0.00000000 0.75400534 0.29870908
0.00000000 0.75025166 0.29570848
0.00000000 0.74175782 0.28913446
0.70254634 0.72101571 0.27424314
0.89059073 0.66099770 0.23879869
0.96951334 0.28671998 0.13835356
0.99048300 0.00000000 0.00000000
0.99341140 0.00000000 0.00000000
0.00000000 0.88287498 0.00000000
0.00000000 0.88181804 0.00000000
0.00000000 0.88074797 0.00000000
0.00000000 0.87838736 0.00000000
0.00000000 0.87296237 0.00000000
0.84190382 0.85968531 0.00000000
0.96176834 0.82135721 0.00000000
0.99028352 0.60190656 0.00000000
0.99332418 0.00000000 0.00000000
0.00000000 0.95847015 0.00000000
0.00000000 0.95821193 0.00000000
0.00000000 0.95795199 0.00000000
0.00000000 0.95738386 0.00000000
0.00000000 0.95610544 0.00000000
0.00000000 0.95313128 0.00000000
0.93361974 0.94566216 0.00000000
0.98969809 0.92296089 0.00000000
0.99312553 0.78434833 0.00000000
0.00000000 0.98928799 0.00000000
0.00000000 0.98926900 0.00000000
0.00000000 0.98924979 0.00000000
0.00000000 0.98920743 0.00000000
0.00000000 0.98911047 0.00000000
0.00000000 0.98887735 0.00000000
0.00000000 0.98826050 0.00000000
0.98199125 0.98631974 0.00000000
0.99264812 0.97803659 0.00000000
0.00000000 0.99249630 0.00000000
0.00000000 0.99249342 0.00000000
0.00000000 0.99249054 0.00000000
0.00000000 0.99248431 0.00000000
0.00000000 0.99247065 0.00000000
0.00000000 0.99244056 0.00000000
0.00000000 0.99237377 0.00000000
0.25829605 0.99222308 0.00000000
0.99131044 0.99186934 0.00000000
0.00000000 0.00000000 0.75921266
0.00000000 0.00000000 0.75890828
0.38271130 0.00000000 0.75860354
0.64805554 0.00000000 0.75794323
0.80973929 0.00000000 0.75648531
0.91484911 0.00000000 0.75323357
0.97426826 0.00000000 0.74581264
0.99063391 0.00000000 0.72793461
0.99347918 0.00000000 0.67823603
0.00000000 0.00000000 0.75318797
0.00000000 0.00000000 0.75286879
0.26104750 0.00000000 0.75254922
0.61614091 0.00000000 0.75185668
0.80076090 0.00000000 0.75032718
0.91233021 0.00000000 0.74691367
0.97374401 0.00000000 0.73911257
0.99061585 0.00000000 0.72025304
0.99347099 0.00000000 0.66728312
0.00000000 0.00000000 0.74687401
0.00000000 0.00000000 0.74653881
0.03449718 0.00000000 0.74620318
0.57672924 0.00000000 0.74547572
0.79101035 0.00000000 0.74386864
0.90970885 0.00000000 0.74027963
0.97320606 0.00000000 0.73206494
0.99059773 0.00000000 0.71213055
0.99346279 0.00000000 0.65550471
0.00000000 0.45451902 0.73210865
0.00000000 0.43075614 0.73173387
0.00000000 0.40541605 0.73135853
0.44266905 0.34459032 0.73054474
0.76669377 0.14968247 0.72874564
0.90365863 0.00000000 0.72472134
0.97199393 0.00000000 0.71547590
0.99055830 0.00000000 0.69283029
0.99344503 0.00000000 0.62662779
0.00000000 0.73343128 0.69284711
0.00000000 0.72902648 0.69235145
0.00000000 0.72447976 0.69185473
0.00000000 0.71412122 0.69077675
0.68838856 0.68838856 0.68838856
0.88818950 0.60972251 0.68302095
0.96907744 0.00000000 0.67055081
0.99047044 0.00000000 0.63911920
0.99340583 0.00000000 0.53794269
0.00000000 0.87615293 0.53775738
0.00000000 0.87500196 0.53649411
0.00000000 0.87383594 0.53522381
0.00000000 0.87126103 0.53245186
0.00000000 0.86532958 0.52623525
0.83760942 0.85072758 0.51186376
0.96118568 0.80781948 0.47606710
0.99027024 0.52393234 0.37184642
0.99331848 0.00000000 0.00000000
0.00000000 0.95685275 0.00000000
0.00000000 0.95658167 0.00000000
0.00000000 0.95630877 0.00000000
0.00000000 0.95571221 0.00000000
0.00000000 0.95436940 0.00000000
0.00000000 0.95124302 0.00000000
0.93243099 0.94337597 0.00000000
0.98966593 0.91931163 0.00000000
0.99311950 0.76513621 0.00000000
0.00000000 0.98916742 0.00000000
0.00000000 0.98914685 0.00000000
0.00000000 0.98912604 0.00000000
0.00000000 0.98908022 0.00000000
0.00000000 0.98897555 0.00000000
0.00000000 0.98872490 0.00000000
0.00000000 0.98806629 0.00000000
0.98178413 0.98601451 0.00000000
0.99264123 0.97733808 0.00000000
0.00000000 0.99247858 0.00000000
0.00000000 0.99247569 0.00000000
0.00000000 0.99247279 0.00000000
0.00000000 0.99246654 0.00000000
0.00000000 0.99245281 0.00000000
0.00000000 0.99242257 0.00000000
0.00000000 0.99235544 0.00000000
0.13273434 0.99220396 0.00000000
0.99130046 0.99184825 0.00000000
0.00000000 0.00000000 0.87704893
0.00000000 0.00000000 0.87695222
0.18266864 0.00000000 0.87685552
0.59901552 0.00000000 0.87664638
0.79635186 0.00000000 0.87618657
0.91113042 0.00000000 0.87517056
0.97349683 0.00000000 0.87290068
0.99060748 0.00000000 0.86770181
0.99346720 0.00000000 0.85508028
0.00000000 0.00000000 0.87515640
0.00000000 0.00000000 0.87505740
0.00000000 0.00000000 0.87495841
0.55491003 0.00000000 0.87474430
0.78618665 0.00000000 0.87427354
0.90845454 0.00000000 0.87323322
0.97295140 0.00000000 0.87090842
0.99058929 0.00000000 0.86558057
0.99345898 0.00000000 0.85262688
0.00000000 0.00000000 0.87322121
0.00000000 0.00000000 0.87311984
0.00000000 0.00000000 0.87301846
0.49669994 0.00000000 0.87279921
0.77506787 0.00000000 0.87231711
0.90566659 0.00000000 0.87125161
0.97239168 0.00000000 0.86886989
0.99057104 0.00000000 0.86340821
0.99345075 0.00000000 0.85010892
0.00000000 0.00000000 0.86888235
0.00000000 0.00000000 0.86877554
0.00000000 0.00000000 0.86866873
0.28415698 0.00000000 0.86843770
0.74695010 0.00000000 0.86792964
0.89921905 0.00000000 0.86680645
0.97113037 0.00000000 0.86429427
0.99053131 0.00000000 0.85852529
0.99343293 0.00000000 0.84442878
0.00000000 0.65837009 0.85852938
0.00000000 0.65092834 0.85840897
0.00000000 0.64312897 0.85828854
0.00000000 0.62488261 0.85802802
0.65173152 0.57622660 0.85745494
0.88264896 0.38274492 0.85618717
0.96809453 0.00000000 0.85334731
0.99044278 0.00000000 0.84680310
0.99339360 0.00000000 0.83067293
0.00000000 0.85917746 0.83064913
0.00000000 0.85776943 0.83048735
0.00000000 0.85634060 0.83032552
0.00000000 0.85317667 0.82997528
0.00000000 0.84584202 0.82920416
0.82749492 0.82749492 0.82749492
0.95987000 0.77078697 0.82364917
0.99024099 0.08470632 0.81469492
0.99330595 0.00000000 0.79203605
0.00000000 0.95302174 0.71882169
0.00000000 0.95271961 0.71840863
0.00000000 0.95241539 0.71799487
0.00000000 0.95175013 0.71709751
0.00000000 0.95025146 0.71511232
0.00000000 0.94675557 0.71066493
0.92972720 0.93791538 0.70041097
0.98959057 0.91044102 0.67506743
0.99310625 0.70901917 0.59880001
0.00000000 0.98886859 0.00000000
0.00000000 0.98884437 0.00000000
0.00000000 0.98881991 0.00000000
0.00000000 0.98876613 0.00000000
0.00000000 0.98864373 0.00000000
0.00000000 0.98835274 0.00000000
0.00000000 0.98759790 0.00000000
0.98131705 0.98528958 0.00000000
0.99262611 0.97569588 0.00000000
0.00000000 0.99243949 0.00000000
0.00000000 0.99243656 0.00000000
0.00000000 0.99243364 0.00000000
0.00000000 0.99242732 0.00000000
0.00000000 0.99241344 0.00000000
0.00000000 0.99238286 0.00000000
0.00000000 0.99231499 0.00000000
0.00000000 0.99216176 0.00000000
0.99127850 0.99180165 0.00000000
0.00000000 0.00000000 0.95348876
0.00000000 0.00000000 0.95346334
0.00000000 0.00000000 0.95343794
0.39450230 0.00000000 0.95338306
0.76016071 0.00000000 0.95326259
0.90214482 0.00000000 0.95299743
0.97169703 0.00000000 0.95241013
0.99054893 0.00000000 0.95109110
0.99344082 0.00000000 0.94803538
0.00000000 0.00000000 0.95299375
0.00000000 0.00000000 0.95296799
0.00000000 0.00000000 0.95294224
0.27765929 0.00000000 0.95288661
0.74626092 0.00000000 0.95276450
0.89907124 0.00000000 0.95249573
0.97110199 0.00000000 0.95190039
0.99053044 0.00000000 0.95056320
0.99343254 0.00000000 0.94746471
0.00000000 0.00000000 0.95249264
0.00000000 0.00000000 0.95246653
0.00000000 0.00000000 0.95244043
0.07423457 0.00000000 0.95238404
0.73072123 0.00000000 0.95226026
0.89585967 0.00000000 0.95198782
0.97049126 0.00000000 0.95138432
0.99051188 0.00000000 0.95002867
0.99342425 0.00000000 0.94688669
0.00000000 0.00000000 0.95138746
0.00000000 0.00000000 0.95136057
0.00000000 0.00000000 0.95133370
0.00000000 0.00000000 0.95127562
0.68963811 0.00000000 0.95114815
0.88839521 0.00000000 0.95086756
0.96911455 0.00000000 0.95024595
0.99047150 0.00000000 0.94884931
0.99340630 0.00000000 0.94561072
0.00000000 0.00000000 0.94885029
0.00000000 0.00000000 0.94882159
0.00000000 0.00000000 0.94879290
0.00000000 0.00000000 0.94873091
0.52147620 0.00000000 0.94859484
0.86895912 0.00000000 0.94829528
0.96579800 0.00000000 0.94763152
0.99038147 0.00000000 0.94613941
0.99336667 0.00000000 0.94267534
0.00000000 0.80539478 0.94267045
0.00000000 0.80296458 0.94263719
0.00000000 0.80048311 0.94260394
0.00000000 0.79493175 0.94253210
0.00000000 0.78174804 0.94237439
0.80114008 0.74658745 0.94202710
0.95678545 0.60747158 0.94125713
0.99017612 0.00000000 0.93952405
0.99327835 0.00000000 0.93548838
0.00000000 0.94298399 0.92529002
0.00000000 0.94259627 0.92524276
0.00000000 0.94220560 0.92519552
0.00000000 0.94135044 0.92509340
0.00000000 0.93941955 0.92486914
0.00000000 0.93489098 0.92437494
0.92327730 0.92327730 0.92327730
0.98940117 0.88546255 0.92079684
0.99307709 0.32507761 0.91496644
0.00000000 0.98803284 0.84914485
0.00000000 0.98799972 0.84901130
0.00000000 0.98796631 0.84887773
0.00000000 0.98789307 0.84858874
0.00000000 0.98772730 0.84795285
0.00000000 0.98733752 0.84654522
0.00000000 0.98634637 0.84338757
0.98022623 0.98340345 0.83608684
0.99259277 0.97148988 0.81794104
0.00000000 0.99235239 0.00000000
0.00000000 0.99234939 0.00000000
0.00000000 0.99234639 0.00000000
0.00000000 0.99233992 0.00000000
0.00000000 0.99232570 0.00000000
0.00000000 0.99229436 0.00000000
0.00000000 0.99222479 0.00000000
0.00000000 0.99206760 0.00000000
0.99122996 0.99169745 0.00000000
0.00000000 0.00000000 0.98813844
0.00000000 0.00000000 0.98813571
0.00000000 0.00000000 0.98813298
0.00000000 0.00000000 0.98812708
0.60863101 0.00000000 0.98811413
0.87721222 0.00000000 0.98808558
0.96716040 0.00000000 0.98802221
0.99041730 0.00000000 0.98787916
0.99338238 0.00000000 0.98754485
0.00000000 0.00000000 0.98808519
0.00000000 0.00000000 0.98808241
0.00000000 0.00000000 0.98807964
0.00000000 0.00000000 0.98807364
0.56718343 0.00000000 0.98806047
0.87288965 0.00000000 0.98803146
0.96643862 0.00000000 0.98796704
0.99039813 0.00000000 0.98782167
0.99337396 0.00000000 0.98748209
0.00000000 0.00000000 0.98803112
0.00000000 0.00000000 0.98802830
0.00000000 0.00000000 0.98802548
0.00000000 0.00000000 0.98801939
0.51327271 0.00000000 0.98800600
0.86833328 0.00000000 0.98797651
0.96569736 0.00000000 0.98791104
0.99037888 0.00000000 0.98776332
0.99336554 0.00000000 0.98741843
0.00000000 0.00000000 0.98791138
0.00000000 0.00000000 0.98790846
0.00000000 0.00000000 0.98790554
0.00000000 0.00000000 0.98789922
0.31708004 0.00000000 0.98788536
0.85757925 0.00000000 0.98785483
0.96402459 0.00000000 0.98778705
0.99033697 0.00000000 0.98763422
0.99334729 0.00000000 0.98727770
0.00000000 0.00000000 0.98763433
0.00000000 0.00000000 0.98763118
0.00000000 0.00000000 0.98762803
0.00000000 0.00000000 0.98762123
0.00000000 0.00000000 0.98760630
0.82838937 0.00000000 0.98757341
0.95998323 0.00000000 0.98750044
0.99024347 0.00000000 0.98733605
0.99330700 0.00000000 0.98695326
0.00000000 0.00000000 0.98695272
0.00000000 0.00000000 0.98694905
0.00000000 0.00000000 0.98694537
0.00000000 0.00000000 0.98693742
0.00000000 0.00000000 0.98691998
0.70726498 0.00000000 0.98688158
0.94890182 0.00000000 0.98679644
0.99002987 0.00000000 0.98660495
0.99321720 0.00000000 0.98616058
0.00000000 0.90867409 0.98505664
0.00000000 0.90794021 0.98505161
0.00000000 0.90719887 0.98504658
0.00000000 0.90556940 0.98503571
0.00000000 0.90185573 0.98501186
0.00000000 0.89295006 0.98495938
0.90600737 0.86870599 0.98484316
0.98886079 0.76915949 0.98458240
0.99301239 0.00000000 0.98398032
0.00000000 0.98514837 0.97835426
0.00000000 0.98509005 0.97834493
0.00000000 0.98503134 0.97833561
0.00000000 0.98490300 0.97831548
0.00000000 0.98461423 0.97827130
0.00000000 0.98394336 0.97817412
0.00000000 0.98227479 0.97795916
0.97747782 0.97747782 0.97747782
0.99251868 0.95836012 0.97637090
0.00000000 0.99215400 0.93693066
0.00000000 0.99215083 0.93689298
0.00000000 0.99214766 0.93685531
0.00000000 0.99214082 0.93677390
0.00000000 0.99212579 0.93659517
0.00000000 0.99209266 0.93620150
0.00000000 0.99201904 0.93532820
0.00000000 0.99185241 0.93336005
0.99112133 0.99145822 0.92876344
0.00000000 0.00000000 0.99217598
0.00000000 0.00000000 0.99217571
0.00000000 0.00000000 0.99217544
0.00000000 0.00000000 0.99217486
0.00000000 0.00000000 0.99217359
0.76727101 0.00000000 0.99217081
0.95345166 0.00000000 0.99216470
0.99011116 0.00000000 0.99215130
0.99325101 0.00000000 0.99212179
0.00000000 0.00000000 0.99217077
0.00000000 0.00000000 0.99217050
0.00000000 0.00000000 0.99217023
0.00000000 0.00000000 0.99216965
0.00000000 0.00000000 0.99216838
0.75416989 0.00000000 0.99216559
0.95232478 0.00000000 0.99215948
0.99009028 0.00000000 0.99214606
0.99324228 0.00000000 0.99211650
0.00000000 0.00000000 0.99216556
0.00000000 0.00000000 0.99216529
0.00000000 0.00000000 0.99216502
0.00000000 0.00000000 0.99216443
0.00000000 0.00000000 0.99216316
0.73959038 0.00000000 0.99216037
0.95116430 0.00000000 0.99215425
0.99006931 0.00000000 0.99214081
0.99323355 0.00000000 0.99211121
0.00000000 0.00000000 0.99215428
0.00000000 0.00000000 0.99215401
0.00000000 0.00000000 0.99215374
0.00000000 0.00000000 0.99215315
0.00000000 0.00000000 0.99215187
0.70141444 0.00000000 0.99214907
0.94853331 0.00000000 0.99214293
0.99002362 0.00000000 0.99212945
0.99321462 0.00000000 0.99209976
0.00000000 0.00000000 0.99212946
0.00000000 0.00000000 0.99212919
0.00000000 0.00000000 0.99212892
0.00000000 0.00000000 0.99212833
0.00000000 0.00000000 0.99212704
0.55211952 0.00000000 0.99212422
0.94210247 0.00000000 0.99211804
0.98990455 0.00000000 0.99210446
0.99317281 0.00000000 0.99207456
0.00000000 0.00000000 0.99207452
0.00000000 0.00000000 0.99207425
0.00000000 0.00000000 0.99207397
0.00000000 0.00000000 0.99207337
0.00000000 0.00000000 0.99207207
0.00000000 0.00000000 0.99206920
0.92385208 0.00000000 0.99206292
0.98941849 0.00000000 0.99204914
0.99307956 0.00000000 0.99201877
0.00000000 0.02805679 0.99195123
0.00000000 0.00000000 0.99195094
0.00000000 0.00000000 0.99195065
0.00000000 0.00000000 0.99195004
0.00000000 0.00000000 0.99194868
0.00000000 0.00000000 0.99194572
0.84096988 0.00000000 0.99193922
0.98696798 0.00000000 0.99192496
0.99286654 0.00000000 0.99189352
0.00000000 0.97058264 0.99166558
0.00000000 0.97041659 0.99166527
0.00000000 0.97024954 0.99166496
0.00000000 0.96988473 0.99166429
0.00000000 0.96906546 0.99166283
0.00000000 0.96716862 0.99165962
0.00000000 0.96246526 0.99165259
0.96928646 0.94875285 0.99163714
0.99235093 0.88434494 0.99160308
0.00000000 0.99167728 0.99094781
0.00000000 0.99167367 0.99094743
0.00000000 0.99167005 0.99094705
0.00000000 0.99166224 0.99094624
0.00000000 0.99164507 0.99094445
0.00000000 0.99160720 0.99094054
0.00000000 0.99152285 0.99093195
0.00000000 0.99133097 0.99091308
0.99087140 0.99087140 0.99087140
