Clog3_to_BT601_PAL.cube
TITLE "Clog3_to_BT601_PAL"
LUT_3D_SIZE 33
# Clog3 to BT601 PAL by Francesco Bucciantini
0.00000000 0.00000000 0.00000000
0.00000000 0.00000000 0.00000000
0.02895391 0.00000000 0.00000000
0.15696226 0.00000000 0.00000000
0.22944999 0.00000000 0.00000000
0.28624196 0.00000000 0.00000000
0.33995446 0.00000000 0.00000000
0.39603296 0.00000000 0.00000000
0.45498542 0.00000000 0.00000000
0.51129844 0.00000000 0.00000000
0.56298391 0.00000000 0.00000000
0.61069181 0.00000000 0.00000000
0.65487686 0.00000000 0.00000000
0.69586097 0.00000000 0.00000000
0.73387282 0.00000000 0.00000000
0.76907399 0.00000000 0.00000000
0.80157679 0.00000000 0.00000000
0.83145672 0.00000000 0.00000000
0.85876142 0.00000000 0.00000000
0.88351725 0.00000000 0.00000000
0.90573412 0.00000000 0.00000000
0.92540917 0.00000000 0.00000000
0.94252956 0.00000000 0.00000000
0.95707466 0.00000000 0.00000000
0.96901766 0.00000000 0.00000000
0.97832692 0.00000000 0.00000000
0.98496696 0.00000000 0.00000000
0.98889929 0.00000000 0.00000000
0.99023301 0.00000000 0.00000000
0.99094218 0.00000000 0.00000000
0.99165090 0.00000000 0.00000000
0.99235925 0.00000000 0.00000000
0.99306730 0.00000000 0.00000000
0.00000000 0.00000000 0.00000000
0.00000000 0.00000000 0.00000000
0.00000000 0.00000000 0.00000000
0.09278618 0.00000000 0.00000000
0.18571917 0.00000000 0.00000000
0.25122243 0.00000000 0.00000000
0.31054807 0.00000000 0.00000000
0.37090272 0.00000000 0.00000000
0.43347310 0.00000000 0.00000000
0.49523042 0.00000000 0.00000000
0.55092002 0.00000000 0.00000000
0.60157695 0.00000000 0.00000000
0.64796423 0.00000000 0.00000000
0.69060953 0.00000000 0.00000000
0.72988352 0.00000000 0.00000000
0.76604841 0.00000000 0.00000000
0.79928938 0.00000000 0.00000000
0.82973563 0.00000000 0.00000000
0.85747493 0.00000000 0.00000000
0.88256397 0.00000000 0.00000000
0.90503576 0.00000000 0.00000000
0.92490522 0.00000000 0.00000000
0.94217320 0.00000000 0.00000000
0.95682967 0.00000000 0.00000000
0.96885609 0.00000000 0.00000000
0.97822722 0.00000000 0.00000000
0.98491259 0.00000000 0.00000000
0.98887760 0.00000000 0.00000000
0.99022809 0.00000000 0.00000000
0.99093815 0.00000000 0.00000000
0.99164759 0.00000000 0.00000000
0.99235653 0.00000000 0.00000000
0.99306506 0.00000000 0.00000000
0.00000000 0.00000000 0.00000000
0.00000000 0.00000000 0.00000000
0.00000000 0.00000000 0.00000000
0.02424553 0.00000000 0.00000000
0.14237122 0.00000000 0.00000000
0.21884532 0.00000000 0.00000000
0.28428304 0.00000000 0.00000000
0.34894083 0.00000000 0.00000000
0.41475852 0.00000000 0.00000000
0.48094994 0.00000000 0.00000000
0.54036826 0.00000000 0.00000000
0.59370087 0.00000000 0.00000000
0.64204701 0.00000000 0.00000000
0.68614737 0.00000000 0.00000000
0.72651360 0.00000000 0.00000000
0.76350453 0.00000000 0.00000000
0.79737338 0.00000000 0.00000000
0.82829837 0.00000000 0.00000000
0.85640325 0.00000000 0.00000000
0.88177144 0.00000000 0.00000000
0.90445611 0.00000000 0.00000000
0.92448746 0.00000000 0.00000000
0.94187808 0.00000000 0.00000000
0.95662694 0.00000000 0.00000000
0.96872244 0.00000000 0.00000000
0.97814476 0.00000000 0.00000000
0.98486759 0.00000000 0.00000000
0.98885958 0.00000000 0.00000000
0.99022405 0.00000000 0.00000000
0.99093483 0.00000000 0.00000000
0.99164486 0.00000000 0.00000000
0.99235429 0.00000000 0.00000000
0.99306322 0.00000000 0.00000000
0.00000000 0.07596876 0.00000000
0.00000000 0.05163490 0.00000000
0.00000000 0.03163059 0.00000000
0.00000000 0.01518551 0.00000000
0.09782093 0.00062130 0.00000000
0.18884116 0.00000000 0.00000000
0.26091581 0.00000000 0.00000000
0.32984783 0.00000000 0.00000000
0.39872524 0.00000000 0.00000000
0.46838511 0.00000000 0.00000000
0.53121899 0.00000000 0.00000000
0.58694545 0.00000000 0.00000000
0.63701350 0.00000000 0.00000000
0.68237582 0.00000000 0.00000000
0.72367952 0.00000000 0.00000000
0.76137364 0.00000000 0.00000000
0.79577354 0.00000000 0.00000000
0.82710136 0.00000000 0.00000000
0.85551254 0.00000000 0.00000000
0.88111384 0.00000000 0.00000000
0.90397578 0.00000000 0.00000000
0.92414167 0.00000000 0.00000000
0.94163400 0.00000000 0.00000000
0.95645937 0.00000000 0.00000000
0.96861202 0.00000000 0.00000000
0.97807664 0.00000000 0.00000000
0.98483040 0.00000000 0.00000000
0.98884466 0.00000000 0.00000000
0.99022073 0.00000000 0.00000000
0.99093210 0.00000000 0.00000000
0.99164262 0.00000000 0.00000000
0.99235245 0.00000000 0.00000000
0.99306171 0.00000000 0.00000000
0.00000000 0.16085489 0.00000000
0.00000000 0.14465801 0.00000000
0.00000000 0.13028345 0.00000000
0.00000000 0.11758354 0.00000000
0.04844743 0.10552265 0.00000000
0.15864229 0.09252508 0.00000000
0.23855084 0.07627428 0.00000000
0.31202577 0.05630060 0.00000000
0.38397913 0.03200398 0.00000000
0.45655893 0.00244882 0.00000000
0.52272468 0.00000000 0.00000000
0.58073572 0.00000000 0.00000000
0.63242093 0.00000000 0.00000000
0.67895423 0.00000000 0.00000000
0.72111978 0.00000000 0.00000000
0.75945574 0.00000000 0.00000000
0.79433760 0.00000000 0.00000000
0.82602935 0.00000000 0.00000000
0.85471628 0.00000000 0.00000000
0.88052681 0.00000000 0.00000000
0.90354750 0.00000000 0.00000000
0.92383361 0.00000000 0.00000000
0.94141672 0.00000000 0.00000000
0.95631028 0.00000000 0.00000000
0.96851381 0.00000000 0.00000000
0.97801605 0.00000000 0.00000000
0.98479731 0.00000000 0.00000000
0.98883135 0.00000000 0.00000000
0.99021778 0.00000000 0.00000000
0.99092967 0.00000000 0.00000000
0.99164063 0.00000000 0.00000000
0.99235081 0.00000000 0.00000000
0.99306036 0.00000000 0.00000000
0.00000000 0.22059795 0.00000000
0.00000000 0.20820467 0.00000000
0.00000000 0.19753881 0.00000000
0.00000000 0.18840592 0.00000000
0.00000000 0.18001061 0.00000000
0.12334299 0.17129615 0.00000000
0.21421355 0.16103831 0.00000000
0.29320856 0.14785157 0.00000000
0.36866386 0.13054774 0.00000000
0.44400289 0.10706741 0.00000000
0.51383214 0.07311252 0.00000000
0.57429963 0.02937958 0.00000000
0.62769597 0.00000000 0.00000000
0.67545360 0.00000000 0.00000000
0.71851217 0.00000000 0.00000000
0.75750854 0.00000000 0.00000000
0.79288360 0.00000000 0.00000000
0.82494616 0.00000000 0.00000000
0.85391307 0.00000000 0.00000000
0.87993547 0.00000000 0.00000000
0.90311654 0.00000000 0.00000000
0.92352391 0.00000000 0.00000000
0.94119842 0.00000000 0.00000000
0.95616056 0.00000000 0.00000000
0.96841522 0.00000000 0.00000000
0.97795524 0.00000000 0.00000000
0.98476409 0.00000000 0.00000000
0.98881796 0.00000000 0.00000000
0.99021483 0.00000000 0.00000000
0.99092725 0.00000000 0.00000000
0.99163864 0.00000000 0.00000000
0.99234918 0.00000000 0.00000000
0.99305902 0.00000000 0.00000000
0.00000000 0.27471256 0.00000000
0.00000000 0.26454927 0.00000000
0.00000000 0.25592646 0.00000000
0.00000000 0.24864118 0.00000000
0.00000000 0.24202964 0.00000000
0.07272147 0.23525882 0.00000000
0.18365090 0.22741706 0.00000000
0.27057063 0.21755618 0.00000000
0.35062364 0.20503022 0.00000000
0.42908112 0.18888670 0.00000000
0.50328161 0.16761865 0.00000000
0.56675043 0.13855947 0.00000000
0.62219963 0.09593607 0.00000000
0.67140665 0.03169085 0.00000000
0.71551186 0.00000000 0.00000000
0.75527633 0.00000000 0.00000000
0.79122161 0.00000000 0.00000000
0.82371087 0.00000000 0.00000000
0.85299875 0.00000000 0.00000000
0.87926331 0.00000000 0.00000000
0.90262727 0.00000000 0.00000000
0.92317263 0.00000000 0.00000000
0.94095099 0.00000000 0.00000000
0.95599096 0.00000000 0.00000000
0.96830357 0.00000000 0.00000000
0.97788638 0.00000000 0.00000000
0.98472645 0.00000000 0.00000000
0.98880277 0.00000000 0.00000000
0.99021150 0.00000000 0.00000000
0.99092452 0.00000000 0.00000000
0.99163640 0.00000000 0.00000000
0.99234734 0.00000000 0.00000000
0.99305751 0.00000000 0.00000000
0.00000000 0.32976915 0.00000000
0.00000000 0.32121571 0.00000000
0.00000000 0.31402135 0.00000000
0.00000000 0.30799024 0.00000000
0.00000000 0.30255620 0.00000000
0.00409700 0.29703175 0.00000000
0.13990993 0.29068711 0.00000000
0.24051290 0.28279486 0.00000000
0.32740967 0.27291716 0.00000000
0.41019790 0.26045151 0.00000000
0.48961962 0.24453653 0.00000000
0.55711666 0.22387082 0.00000000
0.61525806 0.19631672 0.00000000
0.66633457 0.15784204 0.00000000
0.71177324 0.09847417 0.00000000
0.75250721 0.00345973 0.00000000
0.78916702 0.00000000 0.00000000
0.82218797 0.00000000 0.00000000
0.85187403 0.00000000 0.00000000
0.87843793 0.00000000 0.00000000
0.90202729 0.00000000 0.00000000
0.92274233 0.00000000 0.00000000
0.94064817 0.00000000 0.00000000
0.95578352 0.00000000 0.00000000
0.96816707 0.00000000 0.00000000
0.97780219 0.00000000 0.00000000
0.98468042 0.00000000 0.00000000
0.98878414 0.00000000 0.00000000
0.99020744 0.00000000 0.00000000
0.99092119 0.00000000 0.00000000
0.99163367 0.00000000 0.00000000
0.99234510 0.00000000 0.00000000
0.99305567 0.00000000 0.00000000
0.00000000 0.38684926 0.00000000
0.00000000 0.37952954 0.00000000
0.00000000 0.37340805 0.00000000
0.00000000 0.36830212 0.00000000
0.00000000 0.36372255 0.00000000
0.00000000 0.35908773 0.00000000
0.06802030 0.35379172 0.00000000
0.19886589 0.34724562 0.00000000
0.29690153 0.33912101 0.00000000
0.38600588 0.32898269 0.00000000
0.47160737 0.31623995 0.00000000
0.54466334 0.30006395 0.00000000
0.60640668 0.27923639 0.00000000
0.65993065 0.25183893 0.00000000
0.70708765 0.21450385 0.00000000
0.74905616 0.16005193 0.00000000
0.78661763 0.06487298 0.00000000
0.82030480 0.00000000 0.00000000
0.85048701 0.00000000 0.00000000
0.87742224 0.00000000 0.00000000
0.90129024 0.00000000 0.00000000
0.92221446 0.00000000 0.00000000
0.94027707 0.00000000 0.00000000
0.95552950 0.00000000 0.00000000
0.96800001 0.00000000 0.00000000
0.97769918 0.00000000 0.00000000
0.98462406 0.00000000 0.00000000
0.98876126 0.00000000 0.00000000
0.99020250 0.00000000 0.00000000
0.99091714 0.00000000 0.00000000
0.99163034 0.00000000 0.00000000
0.99234237 0.00000000 0.00000000
0.99305343 0.00000000 0.00000000
0.00000000 0.44675495 0.00000000
0.00000000 0.44044780 0.00000000
0.00000000 0.43517004 0.00000000
0.00000000 0.43078310 0.00000000
0.00000000 0.42686049 0.00000000
0.00000000 0.42290250 0.00000000
0.00000000 0.41839494 0.00000000
0.13580874 0.41284625 0.00000000
0.25539477 0.40599593 0.00000000
0.35442728 0.39750673 0.00000000
0.44725815 0.38693483 0.00000000
0.52828475 0.37368319 0.00000000
0.59497728 0.35692461 0.00000000
0.65176820 0.33546467 0.00000000
0.70117196 0.30747247 0.00000000
0.74473027 0.26987079 0.00000000
0.78343955 0.21661316 0.00000000
0.81796729 0.13126063 0.00000000
0.84877116 0.00000000 0.00000000
0.87616913 0.00000000 0.00000000
0.90038284 0.00000000 0.00000000
0.92156566 0.00000000 0.00000000
0.93982155 0.00000000 0.00000000
0.95521800 0.00000000 0.00000000
0.96779526 0.00000000 0.00000000
0.97757295 0.00000000 0.00000000
0.98455496 0.00000000 0.00000000
0.98873312 0.00000000 0.00000000
0.99019649 0.00000000 0.00000000
0.99091221 0.00000000 0.00000000
0.99162629 0.00000000 0.00000000
0.99233904 0.00000000 0.00000000
0.99305070 0.00000000 0.00000000
0.00000000 0.50473896 0.00000000
0.00000000 0.50003951 0.00000000
0.00000000 0.49608899 0.00000000
0.00000000 0.49278022 0.00000000
0.00000000 0.48980235 0.00000000
0.00000000 0.48677910 0.00000000
0.00000000 0.48331334 0.00000000
0.02225730 0.47901379 0.00000000
0.19506622 0.47365485 0.00000000
0.31195710 0.46693581 0.00000000
0.41417360 0.45844751 0.00000000
0.50622354 0.44761851 0.00000000
0.57996907 0.43371538 0.00000000
0.64123475 0.41612792 0.00000000
0.69363254 0.39369122 0.00000000
0.73926776 0.36459070 0.00000000
0.77945451 0.32586310 0.00000000
0.81505209 0.27197540 0.00000000
0.84664032 0.18954454 0.00000000
0.87461813 0.02079440 0.00000000
0.89926269 0.00000000 0.00000000
0.92076641 0.00000000 0.00000000
0.93926129 0.00000000 0.00000000
0.95483533 0.00000000 0.00000000
0.96754392 0.00000000 0.00000000
0.97741803 0.00000000 0.00000000
0.98447009 0.00000000 0.00000000
0.98869841 0.00000000 0.00000000
0.99018916 0.00000000 0.00000000
0.99090620 0.00000000 0.00000000
0.99162136 0.00000000 0.00000000
0.99233500 0.00000000 0.00000000
0.99304738 0.00000000 0.00000000
0.00000000 0.55767027 0.00000000
0.00000000 0.55413791 0.00000000
0.00000000 0.55118176 0.00000000
0.00000000 0.54871520 0.00000000
0.00000000 0.54650266 0.00000000
0.00000000 0.54426355 0.00000000
0.00000000 0.54170560 0.00000000
0.00000000 0.53854552 0.00000000
0.09010465 0.53462750 0.00000000
0.25166224 0.52974772 0.00000000
0.36997781 0.52363534 0.00000000
0.47546973 0.51592309 0.00000000
0.55980155 0.50610045 0.00000000
0.62741567 0.49343507 0.00000000
0.68390500 0.47683320 0.00000000
0.73230465 0.45457272 0.00000000
0.77442045 0.42416642 0.00000000
0.81139483 0.38368683 0.00000000
0.84398132 0.32801793 0.00000000
0.87269078 0.24518146 0.00000000
0.89787529 0.08613312 0.00000000
0.91977901 0.00000000 0.00000000
0.93857052 0.00000000 0.00000000
0.95436420 0.00000000 0.00000000
0.96723477 0.00000000 0.00000000
0.97722753 0.00000000 0.00000000
0.98436565 0.00000000 0.00000000
0.98865548 0.00000000 0.00000000
0.99018022 0.00000000 0.00000000
0.99089887 0.00000000 0.00000000
0.99161536 0.00000000 0.00000000
0.99233007 0.00000000 0.00000000
0.99304333 0.00000000 0.00000000
0.00000000 0.60632675 0.00000000
0.00000000 0.60365550 0.00000000
0.00000000 0.60142766 0.00000000
0.00000000 0.59957418 0.00000000
0.00000000 0.59791575 0.00000000
0.00000000 0.59624143 0.00000000
0.00000000 0.59433369 0.00000000
0.00000000 0.59198423 0.00000000
0.00000000 0.58908260 0.00000000
0.15438307 0.58548636 0.00000000
0.30817146 0.58100954 0.00000000
0.43045905 0.57540541 0.00000000
0.53179278 0.56834025 0.00000000
0.60887270 0.55935165 0.00000000
0.67114796 0.54777902 0.00000000
0.72331923 0.53264140 0.00000000
0.76800064 0.51240625 0.00000000
0.80677206 0.48451038 0.00000000
0.84064313 0.44423245 0.00000000
0.87028385 0.38593010 0.00000000
0.89614979 0.30071728 0.00000000
0.91855492 0.14942193 0.00000000
0.93771627 0.00000000 0.00000000
0.95378263 0.00000000 0.00000000
0.96685360 0.00000000 0.00000000
0.97699275 0.00000000 0.00000000
0.98423678 0.00000000 0.00000000
0.98860220 0.00000000 0.00000000
0.99016931 0.00000000 0.00000000
0.99088994 0.00000000 0.00000000
0.99160804 0.00000000 0.00000000
0.99232407 0.00000000 0.00000000
0.99303841 0.00000000 0.00000000
0.00000000 0.65124719 0.00000000
0.00000000 0.64921986 0.00000000
0.00000000 0.64753359 0.00000000
0.00000000 0.64613382 0.00000000
0.00000000 0.64488379 0.00000000
0.00000000 0.64362412 0.00000000
0.00000000 0.64219170 0.00000000
0.00000000 0.64043183 0.00000000
0.00000000 0.63826478 0.00000000
0.00000000 0.63558888 0.00000000
0.21243252 0.63227314 0.00000000
0.36606133 0.62814668 0.00000000
0.49090161 0.62298305 0.00000000
0.58318118 0.61647648 0.00000000
0.65404188 0.60820411 0.00000000
0.71153426 0.59756362 0.00000000
0.75971218 0.58366397 0.00000000
0.80087254 0.56512073 0.00000000
0.83642011 0.53963680 0.00000000
0.86725929 0.50303295 0.00000000
0.89399275 0.44657407 0.00000000
0.91703084 0.35760000 0.00000000
0.93665594 0.20651237 0.00000000
0.95306239 0.00000000 0.00000000
0.96638224 0.00000000 0.00000000
0.97670256 0.00000000 0.00000000
0.98407731 0.00000000 0.00000000
0.98853582 0.00000000 0.00000000
0.99015601 0.00000000 0.00000000
0.99087905 0.00000000 0.00000000
0.99159911 0.00000000 0.00000000
0.99231675 0.00000000 0.00000000
0.99303241 0.00000000 0.00000000
0.00000000 0.69281081 0.00000000
0.00000000 0.69126973 0.00000000
0.00000000 0.68999061 0.00000000
0.00000000 0.68893069 0.00000000
0.00000000 0.68798560 0.00000000
0.00000000 0.68703460 0.00000000
0.00000000 0.68595486 0.00000000
0.00000000 0.68463075 0.00000000
0.00000000 0.68300402 0.00000000
0.00000000 0.68100101 0.00000000
0.00260072 0.67852784 0.00000000
0.26880177 0.67546358 0.00000000
0.42635287 0.67165054 0.00000000
0.54583084 0.66687992 0.00000000
0.63037196 0.66086998 0.00000000
0.69573257 0.65323162 0.00000000
0.74883554 0.64341152 0.00000000
0.79324945 0.63059321 0.00000000
0.83102531 0.61351275 0.00000000
0.86342874 0.59008451 0.00000000
0.89127891 0.55654697 0.00000000
0.91512305 0.50515408 0.00000000
0.93533377 0.41683564 0.00000000
0.95216683 0.26192147 0.00000000
0.96579722 0.00000000 0.00000000
0.97634264 0.00000000 0.00000000
0.98387926 0.00000000 0.00000000
0.98845271 0.00000000 0.00000000
0.99013975 0.00000000 0.00000000
0.99086575 0.00000000 0.00000000
0.99158823 0.00000000 0.00000000
0.99230783 0.00000000 0.00000000
0.99302510 0.00000000 0.00000000
0.00000000 0.73128656 0.00000000
0.00000000 0.73011522 0.00000000
0.00000000 0.72914464 0.00000000
0.00000000 0.72834151 0.00000000
0.00000000 0.72762626 0.00000000
0.00000000 0.72690735 0.00000000
0.00000000 0.72609213 0.00000000
0.00000000 0.72509386 0.00000000
0.00000000 0.72386965 0.00000000
0.00000000 0.72236560 0.00000000
0.00000000 0.72051362 0.00000000
0.06620018 0.71822687 0.00000000
0.32560375 0.71539351 0.00000000
0.48706855 0.71186774 0.00000000
0.59604815 0.70745648 0.00000000
0.67387651 0.70189934 0.00000000
0.73424427 0.69483686 0.00000000
0.78323635 0.68575833 0.00000000
0.82404604 0.67391119 0.00000000
0.85852869 0.65813304 0.00000000
0.88783678 0.63651279 0.00000000
0.91271892 0.60562428 0.00000000
0.93367575 0.55848623 0.00000000
0.95104780 0.47751526 0.00000000
0.96506793 0.31773941 0.00000000
0.97589436 0.00000000 0.00000000
0.98363220 0.00000000 0.00000000
0.98834807 0.00000000 0.00000000
0.99011988 0.00000000 0.00000000
0.99084951 0.00000000 0.00000000
0.99157494 0.00000000 0.00000000
0.99229695 0.00000000 0.00000000
0.99301618 0.00000000 0.00000000
0.00000000 0.76686495 0.00000000
0.00000000 0.76597613 0.00000000
0.00000000 0.76524064 0.00000000
0.00000000 0.76463273 0.00000000
0.00000000 0.76409186 0.00000000
0.00000000 0.76354872 0.00000000
0.00000000 0.76293342 0.00000000
0.00000000 0.76218083 0.00000000
0.00000000 0.76125921 0.00000000
0.00000000 0.76012892 0.00000000
0.00000000 0.75874017 0.00000000
0.00000000 0.75703000 0.00000000
0.13419719 0.75491811 0.00000000
0.38412940 0.75230108 0.00000000
0.54234080 0.74904403 0.00000000
0.64222135 0.74496829 0.00000000
0.71405493 0.73983287 0.00000000
0.76978922 0.73330504 0.00000000
0.81486565 0.72491216 0.00000000
0.85217923 0.71395808 0.00000000
0.88342580 0.69936869 0.00000000
0.90966369 0.67938174 0.00000000
0.93158184 0.65085015 0.00000000
0.94964099 0.60740801 0.00000000
0.96415383 0.53326255 0.00000000
0.97533316 0.37524035 0.00000000
0.98332238 0.00000000 0.00000000
0.98821544 0.00000000 0.00000000
0.99009556 0.00000000 0.00000000
0.99082965 0.00000000 0.00000000
0.99155871 0.00000000 0.00000000
0.99228367 0.00000000 0.00000000
0.99300530 0.00000000 0.00000000
0.00000000 0.79967947 0.00000000
0.00000000 0.79900718 0.00000000
0.00000000 0.79845147 0.00000000
0.00000000 0.79799257 0.00000000
0.00000000 0.79758459 0.00000000
0.00000000 0.79717521 0.00000000
0.00000000 0.79671179 0.00000000
0.00000000 0.79614550 0.00000000
0.00000000 0.79545282 0.00000000
0.00000000 0.79460448 0.00000000
0.00000000 0.79356395 0.00000000
0.00000000 0.79228532 0.00000000
0.00000000 0.79071049 0.00000000
0.19357890 0.78876537 0.00000000
0.44530650 0.78635446 0.00000000
0.59284737 0.78335309 0.00000000
0.68481600 0.77959610 0.00000000
0.75116240 0.77486049 0.00000000
0.80251662 0.76883823 0.00000000
0.84381121 0.76109146 0.00000000
0.87769789 0.75097511 0.00000000
0.90573937 0.73749395 0.00000000
0.92891392 0.71901641 0.00000000
0.94785897 0.69263509 0.00000000
0.96300038 0.65249669 0.00000000
0.97462621 0.58423388 0.00000000
0.98293140 0.43535225 0.00000000
0.98804600 0.00000000 0.00000000
0.99006575 0.00000000 0.00000000
0.99080535 0.00000000 0.00000000
0.99153887 0.00000000 0.00000000
0.99226745 0.00000000 0.00000000
0.99299203 0.00000000 0.00000000
0.00000000 0.82982140 0.00000000
0.00000000 0.82931531 0.00000000
0.00000000 0.82889735 0.00000000
0.00000000 0.82855246 0.00000000
0.00000000 0.82824602 0.00000000
0.00000000 0.82793872 0.00000000
0.00000000 0.82759107 0.00000000
0.00000000 0.82716657 0.00000000
0.00000000 0.82664779 0.00000000
0.00000000 0.82601316 0.00000000
0.00000000 0.82523581 0.00000000
0.00000000 0.82428220 0.00000000
0.00000000 0.82311015 0.00000000
0.00000000 0.82166627 0.00000000
0.25020403 0.81988239 0.00000000
0.50445953 0.81767057 0.00000000
0.63927267 0.81491595 0.00000000
0.72416078 0.81146614 0.00000000
0.78537931 0.80711519 0.00000000
0.83252932 0.80157828 0.00000000
0.87012979 0.79445006 0.00000000
0.90062915 0.78513269 0.00000000
0.92547639 0.77270304 0.00000000
0.94558028 0.75564730 0.00000000
0.96153285 0.73126970 0.00000000
0.97372886 0.69415738 0.00000000
0.98243420 0.63111855 0.00000000
0.98782756 0.49494413 0.00000000
0.99002915 0.00000000 0.00000000
0.99077557 0.00000000 0.00000000
0.99151459 0.00000000 0.00000000
0.99224762 0.00000000 0.00000000
0.99297582 0.00000000 0.00000000
0.00000000 0.85735028 0.00000000
0.00000000 0.85697179 0.00000000
0.00000000 0.85665943 0.00000000
0.00000000 0.85640183 0.00000000
0.00000000 0.85617308 0.00000000
0.00000000 0.85594378 0.00000000
0.00000000 0.85568451 0.00000000
0.00000000 0.85536812 0.00000000
0.00000000 0.85498175 0.00000000
0.00000000 0.85450951 0.00000000
0.00000000 0.85393172 0.00000000
0.00000000 0.85322389 0.00000000
0.00000000 0.85235536 0.00000000
0.00000000 0.85128761 0.00000000
0.00000000 0.84997181 0.00000000
0.30669419 0.84834555 0.00000000
0.55819153 0.84632824 0.00000000
0.68209335 0.84381446 0.00000000
0.76048863 0.84066417 0.00000000
0.81683156 0.83668779 0.00000000
0.85989549 0.83162265 0.00000000
0.89385462 0.82509430 0.00000000
0.92098342 0.81654939 0.00000000
0.94263167 0.80513209 0.00000000
0.95964649 0.78943703 0.00000000
0.97257914 0.76695995 0.00000000
0.98179610 0.73267694 0.00000000
0.98754298 0.67439663 0.00000000
0.98998344 0.54915682 0.00000000
0.99073901 0.00000000 0.00000000
0.99148483 0.00000000 0.00000000
0.99222335 0.00000000 0.00000000
0.99295600 0.00000000 0.00000000
0.00000000 0.88230149 0.00000000
0.00000000 0.88202087 0.00000000
0.00000000 0.88178942 0.00000000
0.00000000 0.88159863 0.00000000
0.00000000 0.88142927 0.00000000
0.00000000 0.88125958 0.00000000
0.00000000 0.88106779 0.00000000
0.00000000 0.88083386 0.00000000
0.00000000 0.88054836 0.00000000
0.00000000 0.88019966 0.00000000
0.00000000 0.87977340 0.00000000
0.00000000 0.87925177 0.00000000
0.00000000 0.87861258 0.00000000
0.00000000 0.87782806 0.00000000
0.00000000 0.87686327 0.00000000
0.00000000 0.87567385 0.00000000
0.36453415 0.87420305 0.00000000
0.60739385 0.87237749 0.00000000
0.72164567 0.87010098 0.00000000
0.79396385 0.86724551 0.00000000
0.84560460 0.86363741 0.00000000
0.88465704 0.85903549 0.00000000
0.91500078 0.85309501 0.00000000
0.93875814 0.84530527 0.00000000
0.95719047 0.83487427 0.00000000
0.97108913 0.82049843 0.00000000
0.98096808 0.79985056 0.00000000
0.98716766 0.76825862 0.00000000
0.98991455 0.71440695 0.00000000
0.99069403 0.59882982 0.00000000
0.99144829 0.04640923 0.00000000
0.99219361 0.00000000 0.00000000
0.99293174 0.00000000 0.00000000
0.00000000 0.90469187 0.00000000
0.00000000 0.90448616 0.00000000
0.00000000 0.90431657 0.00000000
0.00000000 0.90417683 0.00000000
0.00000000 0.90405283 0.00000000
0.00000000 0.90392862 0.00000000
0.00000000 0.90378829 0.00000000
0.00000000 0.90361718 0.00000000
0.00000000 0.90340845 0.00000000
0.00000000 0.90315367 0.00000000
0.00000000 0.90284245 0.00000000
0.00000000 0.90246192 0.00000000
0.00000000 0.90199614 0.00000000
0.00000000 0.90142521 0.00000000
0.00000000 0.90072422 0.00000000
0.00000000 0.89986176 0.00000000
0.00000000 0.89879793 0.00000000
0.42475253 0.89748157 0.00000000
0.65267833 0.89584640 0.00000000
0.75816798 0.89380535 0.00000000
0.82470048 0.89124227 0.00000000
0.87175349 0.88799910 0.00000000
0.90683576 0.88385565 0.00000000
0.93356938 0.87849618 0.00000000
0.95394066 0.87145129 0.00000000
0.96913060 0.86199048 0.00000000
0.97987919 0.84890723 0.00000000
0.98666566 0.83004108 0.00000000
0.98980580 0.80104517 0.00000000
0.99063854 0.75138976 0.00000000
0.99140334 0.64457978 0.00000000
