Clog3_to_BT601_PAL.cube
TITLE "Clog3_to_BT601_PAL"
LUT_3D_SIZE 5
# Clog3 to BT601 PAL by Francesco Bucciantini
0.00000000 0.00000000 0.00000000
0.45498542 0.00000000 0.00000000
0.80157679 0.00000000 0.00000000
0.96901766 0.00000000 0.00000000
0.99306730 0.00000000 0.00000000
0.00000000 0.38684926 0.00000000
0.29690153 0.33912101 0.00000000
0.78661763 0.06487298 0.00000000
0.96800001 0.00000000 0.00000000
0.99305343 0.00000000 0.00000000
0.00000000 0.76686495 0.00000000
0.00000000 0.76125921 0.00000000
0.71405493 0.73983287 0.00000000
0.96415383 0.53326255 0.00000000
0.99300530 0.00000000 0.00000000
0.00000000 0.95646954 0.00000000
0.00000000 0.95601899 0.00000000
0.00000000 0.95442294 0.00000000
0.93468901 0.94565357 0.00000000
0.99276524 0.84562523 0.00000000
0.00000000 0.99232995 0.00000000
0.00000000 0.99232500 0.00000000
0.00000000 0.99230793 0.00000000
0.00000000 0.99222497 0.00000000
0.99132110 0.99179836 0.00000000
0.00000000 0.00000000 0.37989564
0.42978442 0.00000000 0.37505194
0.79890771 0.00000000 0.35790629
0.96882934 0.00000000 0.26162197
0.99306469 0.00000000 0.00000000
0.00000000 0.31666380 0.26404128
0.25720976 0.25720976 0.25720976
0.78357127 0.00000000 0.23237953
0.96780367 0.00000000 0.05171522
0.99305081 0.00000000 0.00000000
0.00000000 0.75878578 0.00000000
0.00000000 0.75279932 0.00000000
0.70866259 0.72980169 0.00000000
0.96392677 0.49421680 0.00000000
0.99300265 0.00000000 0.00000000
0.00000000 0.95582472 0.00000000
0.00000000 0.95536565 0.00000000
0.00000000 0.95373920 0.00000000
0.93419755 0.94479625 0.00000000
0.99276241 0.84175622 0.00000000
0.00000000 0.99232288 0.00000000
0.00000000 0.99231793 0.00000000
0.00000000 0.99230083 0.00000000
0.00000000 0.99221770 0.00000000
0.99131687 0.99179018 0.00000000
0.00000000 0.00000000 0.76306996
0.32793651 0.00000000 0.76247304
0.78921257 0.00000000 0.76039745
0.96817008 0.00000000 0.74994508
0.99305571 0.00000000 0.68400143
0.00000000 0.00000000 0.75018048
0.03299606 0.00000000 0.74951963
0.77245041 0.00000000 0.74722001
0.96711627 0.00000000 0.73559728
0.99304180 0.00000000 0.66041772
0.00000000 0.72633075 0.69289367
0.00000000 0.71863261 0.69189105
0.68838856 0.68838856 0.68838856
0.96313153 0.27905820 0.67034991
0.99299352 0.00000000 0.53537780
0.00000000 0.95351137 0.00000000
0.00000000 0.95302141 0.00000000
0.00000000 0.95128465 0.00000000
0.93246878 0.94170946 0.00000000
0.99275264 0.82713006 0.00000000
0.00000000 0.99229849 0.00000000
0.00000000 0.99229350 0.00000000
0.00000000 0.99227628 0.00000000
0.00000000 0.99219258 0.00000000
0.99130228 0.99176188 0.00000000
0.00000000 0.00000000 0.95499985
0.00000000 0.00000000 0.95495062
0.72744772 0.00000000 0.95478071
0.96474846 0.00000000 0.95395472
0.99301234 0.00000000 0.94971607
0.00000000 0.00000000 0.95397279
0.00000000 0.00000000 0.95392212
0.69926154 0.00000000 0.95374724
0.96354690 0.00000000 0.95289705
0.99299826 0.00000000 0.94853184
0.00000000 0.02777781 0.95020268
0.00000000 0.00000000 0.95014664
0.52021414 0.00000000 0.94995324
0.95899375 0.00000000 0.94901260
0.99294939 0.00000000 0.94417304
0.00000000 0.93998018 0.92531098
0.00000000 0.93929856 0.92521551
0.00000000 0.93687453 0.92488578
0.92327730 0.92327730 0.92327730
0.99270545 0.70375343 0.91487177
0.00000000 0.99217917 0.00000000
0.00000000 0.99217402 0.00000000
0.00000000 0.99215622 0.00000000
0.00000000 0.99206965 0.00000000
0.99123149 0.99162306 0.00000000
0.00000000 0.00000000 0.99225323
0.00000000 0.00000000 0.99225270
0.00000000 0.00000000 0.99225087
0.93988299 0.00000000 0.99224208
0.99279687 0.00000000 0.99219963
0.00000000 0.00000000 0.99224227
0.00000000 0.00000000 0.99224173
0.00000000 0.00000000 0.99223990
0.93749299 0.00000000 0.99223108
0.99278192 0.00000000 0.99218850
0.00000000 0.00000000 0.99220429
0.00000000 0.00000000 0.99220375
0.00000000 0.00000000 0.99220190
0.92824329 0.00000000 0.99219298
0.99273001 0.00000000 0.99214995
0.00000000 0.50591408 0.99201647
0.00000000 0.47503121 0.99201590
0.00000000 0.32802563 0.99201395
0.84032871 0.00000000 0.99200456
0.99247020 0.00000000 0.99195920
0.00000000 0.99154500 0.99094861
0.00000000 0.99153885 0.99094785
0.00000000 0.99151761 0.99094522
0.00000000 0.99141403 0.99093259
0.99087140 0.99087140 0.99087140
