dvhe0509_to_BT709_v2.cube
TITLE "dvhe.05.09_to_BT709_v2"
LUT_3D_SIZE 5
# Dolby Vision, Version 1.0, dvhe.05.09 to Linear BT709 SDR 100 nits by Francesco Bucciantini (experimental v1)
0.00000000 0.00000000 0.00000000
0.00000000 0.12323046 0.00000000
0.00000000 0.28242133 0.00000000
0.00000000 0.44161220 0.00000000
0.00000000 0.60080307 0.00000000
0.14177088 0.20212533 0.31714170
0.24997674 0.25000669 0.00000499
0.12483981 0.37873243 0.00000000
0.13661567 0.50678426 0.00000000
0.00000000 0.68191523 0.00000000
0.31424285 0.41783115 0.61523748
0.17769665 0.47726657 0.54473311
0.49996007 0.50001149 0.00001656
0.48325371 0.60684765 0.00000000
0.37444333 0.74489047 0.00000000
0.48671483 0.63353697 0.91333326
0.42647633 0.66904552 0.87983386
0.10763263 0.76661031 0.66608589
0.74994340 0.75001628 0.00003595
0.85243125 0.82042987 0.00000000
0.65918680 0.84924280 1.21142903
0.62233051 0.87373747 1.19102988
0.46791529 0.94118356 1.10634150
0.27867713 1.04492617 0.67815552
0.99992674 1.00002107 0.00006380
0.00238055 0.00000000 0.24993287
0.24999508 0.00000232 0.25000423
0.37460448 0.18661870 0.00000000
0.36660903 0.39805499 0.00000000
0.33624593 0.57271264 0.00000000
0.00000000 0.25000178 0.24999300
0.25000000 0.25000000 0.25000000
0.24324058 0.36147663 0.00000000
0.23153664 0.49643991 0.00000000
0.21378362 0.64181927 0.00000000
0.32773263 0.42348312 0.62192711
0.37961261 0.44417674 0.58303767
0.49997209 0.50000803 0.25000517
0.37069785 0.62766673 0.00000000
0.45762736 0.73256213 0.00000000
0.52329421 0.62854965 0.93167885
0.53146734 0.65102080 0.89262839
0.29616854 0.74662464 0.76677793
0.74995125 0.75001402 0.25001383
0.82357868 0.83132602 0.00000000
0.69411133 0.84322027 1.22829784
0.69246904 0.86207663 1.19640904
0.58473806 0.92362897 1.12997422
0.36385767 1.03365358 0.78734936
0.99993246 1.00001943 0.25002626
0.00790704 0.00000000 0.49988478
0.22341034 0.01492246 0.50446461
0.49999155 0.00000771 0.50000727
0.68627476 0.21500374 0.00000000
0.71923786 0.45506979 0.00000000
0.00000000 0.27486256 0.46161802
0.25245730 0.24928106 0.49991947
0.49999410 0.25000240 0.50000508
0.64827609 0.37167984 0.00000000
0.66335375 0.55823230 0.00000000
0.00000000 0.50000306 0.49998798
0.24999159 0.50000214 0.49999160
0.50000000 0.50000000 0.50000000
0.49418366 0.60447610 0.22641581
0.48570679 0.72769599 0.00000000
0.43068729 0.67023925 0.88194829
0.52550448 0.66724252 0.88865601
0.62272230 0.68980246 0.84239844
0.74996948 0.75000878 0.50000447
0.66654958 0.86808035 0.05690489
0.69562444 0.85341102 1.23031179
0.73462037 0.85930299 1.21840598
0.76380050 0.89109121 1.16069202
0.51483525 1.00739882 0.98164904
0.99994576 1.00001560 0.50001090
0.01716478 0.00000000 0.74983670
0.24376712 0.00376959 0.75050008
0.44247883 0.06127063 0.76261505
0.74998803 0.00001673 0.75001030
0.96635086 0.25995319 0.00000000
0.00000000 0.27114391 0.73352487
0.25652726 0.24807263 0.74985935
0.46383920 0.26707190 0.75816955
0.74998969 0.25000643 0.75000887
0.95797033 0.38271935 0.00000000
0.00000000 0.53236127 0.68472008
0.06661961 0.52684686 0.69599582
0.50213158 0.49937807 0.74991193
0.74999354 0.50000208 0.75000556
0.91179005 0.59307903 0.27287315
0.00000000 0.75000434 0.74998297
0.24997751 0.75000374 0.74998533
0.49999272 0.75000234 0.74999082
0.75000000 0.75000000 0.75000000
0.74455733 0.85111187 0.52748244
0.50883312 0.92170369 1.12656663
0.58655923 0.92042184 1.13152293
0.74238931 0.91531826 1.14542137
0.86933407 0.93749309 1.09791690
0.99996802 1.00000920 0.75000420
0.03045981 0.00000000 0.99978861
0.25919032 0.00000000 0.99950523
0.45717943 0.04705928 1.00620478
0.67086370 0.12472336 1.01769992
0.99998450 0.00002968 1.00001334
0.00000000 0.27590425 0.98918753
0.26227443 0.24632817 0.99980513
0.47878766 0.26056760 1.00286875
0.68163996 0.29682361 1.01594445
0.99998571 0.25001222 1.00001229
0.00000000 0.54328779 0.94025945
0.02198867 0.52927481 0.96373305
0.50517667 0.49848352 0.99984349
0.70869520 0.51571593 1.01071224
0.99998852 0.50000507 1.00000987
0.00000000 0.78867903 0.91871040
0.00000000 0.78530890 0.92330560
0.38234566 0.77768515 0.93945035
0.75200014 0.74941697 0.99990774
0.99999324 0.75000195 1.00000582
0.00000000 1.00000562 0.99997796
0.24995728 1.00000518 0.99997968
0.49998227 1.00000416 0.99998368
0.74999318 1.00000245 0.99999038
1.00000000 1.00000000 1.00000000
