dvhe0509_to_BT709_v2.cube
TITLE "dvhe.05.09_to_BT709_v2"
LUT_3D_SIZE 33
# Dolby Vision, Version 1.0, dvhe.05.09 to Linear BT709 SDR 100 nits by Francesco Bucciantini (experimental v1)
0.00000000 0.00000000 0.00000000
0.01855760 0.00457146 0.00000000
0.01173040 0.01828585 0.00000000
0.00000000 0.03448268 0.00000000
0.00000000 0.04815142 0.00000000
0.00000000 0.06436482 0.00000000
0.00000000 0.08343274 0.00000000
0.00000000 0.10333160 0.00000000
0.00000000 0.12323046 0.00000000
0.00000000 0.14312932 0.00000000
0.00000000 0.16302818 0.00000000
0.00000000 0.18292703 0.00000000
0.00000000 0.20282589 0.00000000
0.00000000 0.22272475 0.00000000
0.00000000 0.24262361 0.00000000
0.00000000 0.26252247 0.00000000
0.00000000 0.28242133 0.00000000
0.00000000 0.30232019 0.00000000
0.00000000 0.32221905 0.00000000
0.00000000 0.34211791 0.00000000
0.00000000 0.36201677 0.00000000
0.00000000 0.38191563 0.00000000
0.00000000 0.40181448 0.00000000
0.00000000 0.42171334 0.00000000
0.00000000 0.44161220 0.00000000
0.00000000 0.46151106 0.00000000
0.00000000 0.48140992 0.00000000
0.00000000 0.50130878 0.00000000
0.00000000 0.52120764 0.00000000
0.00000000 0.54110650 0.00000000
0.00000000 0.56100536 0.00000000
0.00000000 0.58090422 0.00000000
0.00000000 0.60080307 0.00000000
0.00749604 0.02646854 0.02528801
0.03124777 0.03125064 0.00000021
0.04392813 0.03824964 0.00000000
0.00956967 0.05981510 0.00000000
0.02243403 0.06982655 0.00000000
0.02281753 0.08591348 0.00000000
0.01280633 0.10534549 0.00000000
0.00000000 0.12896227 0.00000000
0.00000000 0.15145110 0.00000000
0.00000000 0.16973007 0.00000000
0.00000000 0.18744012 0.00000000
0.00000000 0.20541190 0.00000000
0.00000000 0.22360700 0.00000000
0.00000000 0.24186253 0.00000000
0.00000000 0.26029009 0.00000000
0.00000000 0.27888468 0.00000000
0.00000000 0.29762131 0.00000000
0.00000000 0.31648593 0.00000000
0.00000000 0.33547491 0.00000000
0.00000000 0.35456696 0.00000000
0.00000000 0.37374534 0.00000000
0.00000000 0.39299671 0.00000000
0.00000000 0.41231038 0.00000000
0.00000000 0.43167766 0.00000000
0.00000000 0.45109140 0.00000000
0.00000000 0.47054569 0.00000000
0.00000000 0.49003560 0.00000000
0.00000000 0.50955697 0.00000000
0.00000000 0.52910626 0.00000000
0.00000000 0.54868045 0.00000000
0.00000000 0.56827695 0.00000000
0.00000000 0.58789351 0.00000000
0.00000000 0.60752818 0.00000000
0.02739114 0.04502815 0.09225548
0.00523214 0.06621141 0.03986755
0.06249109 0.06250256 0.00000085
0.08011493 0.06803002 0.00000000
0.06417260 0.08706682 0.00000000
0.02099010 0.11169020 0.00000000
0.03119361 0.12433313 0.00000000
0.04887071 0.13660257 0.00000000
0.04551645 0.15379092 0.00000000
0.02983227 0.17332055 0.00000000
0.01032171 0.19367796 0.00000000
0.00000000 0.21945670 0.00000000
0.00000000 0.24141600 0.00000000
0.00000000 0.25999395 0.00000000
0.00000000 0.27774202 0.00000000
0.00000000 0.29550568 0.00000000
0.00000000 0.31347663 0.00000000
0.00000000 0.33161409 0.00000000
0.00000000 0.34984304 0.00000000
0.00000000 0.36813425 0.00000000
0.00000000 0.38655080 0.00000000
0.00000000 0.40507629 0.00000000
0.00000000 0.42374541 0.00000000
0.00000000 0.44249510 0.00000000
0.00000000 0.46134001 0.00000000
0.00000000 0.48028087 0.00000000
0.00000000 0.49930509 0.00000000
0.00000000 0.51840217 0.00000000
0.00000000 0.53756326 0.00000000
0.00000000 0.55678089 0.00000000
0.00000000 0.57604871 0.00000000
0.00000000 0.59536131 0.00000000
0.00000000 0.61471400 0.00000000
0.04120361 0.06773440 0.13083184
0.01250251 0.08894823 0.10443886
0.02458326 0.10293009 0.01022876
0.09373715 0.09375370 0.00000133
0.11402124 0.09876811 0.00000000
0.11448231 0.11362151 0.00000000
0.06066210 0.13959596 0.00000000
0.02892114 0.15975310 0.00000000
0.05141048 0.17095875 0.00000000
0.07320321 0.18334371 0.00000000
0.07153315 0.20011101 0.00000000
0.05296070 0.21946342 0.00000000
0.03640743 0.23876196 0.00000000
0.00000000 0.26130693 0.00000000
0.00000000 0.28717863 0.00000000
0.00000000 0.30890849 0.00000000
0.00000000 0.32767153 0.00000000
0.00000000 0.34555743 0.00000000
0.00000000 0.36322839 0.00000000
0.00000000 0.38108674 0.00000000
0.00000000 0.39909055 0.00000000
0.00000000 0.41723264 0.00000000
0.00000000 0.43546693 0.00000000
0.00000000 0.45371560 0.00000000
0.00000000 0.47207517 0.00000000
0.00000000 0.49053209 0.00000000
0.00000000 0.50908316 0.00000000
0.00000000 0.52775415 0.00000000
0.00000000 0.54649231 0.00000000
0.00000000 0.56530434 0.00000000
0.00000000 0.58420072 0.00000000
0.00000000 0.60317214 0.00000000
0.00000000 0.62221042 0.00000000
0.05753648 0.09427242 0.16809382
0.03305238 0.11129763 0.14920375
0.00664882 0.13009169 0.09729086
0.05761611 0.13239965 0.00981104
0.12498507 0.12500430 0.00000186
0.14655035 0.12936751 0.00000000
0.15283115 0.14153273 0.00000000
0.11821144 0.16518874 0.00000000
0.05254718 0.19056924 0.00000000
0.04556224 0.20610519 0.00000000
0.07841454 0.21676012 0.00000000
0.10133153 0.22953490 0.00000000
0.10028057 0.24619292 0.00000000
0.08264728 0.26513017 0.00000000
0.05963139 0.28464549 0.00000000
0.03289044 0.30477449 0.00000000
0.00000000 0.32984197 0.00000000
0.00000000 0.35491153 0.00000000
0.00000000 0.37611528 0.00000000
0.00000000 0.39488417 0.00000000
0.00000000 0.41286303 0.00000000
0.00000000 0.43053002 0.00000000
0.00000000 0.44828937 0.00000000
0.00000000 0.46621211 0.00000000
0.00000000 0.48425527 0.00000000
0.00000000 0.50241613 0.00000000
0.00000000 0.52065627 0.00000000
0.00000000 0.53888849 0.00000000
0.00000000 0.55721880 0.00000000
0.00000000 0.57563666 0.00000000
0.00000000 0.59413306 0.00000000
0.00000000 0.61272377 0.00000000
0.00000000 0.63140631 0.00000000
0.07690998 0.12123565 0.20535579
0.05456685 0.13527823 0.19091857
0.01548741 0.15276808 0.16599961
0.01379116 0.16519429 0.09740040
0.09205432 0.16304776 0.01059073
0.15623298 0.15625489 0.00000249
0.17901325 0.16004380 0.00000000
0.18837426 0.17064466 0.00000000
0.17167405 0.19074754 0.00000000
0.10858457 0.21767308 0.00000000
0.05522130 0.23918844 0.00000000
0.07054706 0.25200835 0.00000000
0.10896104 0.26260969 0.00000000
0.12942659 0.27572851 0.00000000
0.12889564 0.29230515 0.00000000
0.11446019 0.31088938 0.00000000
0.08798753 0.33064293 0.00000000
0.06558846 0.34991624 0.00000000
0.01150999 0.37189911 0.00000000
0.00000000 0.39822172 0.00000000
0.00000000 0.42248906 0.00000000
0.00000000 0.44331628 0.00000000
0.00000000 0.46209134 0.00000000
0.00000000 0.48016227 0.00000000
0.00000000 0.49783919 0.00000000
0.00000000 0.51552121 0.00000000
0.00000000 0.53338604 0.00000000
0.00000000 0.55135261 0.00000000
0.00000000 0.56942530 0.00000000
0.00000000 0.58760017 0.00000000
0.00000000 0.60584615 0.00000000
0.00000000 0.62406572 0.00000000
0.00000000 0.64237321 0.00000000
0.09865288 0.14819887 0.24261776
0.07828451 0.16009358 0.23141945
0.04771949 0.17388016 0.21294668
0.00498188 0.19032460 0.17933267
0.02275404 0.20023111 0.09161877
0.12630198 0.19393021 0.01157490
0.18748090 0.18750549 0.00000322
0.21136509 0.19078562 0.00000000
0.22247977 0.20040151 0.00000000
0.21779899 0.21766603 0.00000000
0.16830576 0.24334976 0.00000000
0.09787508 0.26884810 0.00000000
0.07029950 0.28633985 0.00000000
0.10198453 0.29775738 0.00000000
0.13895435 0.30850785 0.00000000
0.15751296 0.32192367 0.00000000
0.15737406 0.33843699 0.00000000
0.14544761 0.35671803 0.00000000
0.11916228 0.37653061 0.00000000
0.09748381 0.39570346 0.00000000
0.06087899 0.41593012 0.00000000
0.00000000 0.44017319 0.00000000
0.00000000 0.46636510 0.00000000
0.00000000 0.48996891 0.00000000
0.00000000 0.51051347 0.00000000
0.00000000 0.52929445 0.00000000
0.00000000 0.54743587 0.00000000
0.00000000 0.56514978 0.00000000
0.00000000 0.58281588 0.00000000
0.00000000 0.60059413 0.00000000
0.00000000 0.61850187 0.00000000
0.00000000 0.63650328 0.00000000
0.00000000 0.65459886 0.00000000
0.12021188 0.17516210 0.27987973
0.10401527 0.18537896 0.27054556
0.07787987 0.19711587 0.25585145
0.03929677 0.21041663 0.23706524
0.01222077 0.22491449 0.18776687
0.03460390 0.23559416 0.07094243
0.15966096 0.22491801 0.01230988
0.21872882 0.21875609 0.00000405
0.24355966 0.22157680 0.00000000
0.25587595 0.23054812 0.00000000
0.25703088 0.24522370 0.00000000
0.22434503 0.26873540 0.00000000
0.15790972 0.29574738 0.00000000
0.09592039 0.31814735 0.00000000
0.09563714 0.33271345 0.00000000
0.13366055 0.34348962 0.00000000
0.16865104 0.35445763 0.00000000
0.18559346 0.36811989 0.00000000
0.18576257 0.38458221 0.00000000
0.17577023 0.40261359 0.00000000
0.15204477 0.42219930 0.00000000
0.12750998 0.44167532 0.00000000
0.10288736 0.46108123 0.00000000
0.03920811 0.48272935 0.00000000
0.00000000 0.50872748 0.00000000
0.00000000 0.53436495 0.00000000
0.00000000 0.55735515 0.00000000
0.00000000 0.57770801 0.00000000
0.00000000 0.59649448 0.00000000
0.00000000 0.61467873 0.00000000
0.00000000 0.63245869 0.00000000
0.00000000 0.65012139 0.00000000
0.00000000 0.66782454 0.00000000
0.14177088 0.20212533 0.31714170
0.12803211 0.21106853 0.30947092
0.10741837 0.22128201 0.29745386
0.07750073 0.23233254 0.28244539
0.01841925 0.24829169 0.25815818
0.02164550 0.25957396 0.19330791
0.06125789 0.26932992 0.04431892
0.19260002 0.25591942 0.01343254
0.24997674 0.25000669 0.00000499
0.27566601 0.25242297 0.00000000
0.28888537 0.26092130 0.00000000
0.29383289 0.27377440 0.00000000
0.27558401 0.29461042 0.00000000
0.21804613 0.32150290 0.00000000
0.14679424 0.34704556 0.00000000
0.10629421 0.36597950 0.00000000
0.12483981 0.37873243 0.00000000
0.16495349 0.38923532 0.00000000
0.19814120 0.40043683 0.00000000
0.21366983 0.41431685 0.00000000
0.21408865 0.43073704 0.00000000
0.20560278 0.44856343 0.00000000
0.18461257 0.46788538 0.00000000
0.15753122 0.48767810 0.00000000
0.13661567 0.50678426 0.00000000
0.09758414 0.52709587 0.00000000
0.00000000 0.55058758 0.00000000
0.00000000 0.57715658 0.00000000
0.00000000 0.60222261 0.00000000
0.00000000 0.62470129 0.00000000
0.00000000 0.64490063 0.00000000
0.00000000 0.66369212 0.00000000
0.00000000 0.68191523 0.00000000
0.16332987 0.22908856 0.35440368
0.15153191 0.23701038 0.34788452
0.13425136 0.24602560 0.33811460
0.11212779 0.25564135 0.32531489
0.07180007 0.26797691 0.30811747
0.00880867 0.28484696 0.27156923
0.03279126 0.29437870 0.19556996
0.11740705 0.29857887 0.04397146
0.22517978 0.28697084 0.01440227
0.28122465 0.28125729 0.00000603
0.30769034 0.28331620 0.00000000
0.32156740 0.29140601 0.00000000
0.32915392 0.30299353 0.00000000
0.32105723 0.32167296 0.00000000
0.27548918 0.34689332 0.00000000
0.20723428 0.37382023 0.00000000
0.14170888 0.39681825 0.00000000
0.12592563 0.41291838 0.00000000
0.15580733 0.42455166 0.00000000
0.19588617 0.43501498 0.00000000
0.22745279 0.44644214 0.00000000
0.24174315 0.46051436 0.00000000
0.24236946 0.47689902 0.00000000
0.23507845 0.49455544 0.00000000
0.21653007 0.51363655 0.00000000
0.18856662 0.53358206 0.00000000
0.16708788 0.55272404 0.00000000
0.14076047 0.57225189 0.00000000
0.07569804 0.59371372 0.00000000
0.00000000 0.61905421 0.00000000
0.00000000 0.64541595 0.00000000
0.00000000 0.66995180 0.00000000
0.00000000 0.69201806 0.00000000
0.18488887 0.25605178 0.39166565
0.17463278 0.26314346 0.38597768
0.16007116 0.27114962 0.37775129
0.14177516 0.27973072 0.36711906
0.11356444 0.29037219 0.35248656
0.05438935 0.30489840 0.33147989
0.01876625 0.31940653 0.28045520
0.04704894 0.32927638 0.19255974
0.16317968 0.32844484 0.04439979
0.25754748 0.31803542 0.01560981
0.31247257 0.31250789 0.00000719
0.33964019 0.31424974 0.00000000
0.35412636 0.32197154 0.00000000
0.36346291 0.33263516 0.00000000
0.36084465 0.34907598 0.00000000
0.32939859 0.37238624 0.00000000
0.26761379 0.39964766 0.00000000
0.19588764 0.42520034 0.00000000
0.14680504 0.44520876 0.00000000
0.15130927 0.45930545 0.00000000
0.18742326 0.47030003 0.00000000
0.22654033 0.48082520 0.00000000
0.25660913 0.49247059 0.00000000
0.26981418 0.50671229 0.00000000
0.27061626 0.52306649 0.00000000
0.26429172 0.54057997 0.00000000
0.24789239 0.55943092 0.00000000
0.22118812 0.57929434 0.00000000
0.19699373 0.59870620 0.00000000
0.17546866 0.61788498 0.00000000
0.13551270 0.63826706 0.00000000
0.02619830 0.66121148 0.00000000
0.00000000 0.68761274 0.00000000
0.20644787 0.28301501 0.42892762
0.19743378 0.28942200 0.42385982
0.18507093 0.29658475 0.41671489
0.16940031 0.30430565 0.40789292
0.14725787 0.31378105 0.39523817
0.10992160 0.32576714 0.37856189
0.02203477 0.34320717 0.35121332
0.03084629 0.35403630 0.28723994
0.06402503 0.36443338 0.18127104
0.20381040 0.35867755 0.04567638
0.28972459 0.34913622 0.01653770
0.34372049 0.34375849 0.00000846
0.37152392 0.34521775 0.00000000
0.38664057 0.35258791 0.00000000
0.39719333 0.36259805 0.00000000
0.39849279 0.37726373 0.00000000
0.37923391 0.39852059 0.00000000
0.32588428 0.42511267 0.00000000
0.25655858 0.45189224 0.00000000
0.18894219 0.47530271 0.00000000
0.16089827 0.49267670 0.00000000
0.17977731 0.50540031 0.00000000
0.21921244 0.51602550 0.00000000
0.25697215 0.52666154 0.00000000
0.28563000 0.53851948 0.00000000
0.29788344 0.55291053 0.00000000
0.29883676 0.56923827 0.00000000
0.29328139 0.58663976 0.00000000
0.27874598 0.60527213 0.00000000
0.25416562 0.62493277 0.00000000
0.22708346 0.64471237 0.00000000
0.20656987 0.66377902 0.00000000
0.17857381 0.68342595 0.00000000
0.22800686 0.30997824 0.46618959
0.22000909 0.31581254 0.46159698
0.20904604 0.32229563 0.45558946
0.19542492 0.32928497 0.44810854
0.17689692 0.33785771 0.43715032
0.14870403 0.34849077 0.42266628
0.09766202 0.36204328 0.40317388
0.01386914 0.37936745 0.36380130
0.04502538 0.38874642 0.29174454
0.08386108 0.39987842 0.15843743
0.24138392 0.38921672 0.04699387
0.32177102 0.38025829 0.01730622
0.37496840 0.37500909 0.00000985
0.40335253 0.37621455 0.00000000
0.41912881 0.38324019 0.00000000
0.43052726 0.39277926 0.00000000
0.43470594 0.40607510 0.00000000
0.42429359 0.42567267 0.00000000
0.38149076 0.45046129 0.00000000
0.31711281 0.47776969 0.00000000
0.24507087 0.50332993 0.00000000
0.19006938 0.52416387 0.00000000
0.18177332 0.53949368 0.00000000
0.21001368 0.55130748 0.00000000
0.25071493 0.56176877 0.00000000
0.28721644 0.57252121 0.00000000
0.31453227 0.58458643 0.00000000
0.32595129 0.59910903 0.00000000
0.32703645 0.61541353 0.00000000
0.32211511 0.63272204 0.00000000
0.30916953 0.65115687 0.00000000
0.28657608 0.67064066 0.00000000
0.25803869 0.69062545 0.00000000
0.24956586 0.33694147 0.50345156
0.24241268 0.34229058 0.49923093
0.23263642 0.34819405 0.49408175
0.22109005 0.35451827 0.48732432
0.20507864 0.36232832 0.47793287
0.18238687 0.37192101 0.46516029
0.14636555 0.38373165 0.44899457
0.06969015 0.39951013 0.42528253
0.02669709 0.41390819 0.37295110
0.06109953 0.42355988 0.29372338
0.10472005 0.43558489 0.11721742
0.27724184 0.41991436 0.04915589
0.35372778 0.41138676 0.01818108
0.40621632 0.40625969 0.00001135
0.43513272 0.40723597 0.00000000
0.45157917 0.41392843 0.00000000
0.46359917 0.42311382 0.00000000
0.46993042 0.43534401 0.00000000
0.46447500 0.45300159 0.00000000
0.43388432 0.47611263 0.00000000
0.37596051 0.50327385 0.00000000
0.30588278 0.52996370 0.00000000
0.23693362 0.55367399 0.00000000
0.19963003 0.57207269 0.00000000
0.20706119 0.58588984 0.00000000
0.24125524 0.59709178 0.00000000
0.28199525 0.60751298 0.00000000
0.31729665 0.61840229 0.00000000
0.34333032 0.63066934 0.00000000
0.35401802 0.64530774 0.00000000
0.35521931 0.66159163 0.00000000
0.35083462 0.67881976 0.00000000
0.33923983 0.69707977 0.00000000
0.27112486 0.36390470 0.54071354
0.26468376 0.36883802 0.53678913
0.25590727 0.37424555 0.53230434
0.24580656 0.38001996 0.52629698
0.23129493 0.38721221 0.51847479
0.21200602 0.39598942 0.50716173
0.18382968 0.40661513 0.49279110
0.13830428 0.41959485 0.47426676
0.02460073 0.43813440 0.44409885
0.04213307 0.44847447 0.38046658
0.08028624 0.45845310 0.29184944
0.16627302 0.46554422 0.10666543
0.31184222 0.45077722 0.05107252
0.38560928 0.44252160 0.01916320
0.43746424 0.43751029 0.00001296
0.46687636 0.43828059 0.00000000
0.48398507 0.44465245 0.00000000
0.49646851 0.45355154 0.00000000
0.50434761 0.46492024 0.00000000
0.50272095 0.48094303 0.00000000
0.48274361 0.50245918 0.00000000
0.43268882 0.52859865 0.00000000
0.36657339 0.55587583 0.00000000
0.29430583 0.58144340 0.00000000
0.23513782 0.60292073 0.00000000
0.21595225 0.61933354 0.00000000
0.23499690 0.63203777 0.00000000
0.27287096 0.64284111 0.00000000
0.31301200 0.65328376 0.00000000
0.34717297 0.66432331 0.00000000
0.37203651 0.67676640 0.00000000
0.38208383 0.69150661 0.00000000
0.38338836 0.70777209 0.00000000
0.29268386 0.39086792 0.57797551
0.28685032 0.39544146 0.57429009
0.27891807 0.40042198 0.57033122
0.26976661 0.40573846 0.56515371
0.25711804 0.41233237 0.55812712
0.24073023 0.42036823 0.54789951
0.21751513 0.43006114 0.53508165
0.18266131 0.44171633 0.51923725
0.12001339 0.45639706 0.49769631
0.02022155 0.47388701 0.45603107
0.05941973 0.48313282 0.38623382
0.10116851 0.49354390 0.28418941
0.22142562 0.49487718 0.10643844
0.34593716 0.48166106 0.05369498
0.41742685 0.47366261 0.02025343
0.46871215 0.46876089 0.00001470
0.49859466 0.46934784 0.00000000
0.51631324 0.47540389 0.00000000
0.52911265 0.48404468 0.00000000
0.53829596 0.49476768 0.00000000
0.53962493 0.50944682 0.00000000
0.52752364 0.52967403 0.00000000
0.48676969 0.55409128 0.00000000
0.42585504 0.58140734 0.00000000
0.35520693 0.60803480 0.00000000
0.28535352 0.63197238 0.00000000
0.24100185 0.65121944 0.00000000
0.23763900 0.66606739 0.00000000
0.26462386 0.67801281 0.00000000
0.30466416 0.68857024 0.00000000
0.34381637 0.69907718 0.00000000
0.37690225 0.71026850 0.00000000
0.40066141 0.72287601 0.00000000
0.31424285 0.41783115 0.61523748
0.30893276 0.42209083 0.61174668
0.30171823 0.42670088 0.60821250
0.29340366 0.43161445 0.60368789
0.28255312 0.43766535 0.59708294
0.26708005 0.44517881 0.58871830
0.24710694 0.45412429 0.57715922
0.21904259 0.46473375 0.56284159
0.17769665 0.47726657 0.54473311
0.08545080 0.49417716 0.51870151
0.03557754 0.50844563 0.46536395
0.07841213 0.51789289 0.39009679
0.12210713 0.52879736 0.26951408
0.26902521 0.52458322 0.10752499
0.37948469 0.51263780 0.05524661
0.44917827 0.50482330 0.02098307
0.49996007 0.50001149 0.00001656
0.53026403 0.50042707 0.00000000
0.54853803 0.50617503 0.00000000
0.56168680 0.51459569 0.00000000
0.57187209 0.52481374 0.00000000
0.57553367 0.53839707 0.00000000
0.56800340 0.55696689 0.00000000
0.53803129 0.57993719 0.00000000
0.48325371 0.60684765 0.00000000
0.41601096 0.63397052 0.00000000
0.34355338 0.65955188 0.00000000
0.28146964 0.68152521 0.00000000
0.25346536 0.69884044 0.00000000
0.26285744 0.71247006 0.00000000
0.29532839 0.72386532 0.00000000
0.33633332 0.73430196 0.00000000
0.37444333 0.74489047 0.00000000
0.33580185 0.44479438 0.65249945
0.33092143 0.44877877 0.64920251
0.32434734 0.45306440 0.64598305
0.31676327 0.45762347 0.64198147
0.30692961 0.46323744 0.63612505
0.29299315 0.47021167 0.62875864
0.27598582 0.47845636 0.61804220
0.25264288 0.48820140 0.60500246
0.21884287 0.49971726 0.58935269
0.16412944 0.51367179 0.56926969
0.02601318 0.53306718 0.53688646
0.05353127 0.54302973 0.47333184
0.09859557 0.55273774 0.39187552
0.14344195 0.56420259 0.24581628
0.31164732 0.55472444 0.10747342
0.41275501 0.54362865 0.05709174
0.48087588 0.53600090 0.02131846
0.53120799 0.53126209 0.00001854
0.56188559 0.53151510 0.00000000
0.58071755 0.53697621 0.00000000
0.59421956 0.54518770 0.00000000
0.60517767 0.55501092 0.00000000
0.61070563 0.56769514 0.00000000
0.60669200 0.58473093 0.00000000
0.58617157 0.60641522 0.00000000
0.53862562 0.63218782 0.00000000
0.47555283 0.65957295 0.00000000
0.40453105 0.68610564 0.00000000
0.33403477 0.71022102 0.00000000
0.28428139 0.73017338 0.00000000
0.27124265 0.74596943 0.00000000
0.29039255 0.75865707 0.00000000
0.32671162 0.76963066 0.00000000
0.35736085 0.47175761 0.68976142
0.35281132 0.47549934 0.68668869
0.34683675 0.47949837 0.68366774
0.33988857 0.48374475 0.68009196
0.33084928 0.48897598 0.67493766
0.31871425 0.49542809 0.66799712
0.30281046 0.50317262 0.65886839
0.28220228 0.51226136 0.64714657
0.25424494 0.52285575 0.63286461
0.21477749 0.53516573 0.61523748
0.13886356 0.55098126 0.59192457
0.02791612 0.56840604 0.54825950
0.07421132 0.57763843 0.47987945
0.11953381 0.58759168 0.39073411
0.16338108 0.59997023 0.20806612
0.35196669 0.58495714 0.10987633
0.44584027 0.57461181 0.05977771
0.51254430 0.56717061 0.02213294
0.56245590 0.56251268 0.00002065
0.59348089 0.56261597 0.00000000
0.61285263 0.56780522 0.00000000
0.62673056 0.57580864 0.00000000
0.63828462 0.58532424 0.00000000
0.64518715 0.59722832 0.00000000
0.64414122 0.61300053 0.00000000
0.63075008 0.63367633 0.00000000
0.59158009 0.65776688 0.00000000
0.53353274 0.68503462 0.00000000
0.46543404 0.71205672 0.00000000
0.39283582 0.73764853 0.00000000
0.32865653 0.76001667 0.00000000
0.29340558 0.77812449 0.00000000
0.29351487 0.79264019 0.00000000
0.37891984 0.49872084 0.72702340
0.37466201 0.50224599 0.72414632
0.36921126 0.50599144 0.72128470
0.36281713 0.50996098 0.71806057
0.35449271 0.51484893 0.71347731
0.34388689 0.52083971 0.70686099
0.32889157 0.52812616 0.69916252
0.31117941 0.53655818 0.68816719
0.28774265 0.54634455 0.67493543
0.25493601 0.55773122 0.65937882
0.20482046 0.57121857 0.64038684
0.09682736 0.58905974 0.61212208
0.04617770 0.60296122 0.55771850
0.09692636 0.61228468 0.48494489
0.14132867 0.62251293 0.38540183
0.20733243 0.63279699 0.17628014
0.38997020 0.61546781 0.11117963
0.47870326 0.60562342 0.06234868
0.54417894 0.59834316 0.02306589
0.59370382 0.59376328 0.00002288
0.62505244 0.59372823 0.00027225
0.64494466 0.59865996 0.00000000
0.65922585 0.60645299 0.00000000
0.67124492 0.61572751 0.00000000
0.67928628 0.62699762 0.00000000
0.68061683 0.64169283 0.00000000
0.67146937 0.66095607 0.00000000
0.64196648 0.68379541 0.00000000
0.58984749 0.71032067 0.00000000
0.52515839 0.73772858 0.00000000
0.45385516 0.76417629 0.00000000
0.38288525 0.78843420 0.00000000
0.32895700 0.80897547 0.00000000
0.40047884 0.52568406 0.76428537
0.39647998 0.52901479 0.76158047
0.39149049 0.53253452 0.75884742
0.38558057 0.53625790 0.75591745
0.37789384 0.54083808 0.75180488
0.36804174 0.54646042 0.74594049
0.35470049 0.55325834 0.73876366
0.33850481 0.56118589 0.72894587
0.31729370 0.57040004 0.71712632
0.28943580 0.58098066 0.70286868
0.25121959 0.59313048 0.68566726
0.18789410 0.60791702 0.66377531
0.02618525 0.62800293 0.62961248
0.06746888 0.63751920 0.56601412
0.11804806 0.64702671 0.48841022
0.16084578 0.65779376 0.37441785
0.27144628 0.66176640 0.17543881
0.42674633 0.64606122 0.11392496
0.51136583 0.63667033 0.06442442
0.57578278 0.62951966 0.02406827
0.62495174 0.62501388 0.00002524
0.65660247 0.62485068 0.00210598
0.67699534 0.62953851 0.00000000
0.69169895 0.63712116 0.00000000
0.70402143 0.64618440 0.00000000
0.71304412 0.65694542 0.00000000
0.71634026 0.67072909 0.00000000
0.71050013 0.68858560 0.00000000
0.68954783 0.71038265 0.00000000
0.64402834 0.73580801 0.00000000
0.58360531 0.76319584 0.00000000
0.51484763 0.79013644 0.00000000
0.44212874 0.81574026 0.00000000
0.42203784 0.55264729 0.80154734
0.41827036 0.55580256 0.79899506
0.41368992 0.55912025 0.79636605
0.40820507 0.56262370 0.79368503
0.40108521 0.56692764 0.78996519
0.39193132 0.57221381 0.78472100
0.38022628 0.57855633 0.77779520
0.36471559 0.58607436 0.76946521
0.34634971 0.59466796 0.75826425
0.32281905 0.60449011 0.74487869
0.29073989 0.61577786 0.72941419
0.24450407 0.62886010 0.71099524
0.15667132 0.64559083 0.68571583
0.03699719 0.66292473 0.64048708
0.09285270 0.67202236 0.57313608
0.13742726 0.68191515 0.49002575
0.18125817 0.69315273 0.35737875
0.32542423 0.69117584 0.17496691
0.46241962 0.67678181 0.11678982
0.54390413 0.66772400 0.06677969
0.60735921 0.66069987 0.02514060
0.65619965 0.65626448 0.00002772
0.68813295 0.65598226 0.00397969
0.70900653 0.66043907 0.00000000
0.72414467 0.66781341 0.00000000
0.73665766 0.67668356 0.00000000
0.74653832 0.68703643 0.00000000
0.75147757 0.70004576 0.00000000
0.74838292 0.71667413 0.00000000
