dvhe0509_to_BT709_v2.cube
TITLE "dvhe.05.09_to_BT709_v2"
LUT_3D_SIZE 9
# Dolby Vision, Version 1.0, dvhe.05.09 to Linear BT709 SDR 100 nits by Francesco Bucciantini (experimental v1)
0.00000000 0.00000000 0.00000000
0.00000000 0.04815142 0.00000000
0.00000000 0.12323046 0.00000000
0.00000000 0.20282589 0.00000000
0.00000000 0.28242133 0.00000000
0.00000000 0.36201677 0.00000000
0.00000000 0.44161220 0.00000000
0.00000000 0.52120764 0.00000000
0.00000000 0.60080307 0.00000000
0.05753648 0.09427242 0.16809382
0.12498507 0.12500430 0.00000186
0.05254718 0.19056924 0.00000000
0.10028057 0.24619292 0.00000000
0.00000000 0.32984197 0.00000000
0.00000000 0.41286303 0.00000000
0.00000000 0.48425527 0.00000000
0.00000000 0.55721880 0.00000000
0.00000000 0.63140631 0.00000000
0.14177088 0.20212533 0.31714170
0.01841925 0.24829169 0.25815818
0.24997674 0.25000669 0.00000499
0.27558401 0.29461042 0.00000000
0.12483981 0.37873243 0.00000000
0.21408865 0.43073704 0.00000000
0.13661567 0.50678426 0.00000000
0.00000000 0.60222261 0.00000000
0.00000000 0.68191523 0.00000000
0.22800686 0.30997824 0.46618959
0.17689692 0.33785771 0.43715032
0.04502538 0.38874642 0.29174454
0.37496840 0.37500909 0.00000985
0.43470594 0.40607510 0.00000000
0.24507087 0.50332993 0.00000000
0.25071493 0.56176877 0.00000000
0.32703645 0.61541353 0.00000000
0.25803869 0.69062545 0.00000000
0.31424285 0.41783115 0.61523748
0.28255312 0.43766535 0.59708294
0.17769665 0.47726657 0.54473311
0.12210713 0.52879736 0.26951408
0.49996007 0.50001149 0.00001656
0.57187209 0.52481374 0.00000000
0.48325371 0.60684765 0.00000000
0.25346536 0.69884044 0.00000000
0.37444333 0.74489047 0.00000000
0.40047884 0.52568406 0.76428537
0.37789384 0.54083808 0.75180488
0.31729370 0.57040004 0.71712632
0.02618525 0.62800293 0.62961248
0.27144628 0.66176640 0.17543881
0.62495174 0.62501388 0.00002524
0.70402143 0.64618440 0.00000000
0.68954783 0.71038265 0.00000000
0.44212874 0.81574026 0.00000000
0.48671483 0.63353697 0.91333326
0.46967344 0.64567321 0.90373982
0.42647633 0.66904552 0.87983386
0.32380635 0.70910057 0.82614850
0.10763263 0.76661031 0.66608589
0.45991273 0.78101253 0.17662533
0.74994340 0.75001628 0.00003595
0.83431083 0.76840640 0.00000000
0.85243125 0.82042987 0.00000000
0.57295081 0.74138989 1.06238114
0.55955146 0.75145120 1.05443441
0.52732181 0.77045850 1.03642592
0.45763680 0.80296435 0.99699773
0.27579523 0.85396836 0.92442924
0.19678211 0.90530012 0.68495425
0.61202600 0.90291204 0.18587487
0.87493507 0.87501868 0.00004879
0.96426673 0.89100422 0.00000000
0.65918680 0.84924280 1.21142903
0.64833854 0.85780031 1.20450470
0.62233051 0.87373747 1.19102988
0.56962537 0.90090949 1.16080836
0.46791529 0.94118356 1.10634150
0.05818681 1.00642098 0.99896562
0.27867713 1.04492617 0.67815552
0.75115402 1.02624596 0.19652318
0.99992674 1.00002107 0.00006380
0.00088864 0.00000000 0.12495691
0.12499684 0.00000087 0.12500272
0.20061477 0.05355052 0.00000000
0.20752066 0.16268314 0.00000000
0.19189444 0.25894084 0.00000000
0.17839510 0.34472665 0.00000000
0.16419154 0.42814102 0.00000000
0.14899008 0.51021068 0.00000000
0.13405310 0.59144222 0.00000000
0.00000000 0.12500114 0.12499551
0.12500000 0.12500000 0.12500000
0.12187300 0.17898243 0.00000000
0.11690038 0.24373742 0.00000000
0.10978678 0.31410696 0.00000000
0.10013641 0.38756554 0.00000000
0.08736117 0.46284572 0.00000000
0.07064929 0.53926972 0.00000000
0.05124753 0.61645074 0.00000000
0.13875265 0.21003139 0.31534766
0.18809121 0.22102461 0.29371643
0.24998542 0.25000419 0.12500240
0.19548516 0.31190251 0.00000000
0.22835969 0.36419708 0.00000000
0.17913349 0.43546185 0.00000000
0.00000000 0.52647709 0.00000000
0.00000000 0.59735500 0.00000000
0.00000000 0.66749454 0.00000000
0.24893109 0.30837654 0.47644226
0.26154826 0.32321676 0.45035773
0.13007721 0.37685992 0.37690081
0.37497438 0.37500737 0.12500613
0.41855929 0.41277964 0.00000000
0.22857062 0.50549998 0.00000000
0.32646619 0.55100040 0.00000000
0.31491080 0.61708838 0.00000000
0.22506200 0.69429346 0.00000000
0.33799602 0.41414654 0.62691676
0.34004194 0.42785433 0.60342838
0.27907564 0.46283593 0.56424887
0.18196941 0.51944054 0.37228567
0.49996456 0.50001020 0.12501129
0.56668727 0.52705553 0.00000000
0.43728124 0.61605903 0.00000000
0.30144108 0.69365301 0.00000000
0.42813511 0.73720877 0.00000000
0.42255080 0.52183748 0.77493932
0.42120071 0.53366667 0.75495099
0.37850299 0.56025981 0.72950772
0.23650460 0.61119478 0.65814320
0.24643229 0.66325143 0.27988245
0.62495530 0.62501286 0.12501795
0.70137037 0.64731521 0.00000000
0.66458105 0.71669707 0.00000000
0.41298848 0.81972726 0.00000000
0.50632877 0.62995996 0.92281673
0.50389637 0.64012272 0.90566525
0.47223155 0.66125735 0.88704703
0.39073706 0.69974485 0.83874080
0.17237130 0.76086178 0.70711728
0.44704513 0.78293263 0.25197976
0.74994633 0.75001544 0.12502617
0.83254774 0.76918384 0.00000000
0.84342401 0.82414837 0.00000000
0.59026705 0.73815831 1.07079479
0.58754409 0.74696586 1.05590609
0.56253883 0.76439324 1.04158878
0.50405519 0.79563091 1.00560573
0.36626236 0.84416560 0.93871930
0.24194671 0.90054293 0.72488475
0.60676191 0.90386658 0.25406817
0.87493755 0.87501796 0.12503602
0.96285593 0.89160221 0.00000000
0.67453477 0.84633974 1.21892174
0.67181647 0.85405830 1.20584688
0.65151354 0.86880839 1.19407430
0.60490780 0.89500071 1.16750776
0.51506232 0.93454408 1.11584249
0.23526817 0.99712238 1.02084515
0.31202270 1.04071759 0.72249509
0.74864238 1.02673311 0.26159739
0.99992888 1.00002046 0.12504755
0.00238055 0.00000000 0.24993287
0.10533078 0.00632650 0.25388552
0.24999508 0.00000232 0.25000423
0.35159355 0.06482479 0.00000000
0.37460448 0.18661870 0.00000000
0.37934052 0.29638539 0.00000000
0.36660903 0.39805499 0.00000000
0.34933610 0.48722462 0.00000000
0.33624593 0.57271264 0.00000000
0.00000000 0.13922101 0.22406651
0.12614193 0.12466641 0.24995793
0.24999692 0.12500112 0.25000265
0.32736166 0.17865209 0.00000000
0.33693504 0.26675547 0.00000000
0.32606507 0.35716962 0.00000000
0.31199719 0.43937752 0.00000000
0.30069532 0.52013775 0.00000000
0.28834980 0.60047096 0.00000000
0.00000000 0.25000178 0.24999300
0.12499610 0.25000112 0.24999561
0.25000000 0.25000000 0.25000000
0.24718233 0.30144716 0.12738869
0.24324058 0.36147663 0.00000000
0.23806633 0.42711153 0.00000000
0.23153664 0.49643991 0.00000000
0.22350398 0.56826259 0.00000000
0.21378362 0.64181927 0.00000000
0.18179247 0.33548465 0.43966599
0.25499921 0.33314030 0.44598128
0.31056783 0.34436761 0.42244583
0.37498441 0.37500449 0.25000217
0.33972990 0.43241645 0.07999728
0.34291630 0.48739778 0.00000000
0.32518642 0.55114979 0.00000000
0.17022630 0.63323734 0.00000000
0.00000000 0.71554585 0.00000000
0.32773263 0.42348312 0.62192711
0.36090374 0.42711945 0.61469146
0.37961261 0.44417674 0.58303767
0.25887407 0.50459059 0.48489342
0.49997209 0.50000803 0.25000517
0.55249031 0.53306958 0.00000000
0.37069785 0.62766673 0.00000000
0.40981055 0.67865440 0.00000000
0.45762736 0.73256213 0.00000000
0.43199188 0.52371326 0.77975704
0.44849854 0.52971695 0.76950286
0.45388473 0.54679829 0.73899313
0.37925395 0.59013361 0.68797020
0.30620904 0.64996493 0.45171695
0.62496127 0.62501114 0.25000904
0.69589779 0.64960801 0.00882849
0.61149675 0.72932144 0.00000000
0.40555050 0.82069277 0.00000000
0.52329421 0.62854965 0.93167885
0.53146027 0.63544224 0.91960397
0.53146734 0.65102080 0.89262839
0.47704543 0.68523577 0.85730217
0.29616854 0.74662464 0.76677793
0.41223610 0.78798596 0.34770184
0.74995125 0.75001402 0.25001383
0.82943176 0.77057984 0.00210563
0.82357868 0.83132602 0.00000000
0.60969360 0.73547729 1.08030802
0.61337399 0.74231770 1.06876579
0.61122591 0.75622744 1.04493449
0.56921830 0.78424795 1.01836476
0.47047217 0.82988475 0.95803767
0.30556275 0.89241279 0.78686090
0.59527860 0.90587189 0.34376362
0.87494171 0.87501677 0.25001956
0.96042058 0.89264375 0.00176987
0.69411133 0.84322027 1.22829784
0.69548825 0.84967590 1.21757771
0.69246904 0.86207663 1.19640904
0.65810231 0.88571043 1.17592021
0.58473806 0.92362897 1.12997422
0.40906080 0.98047161 1.04809524
0.36385767 1.03365358 0.78734936
0.74396694 1.02760679 0.34761269
0.99993246 1.00001943 0.25002626
0.00470033 0.00000000 0.37490883
0.11438309 0.00360682 0.37617242
0.21691617 0.01827825 0.38248273
0.37499332 0.00000458 0.37500575
0.48566240 0.09403737 0.00000000
0.53302540 0.20296440 0.00000000
0.54737397 0.32100770 0.00000000
0.55101773 0.43004610 0.00000000
0.54198738 0.53509154 0.00000000
0.00000000 0.14027977 0.35899334
0.12790359 0.12414651 0.37492607
0.23064968 0.13318857 0.37967401
0.37499458 0.12500285 0.37500466
0.48087590 0.18370170 0.05283734
0.51202835 0.27538399 0.00000000
0.52208040 0.37549702 0.00000000
0.51854934 0.47541636 0.00000000
0.50209773 0.56823993 0.00000000
0.00000000 0.26746725 0.33895591
0.05631228 0.26365102 0.34653983
0.25103404 0.24969844 0.37495501
0.37499670 0.25000101 0.37500284
0.45753172 0.29340148 0.15690075
0.46986629 0.37106342 0.00000000
0.46551761 0.45716007 0.00000000
0.44992175 0.53770387 0.00000000
0.43882522 0.61621559 0.00000000
0.00000000 0.37500242 0.37499049
0.12499003 0.37500196 0.37499229
0.24999647 0.37500120 0.37499531
0.37500000 0.37500000 0.37500000
0.37232479 0.42511030 0.26832809
0.36884214 0.48223673 0.00616863
0.36449529 0.54449808 0.00000000
0.35922365 0.61050859 0.00000000
0.35296003 0.67927977 0.00000000
0.21734691 0.46138633 0.56209343
0.28063400 0.46016404 0.56594140
0.36684288 0.45743212 0.57352906
0.43421386 0.46842773 0.54976300
0.49998381 0.50000466 0.37500206
0.47626229 0.55428421 0.24095925
0.45496489 0.61266361 0.00000000
0.46560132 0.66903008 0.00000000
0.40309326 0.74133895 0.00000000
0.38705909 0.54481733 0.75663433
0.42630236 0.54431997 0.75703774
0.47328969 0.54759595 0.75048767
0.50046466 0.56659183 0.71341492
0.38540732 0.63144796 0.59837638
0.62497057 0.62500847 0.37500473
0.68200176 0.65550675 0.20845372
0.52093034 0.74777000 0.00000000
0.50221878 0.80654503 0.00000000
0.51202687 0.63833190 0.92628170
0.53392392 0.64074820 0.92148561
0.56145818 0.64728928 0.90909767
0.57162531 0.66759189 0.87193064
0.48912066 0.71682246 0.81137849
0.43159723 0.77904041 0.54236203
0.74995890 0.75001182 0.37500802
0.82340073 0.77311970 0.22763157
0.76855875 0.84533783 0.00000000
0.61496895 0.73907848 1.08304369
0.62847238 0.74269019 1.07661023
0.64364583 0.75096989 1.06218282
0.64624169 0.77038962 1.02761450
0.58391489 0.81035081 0.98399323
0.38567842 0.87949018 0.87460734
0.56603374 0.91075554 0.45432721
0.87494818 0.87501491 0.37501196
0.95648298 0.89435846 0.23011207
0.70787673 0.84334771 1.23551101
0.71586477 0.84763188 1.22839333
0.72436027 0.85646711 1.21282294
0.72333317 0.87438447 1.18156482
0.67272387 0.90795614 1.14889980
0.56133192 0.95937809 1.07828163
0.43402015 1.02266712 0.87485927
0.73322456 1.02965377 0.45123347
0.99993804 1.00001782 0.37501657
0.00790704 0.00000000 0.49988478
0.12496505 0.00002040 0.49998429
0.22341034 0.01492246 0.50446461
0.33130971 0.03568158 0.50960551
0.49999155 0.00000771 0.50000727
0.61441995 0.13184307 0.00000000
0.68627476 0.21500374 0.00000000
0.70746695 0.34081602 0.00000000
0.71923786 0.45506979 0.00000000
0.00000000 0.13993992 0.49041386
0.13031161 0.12342537 0.49989773
0.23748387 0.13053131 0.50191269
0.33931160 0.14623860 0.50836118
0.49999250 0.12500525 0.50000645
0.61247701 0.20704876 0.06593316
0.67360809 0.28160009 0.00000000
0.69161118 0.39051457 0.00000000
0.70059625 0.49535663 0.00000000
0.00000000 0.27486256 0.46161802
0.04074159 0.26566861 0.47866006
0.25245730 0.24928106 0.49991947
0.35373113 0.25773259 0.50562269
0.49999410 0.25000240 0.50000508
0.60843631 0.29838626 0.20863753
0.64827609 0.37167984 0.00000000
0.66093172 0.46375299 0.00000000
0.66335375 0.55823230 0.00000000
0.00000000 0.39542717 0.45648682
0.00000000 0.39313444 0.46027224
0.19561366 0.38889907 0.46869956
0.37598375 0.37471330 0.49995328
0.49999657 0.37500096 0.50000295
0.58557276 0.41321394 0.30546052
0.59933549 0.48379708 0.00000000
0.59828343 0.56395550 0.00000000
0.58435535 0.64345228 0.00000000
0.00000000 0.50000306 0.49998798
0.12498164 0.50000272 0.49998934
0.24999159 0.50000214 0.49999160
0.37499664 0.50000124 0.49999513
0.50000000 0.50000000 0.50000000
0.49740669 0.54928692 0.40052875
0.49418366 0.60447610 0.22641581
0.49029583 0.66428644 0.00000000
0.48570679 0.72769599 0.00000000
0.24136484 0.58842445 0.68209792
0.30289362 0.58702972 0.68539410
0.38430630 0.58499090 0.69103172
0.48388203 0.58203230 0.70013364
0.55837165 0.59282336 0.67634530
0.62498341 0.62500477 0.50000200
0.60883753 0.67704493 0.37972210
0.57053171 0.73812020 0.16140084
0.59687420 0.78942617 0.00000000
0.43068729 0.67023925 0.88194829
0.46950091 0.66889634 0.88439204
0.52550448 0.66724252 0.88865601
0.58945051 0.66963518 0.88329273
0.62272230 0.68980246 0.84239844
0.51154995 0.75772878 0.71510829
0.74996948 0.75000878 0.50000447
0.80970734 0.77890347 0.36939322
0.66654958 0.86808035 0.05690489
0.58161643 0.75670662 1.06587723
0.60479334 0.75740887 1.06454526
0.63760183 0.75998927 1.05969682
0.67729060 0.76705951 1.04533331
0.69156802 0.78951432 1.00312246
0.60334131 0.84322809 0.93527806
0.55589712 0.90745464 0.64063901
0.87495711 0.87501234 0.50000744
0.95009335 0.89710688 0.38444033
0.69562444 0.85341102 1.23031179
0.71152914 0.85526180 1.22648870
0.73462037 0.85930299 1.21840598
0.75861047 0.86888717 1.20131994
0.76380050 0.89109121 1.16069202
0.69519185 0.93559485 1.11069902
0.51483525 1.00739882 0.98164904
0.70731736 1.03436288 0.56857030
0.99994576 1.00001560 0.50001090
0.01204839 0.00000000 0.62486074
0.13179672 0.00000000 0.62465578
0.23201763 0.01045067 0.62707591
0.33220778 0.03429641 0.63373891
0.44755735 0.05790208 0.63592419
0.62498979 0.00001174 0.62500878
0.74750309 0.16297024 0.00000000
0.83125314 0.23168400 0.00000000
0.86521564 0.35529093 0.00000000
0.00000000 0.14125684 0.61861167
0.13337649 0.12248981 0.62487101
0.24681696 0.12648387 0.62530289
0.34359874 0.14372041 0.63137722
0.45230508 0.16176176 0.63532844
0.62499054 0.12500835 0.62500814
0.74345860 0.23290825 0.09156405
0.82529528 0.29014302 0.00000000
0.85332460 0.40238348 0.00000000
0.00000000 0.27414048 0.59888886
0.05023973 0.26347690 0.61254440
0.25428504 0.24874112 0.62488826
0.35961357 0.25576465 0.62782029
0.46183602 0.26817400 0.63448263
0.62499181 0.25000421 0.62500705
0.73901326 0.31866636 0.21800967
0.81064926 0.37311505 0.00000000
0.83198703 0.47175490 0.00000000
0.00000000 0.40424951 0.57090338
0.00000000 0.40119143 0.57742577
0.17783029 0.39219688 0.59685789
0.37725056 0.37434273 0.62491507
0.47771527 0.38249705 0.63116979
0.62499377 0.37500220 0.62500536
0.73470355 0.41840330 0.34386588
0.78107629 0.47933946 0.00002205
0.79555865 0.56410174 0.00000000
0.00000000 0.52296932 0.57614391
0.00000000 0.52148908 0.57798516
0.13519925 0.51900444 0.58272381
0.32695256 0.51398198 0.59177671
0.50095468 0.49972188 0.62495214
0.62499649 0.50000093 0.62500302
0.71257632 0.53513691 0.44137915
0.72745837 0.60080248 0.10051051
0.72826039 0.67622534 0.00000000
0.00000000 0.62500370 0.62498548
0.12497081 0.62500343 0.62498655
0.24998529 0.62500297 0.62498835
0.37499231 0.62500226 0.62499114
0.49999674 0.62500127 0.62499501
0.62500000 0.62500000 0.62500000
0.62245988 0.67372944 0.52969682
0.61940373 0.72754123 0.38486237
0.61580768 0.78551208 0.05551674
0.25740461 0.71572239 0.80187030
0.31656383 0.71459541 0.80405955
0.39592061 0.71284667 0.80874579
0.49527729 0.71005220 0.81616200
0.60343014 0.70678901 0.82652249
0.68279778 0.71740237 0.80249548
0.74998313 0.75000485 0.62500196
0.73913237 0.80041473 0.51205010
0.68874913 0.86351659 0.35479138
0.47012418 0.79619301 1.00404122
0.50490724 0.79527453 1.00604720
0.55707193 0.79372269 1.01144001
0.63150626 0.79108182 1.01766907
0.70812481 0.79254303 1.01404894
0.74577994 0.81349256 0.97047181
0.63714038 0.88372341 0.83393046
0.87496866 0.87500902 0.62500431
0.93651116 0.90280581 0.51213604
0.63517010 0.87965897 1.19775251
0.66033233 0.87905173 1.19897730
0.69896956 0.87868227 1.19883941
0.74611280 0.88087459 1.19457279
0.79518558 0.88818849 1.17931115
0.81285815 0.91217045 1.13309335
0.72053605 0.96936994 1.05934738
0.68140183 1.03497830 0.74561902
0.99995572 1.00001274 0.62500706
0.01716478 0.00000000 0.74983670
0.13749692 0.00000000 0.74955941
0.24376712 0.00376959 0.75050008
0.34028100 0.02857810 0.75525238
0.44247883 0.06127063 0.76261505
0.56612508 0.08342087 0.76143966
0.74998803 0.00001673 0.75001030
0.89062972 0.17601806 0.11528227
0.96635086 0.25995319 0.00000000
0.00000000 0.13359594 0.74697388
0.13709604 0.12132726 0.74984515
0.25332095 0.12342354 0.74973182
0.34999452 0.14041861 0.75371612
0.44995697 0.16240490 0.76104969
0.56905035 0.17783408 0.76143005
0.74998865 0.12501218 0.75000977
0.88338830 0.24820206 0.16998041
0.96372009 0.31043986 0.00000000
0.00000000 0.27114391 0.73352487
0.02670047 0.26644482 0.73978428
0.25652726 0.24807263 0.74985935
0.36820581 0.25264267 0.75085567
0.46383920 0.26707190 0.75816955
0.57454516 0.28012118 0.76103904
0.74998969 0.25000643 0.75000887
0.87434479 0.33608222 0.24855269
0.95797033 0.38271935 0.00000000
0.00000000 0.40926454 0.70111953
0.00000000 0.40281107 0.71231987
0.18411300 0.39012573 0.73288932
0.37880996 0.37388443 0.74988142
0.48318863 0.38078962 0.75342734
0.58518253 0.39177412 0.75996175
0.74999131 0.37500373 0.75000748
0.86578543 0.43590928 0.35391755
0.94381166 0.47848888 0.17477720
0.00000000 0.53236127 0.68472008
0.00000000 0.53043666 0.68859984
0.06661961 0.52684686 0.69599582
0.30974747 0.51799423 0.71711623
0.50213158 0.49937807 0.74991193
0.60212663 0.50732844 0.75660014
0.74999354 0.50000208 0.75000556
0.86057385 0.54045759 0.47375920
0.91179005 0.59307903 0.27287315
0.00000000 0.64947790 0.69646253
0.00000000 0.64879874 0.69792827
0.03788287 0.64747596 0.70076203
0.28234810 0.64442528 0.70569861
0.45532283 0.63902444 0.71545669
0.62593574 0.62472746 0.74995133
0.74999643 0.62500091 0.75000307
0.83893438 0.65813333 0.57282690
0.85473265 0.72022665 0.32629110
0.00000000 0.75000434 0.74998297
0.12495742 0.75000411 0.74998385
0.24997751 0.75000374 0.74998533
0.37498696 0.75000315 0.74998763
0.49999272 0.75000234 0.74999082
0.62499681 0.75000129 0.74999492
0.75000000 0.75000000 0.75000000
0.74749720 0.79832716 0.65742806
0.74455733 0.85111187 0.52748244
0.27096833 0.84263892 0.92218110
0.32468540 0.84206192 0.92399639
0.40221478 0.84075463 0.92699271
0.50146972 0.83835582 0.93220275
0.61096289 0.83511809 0.94107372
0.72461547 0.83161258 0.95253891
0.80738183 0.84209241 0.92836970
0.87498292 0.87500491 0.75000193
0.86804589 0.92415911 0.64190362
0.50883312 0.92170369 1.12656663
0.53848163 0.92130764 1.12872745
0.58655923 0.92042184 1.13152293
0.65600796 0.91848703 1.13702778
0.74238931 0.91531826 1.14542137
0.82835441 0.91598200 1.14362799
0.86933407 0.93749309 1.09791690
0.76271667 1.00946362 0.95415174
0.99996802 1.00000920 0.75000420
0.02329146 0.00000000 0.87481265
0.14308938 0.00000000 0.87452787
0.25249571 0.00000000 0.87480801
0.34966171 0.02135554 0.87798863
0.45077158 0.05296264 0.88416327
0.55657023 0.09235496 0.89033830
0.68486092 0.11017724 0.88727626
0.87498626 0.00002270 0.87501182
1.02467154 0.19171806 0.29067500
0.00000000 0.13002371 0.87314368
0.14145792 0.11992522 0.87481980
0.25825794 0.12096003 0.87452776
0.36076802 0.13420029 0.87656244
0.45881933 0.15661724 0.88263226
0.56155865 0.18183579 0.88983341
0.68751777 0.19470831 0.88672656
0.87498679 0.12501676 0.87501137
1.02454084 0.25495031 0.30244387
0.00000000 0.27468108 0.86072131
0.03386550 0.26489120 0.86834271
0.25918971 0.24727007 0.87483180
0.37520261 0.24992879 0.87495365
0.47019845 0.26445135 0.88009890
0.56990768 0.28168672 0.88805889
0.69157726 0.29207615 0.88658446
0.87498767 0.25000910 0.87501061
1.02168289 0.33947621 0.32822771
0.00000000 0.40799084 0.83875976
0.00000000 0.40042941 0.84962174
0.17704051 0.39105453 0.86115312
0.38066914 0.37333491 0.87485046
0.49077337 0.37826995 0.87637003
0.58576292 0.39123473 0.88462427
0.69792982 0.40164005 0.88653568
0.87498904 0.37500556 0.87500943
1.00593587 0.44684769 0.39090125
0.00000000 0.54065981 0.80590838
0.00000000 0.53751942 0.81224123
0.01561899 0.53065662 0.82672335
0.31276577 0.51641838 0.85339281
0.50353717 0.49896604 0.87487626
0.60742434 0.50574639 0.87887469
0.70906546 0.51594328 0.88527218
0.87499093 0.50000346 0.87500781
0.99255936 0.55579693 0.48564027
0.00000000 0.66044065 0.80086941
0.00000000 0.65921234 0.80398187
0.00000000 0.65649990 0.80814923
0.23877349 0.65240435 0.81745105
0.43800455 0.64350712 0.83908270
0.62705432 0.62440095 0.87490957
0.72674629 0.63220742 0.88192010
0.87499337 0.62500201 0.87500570
0.98606433 0.66357564 0.60176307
0.00000000 0.77596396 0.81826331
0.00000000 0.77532877 0.81895990
0.00000000 0.77442177 0.82060875
0.22876137 0.77292687 0.82393476
0.41793175 0.76964834 0.82917238
0.58206058 0.76410779 0.83969919
0.75092243 0.74973139 0.87495072
0.87499639 0.75000090 0.87500311
0.96500656 0.78170450 0.70200483
0.00000000 0.87500498 0.87498046
0.12494139 0.87500479 0.87498121
0.24996819 0.87500447 0.87498246
0.37498055 0.87500397 0.87498441
0.49998791 0.87500329 0.87498710
0.62499299 0.87500240 0.87499057
0.74999686 0.87500131 0.87499486
0.87500000 0.87500000 0.87500000
0.87252483 0.92302326 0.78436012
0.28150748 0.96924968 1.04400894
0.33396211 0.96880043 1.04490320
0.40868746 0.96791406 1.04661096
0.50279596 0.96652095 1.05040647
0.61319795 0.96377300 1.05613716
0.72941766 0.96017197 1.06591529
0.84686681 0.95647038 1.07824913
0.93206658 0.96685471 1.05405682
0.99998276 1.00000496 0.87500191
0.03045981 0.00000000 0.99978861
0.14885416 0.00000000 0.99951673
0.25919032 0.00000000 0.99950523
0.36186020 0.01141321 1.00118654
0.45717943 0.04705928 1.00620478
0.55912338 0.08858720 1.01360352
0.67086370 0.12472336 1.01769992
0.80176483 0.13891005 1.01409264
0.99998450 0.00002968 1.00001334
0.00000000 0.12717302 0.99874807
0.14644170 0.11827073 0.99979478
0.26279560 0.11858911 0.99944780
0.37060905 0.12797294 1.00035132
0.46481728 0.15284826 1.00506271
0.56594901 0.17846527 1.01212085
0.67479322 0.20356718 1.01687275
0.80454703 0.21381387 1.01378157
0.99998495 0.12502212 1.00001295
0.00000000 0.27590425 0.98918753
0.08478825 0.25753110 0.99650875
0.26227443 0.24632817 0.99980513
0.38029354 0.24786203 0.99957623
0.47878766 0.26056760 1.00286875
0.57729604 0.27782571 1.00976788
0.68163996 0.29682361 1.01594445
0.80878834 0.30540779 1.01287648
0.99998571 0.25001222 1.00001229
0.00000000 0.40485003 0.97493304
0.00000000 0.39880755 0.98089609
0.16219610 0.39291064 0.98903634
0.38283330 0.37269096 0.99982123
0.49794577 0.37575178 1.00020854
0.59279921 0.38864309 1.00617577
0.69203242 0.40348562 1.01457241
0.81470132 0.41154429 1.01172817
0.99998689 0.37500771 1.00001128
0.00000000 0.54328779 0.94025945
0.00000000 0.53840136 0.94894762
0.02198867 0.52927481 0.96373305
0.31487827 0.51553289 0.98389995
0.50517667 0.49848352 0.99984349
0.61409986 0.50364914 1.00181677
0.70869520 0.51571593 1.01071224
0.82179484 0.52459144 1.01169350
0.99998852 0.50000507 1.00000987
0.00000000 0.66928999 0.91783785
0.00000000 0.66734748 0.92053374
0.00000000 0.66440324 0.92782059
0.20052134 0.65733757 0.94440447
0.44019637 0.64226186 0.97427377
0.62836042 0.62401869 0.99987223
0.73197675 0.63068842 1.00421522
0.83329139 0.64037845 1.01050693
0.99999063 0.62500328 1.00000806
0.00000000 0.78867903 0.91871040
0.00000000 0.78743339 0.92037892
0.00000000 0.78530890 0.92330560
0.14753621 0.78241797 0.92971715
0.38234566 0.77768515 0.93945035
0.56518664 0.76883437 0.96170947
0.75200014 0.74941697 0.99990774
0.85148359 0.75711614 1.00716682
0.99999324 0.75000195 1.00000582
0.00000000 0.90190166 0.94026442
0.00000000 0.90159624 0.94095170
0.00000000 0.90106825 0.94221142
0.16871196 0.89986753 0.94402119
0.37801563 0.89818929 0.94754587
0.54908521 0.89481094 0.95306533
0.70824026 0.88917041 0.96412770
0.87591256 0.87473429 0.99995026
0.99999635 0.87500089 1.00000314
0.00000000 1.00000562 0.99997796
0.12492264 1.00000545 0.99997860
0.24995728 1.00000518 0.99997968
0.37497304 1.00000475 0.99998136
0.49998227 1.00000416 0.99998368
0.62498852 1.00000339 0.99998668
0.74999318 1.00000245 0.99999038
0.87499689 1.00000132 0.99999481
1.00000000 1.00000000 1.00000000
