HLG_to_BT709.cube
TITLE "Rec2100HLG_Rec2100-Rec709_Rec709"
LUT_3D_SIZE 9
# Crated by Francesco Bucciantini
0.000000 0.000000 0.000000
0.297506 0.000000 0.000000
0.600246 0.000000 0.000000
0.754486 0.000000 0.000000
0.842389 0.000000 0.000000
0.907823 0.000000 0.000000
0.959442 0.000000 0.000000
0.987233 0.000000 0.000000
0.991596 0.000000 0.000000
0.000000 0.234833 0.000000
0.226751 0.217788 0.000000
0.580503 0.158217 0.000000
0.747669 0.003360 0.000000
0.839324 0.000000 0.000000
0.906479 0.000000 0.000000
0.958990 0.000000 0.000000
0.987159 0.000000 0.000000
0.991590 0.000000 0.000000
0.000000 0.516096 0.000000
0.000000 0.509690 0.000000
0.503545 0.489090 0.000000
0.724803 0.449111 0.000000
0.829507 0.380983 0.000000
0.902275 0.229978 0.000000
0.957594 0.000000 0.000000
0.986932 0.000000 0.000000
0.991570 0.000000 0.000000
0.000000 0.686017 0.000000
0.000000 0.683688 0.000000
0.262623 0.676475 0.000000
0.675637 0.663633 0.000000
0.810693 0.643658 0.000000
0.894638 0.603987 0.000000
0.955131 0.478730 0.000000
0.986528 0.000000 0.000000
0.991536 0.000000 0.000000
0.000000 0.786050 0.000000
0.000000 0.784958 0.000000
0.000000 0.781620 0.000000
0.561277 0.775839 0.000000
0.777353 0.767251 0.000000
0.882380 0.751595 0.000000
0.951369 0.712946 0.000000
0.985907 0.576889 0.000000
0.991488 0.000000 0.000000
0.000000 0.863729 0.000000
0.000000 0.863222 0.000000
0.000000 0.861683 0.000000
0.000000 0.859055 0.000000
0.689050 0.855241 0.000000
0.856734 0.848556 0.000000
0.944208 0.833471 0.000000
0.984729 0.794020 0.000000
0.991408 0.620810 0.000000
0.000000 0.930009 0.000000
0.000000 0.929816 0.000000
0.000000 0.929232 0.000000
0.000000 0.928243 0.000000
0.000000 0.926829 0.000000
0.764844 0.924404 0.000000
0.925054 0.919185 0.000000
0.981691 0.907063 0.000000
0.991241 0.873228 0.000000
0.000000 0.974472 0.000000
0.000000 0.974420 0.000000
0.000000 0.974262 0.000000
0.000000 0.973996 0.000000
0.000000 0.973617 0.000000
0.000000 0.972974 0.000000
0.844793 0.971616 0.000000
0.971841 0.968602 0.000000
0.990880 0.961176 0.000000
0.000000 0.990217 0.000000
0.000000 0.990215 0.000000
0.000000 0.990209 0.000000
0.000000 0.990199 0.000000
0.000000 0.990184 0.000000
0.000000 0.990160 0.000000
0.000000 0.990111 0.000000
0.915613 0.990010 0.000000
0.990021 0.989684 0.000000
0.000000 0.000000 0.232948
0.289582 0.000000 0.230514
0.597918 0.000000 0.223075
0.753660 0.000000 0.210187
0.842014 0.000000 0.190956
0.907657 0.000000 0.155176
0.959386 0.000000 0.054942
0.987224 0.000000 0.000000
0.991595 0.000000 0.000000
0.000000 0.233724 0.219170
0.216605 0.216605 0.216605
0.577892 0.156688 0.208752
0.746799 0.001011 0.195091
0.838937 0.000000 0.174547
0.906310 0.000000 0.135655
0.958933 0.000000 0.026654
0.987150 0.000000 0.000000
0.991589 0.000000 0.000000
0.000000 0.515673 0.172624
0.000000 0.509253 0.169505
0.499571 0.488603 0.159872
0.723769 0.448517 0.142763
0.829079 0.380272 0.115971
0.902095 0.228848 0.060703
0.957535 0.000000 0.000000
0.986922 0.000000 0.000000
0.991569 0.000000 0.000000
0.000000 0.685862 0.060052
0.000000 0.683531 0.054947
0.253729 0.676310 0.039633
0.674182 0.663454 0.014108
0.810181 0.643454 0.000000
0.894437 0.603728 0.000000
0.955068 0.478217 0.000000
0.986517 0.000000 0.000000
0.991535 0.000000 0.000000
0.000000 0.785977 0.000000
0.000000 0.784885 0.000000
0.000000 0.781544 0.000000
0.558366 0.775760 0.000000
0.776667 0.767166 0.000000
0.882144 0.751499 0.000000
0.951298 0.712817 0.000000
0.985896 0.576586 0.000000
0.991487 0.000000 0.000000
0.000000 0.863695 0.000000
0.000000 0.863188 0.000000
0.000000 0.861648 0.000000
0.000000 0.859020 0.000000
0.687719 0.855204 0.000000
0.856413 0.848516 0.000000
0.944125 0.833424 0.000000
0.984715 0.793952 0.000000
0.991407 0.620575 0.000000
0.000000 0.929996 0.000000
0.000000 0.929803 0.000000
0.000000 0.929218 0.000000
0.000000 0.928230 0.000000
0.000000 0.926815 0.000000
0.764084 0.924390 0.000000
0.924930 0.919169 0.000000
0.981672 0.907044 0.000000
0.991240 0.873197 0.000000
0.000000 0.974469 0.000000
0.000000 0.974416 0.000000
0.000000 0.974258 0.000000
0.000000 0.973992 0.000000
0.000000 0.973613 0.000000
0.000000 0.972970 0.000000
0.844428 0.971612 0.000000
0.971806 0.968598 0.000000
0.990879 0.961170 0.000000
0.000000 0.990217 0.000000
0.000000 0.990215 0.000000
0.000000 0.990209 0.000000
0.000000 0.990199 0.000000
0.000000 0.990184 0.000000
0.000000 0.990160 0.000000
0.000000 0.990111 0.000000
0.915468 0.990009 0.000000
0.990020 0.989684 0.000000
0.000000 0.000000 0.513207
0.264528 0.000000 0.512273
0.590737 0.000000 0.509443
0.751151 0.000000 0.504631
0.840881 0.000000 0.497686
0.907160 0.000000 0.485624
0.959218 0.000000 0.458877
0.987197 0.000000 0.394548
0.991593 0.000000 0.215177
0.000000 0.230368 0.507972
0.183455 0.213023 0.507012
0.569820 0.152035 0.504102
0.744152 0.000000 0.499154
0.837767 0.000000 0.492006
0.905802 0.000000 0.479579
0.958763 0.000000 0.451953
0.987123 0.000000 0.386192
0.991586 0.000000 0.200389
0.000000 0.514399 0.491356
0.000000 0.507936 0.490310
0.487138 0.487138 0.487138
0.720620 0.446725 0.481734
0.827787 0.378131 0.473911
0.901554 0.225431 0.460258
0.957358 0.000000 0.429853
0.986893 0.000000 0.359996
0.991566 0.000000 0.149456
0.000000 0.685396 0.460103
0.000000 0.683057 0.458878
0.225236 0.675813 0.455159
0.669729 0.662913 0.448806
0.808631 0.642841 0.439574
0.893833 0.602947 0.423758
0.954877 0.476672 0.390028
0.986486 0.000000 0.311732
0.991533 0.000000 0.023839
0.000000 0.785758 0.407868
0.000000 0.784664 0.406420
0.000000 0.781317 0.402048
0.549343 0.775521 0.394655
0.774585 0.766910 0.384072
0.881432 0.751209 0.365915
0.951087 0.712431 0.326484
0.985861 0.575672 0.229319
0.991485 0.000000 0.000000
0.000000 0.863593 0.301835
0.000000 0.863085 0.299904
0.000000 0.861544 0.294043
0.000000 0.858912 0.284031
0.683656 0.855092 0.269451
0.855443 0.848396 0.243649
0.943872 0.833283 0.182838
0.984674 0.793747 0.000000
0.991405 0.619869 0.000000
0.000000 0.929957 0.000000
0.000000 0.929764 0.000000
0.000000 0.929179 0.000000
0.000000 0.928190 0.000000
0.000000 0.926774 0.000000
0.761775 0.924347 0.000000
0.924557 0.919122 0.000000
0.981616 0.906986 0.000000
0.991237 0.873106 0.000000
0.000000 0.974458 0.000000
0.000000 0.974406 0.000000
0.000000 0.974248 0.000000
0.000000 0.973981 0.000000
0.000000 0.973602 0.000000
0.000000 0.972959 0.000000
0.843323 0.971600 0.000000
0.971701 0.968584 0.000000
0.990876 0.961152 0.000000
0.000000 0.990217 0.000000
0.000000 0.990215 0.000000
0.000000 0.990208 0.000000
0.000000 0.990198 0.000000
0.000000 0.990184 0.000000
0.000000 0.990159 0.000000
0.000000 0.990110 0.000000
0.915028 0.990009 0.000000
0.990016 0.989683 0.000000
0.000000 0.000000 0.683632
0.217292 0.000000 0.683289
0.578067 0.000000 0.682257
0.746857 0.000000 0.680520
0.838963 0.000000 0.678054
0.906321 0.000000 0.673884
0.958937 0.000000 0.665133
0.987151 0.000000 0.645874
0.991589 0.000000 0.598384
0.000000 0.224681 0.681723
0.113961 0.206938 0.681376
0.555499 0.144037 0.680331
0.739617 0.000000 0.678571
0.835786 0.000000 0.676073
0.904946 0.000000 0.671847
0.958478 0.000000 0.662975
0.987076 0.000000 0.643433
0.991582 0.000000 0.595125
0.000000 0.512257 0.675848
0.000000 0.505720 0.675487
0.464497 0.484670 0.674399
0.715207 0.443704 0.672569
0.825595 0.374537 0.669969
0.900642 0.219635 0.665568
0.957060 0.000000 0.656317
0.986844 0.000000 0.635879
0.991562 0.000000 0.584964
0.000000 0.684616 0.665519
0.000000 0.682265 0.665133
0.169381 0.674982 0.663969
0.662009 0.662009 0.662009
0.805997 0.641813 0.659222
0.892815 0.601637 0.654501
0.954557 0.474070 0.644552
0.986433 0.000000 0.622452
0.991528 0.000000 0.566597
0.000000 0.785393 0.649791
0.000000 0.784294 0.649364
0.000000 0.780937 0.648076
0.533243 0.775123 0.645905
0.771033 0.766482 0.642816
0.880231 0.750724 0.637572
0.950732 0.711784 0.626478
0.985802 0.574139 0.601619
0.991481 0.000000 0.537256
0.000000 0.863423 0.619795
0.000000 0.862915 0.619281
0.000000 0.861370 0.617730
0.000000 0.858733 0.615112
0.676627 0.854905 0.611376
0.853804 0.848194 0.605009
0.943448 0.833047 0.591432
0.984605 0.793406 0.560427
0.991400 0.618685 0.475634
0.000000 0.929892 0.536236
0.000000 0.929699 0.535409
0.000000 0.929113 0.532907
0.000000 0.928123 0.528661
0.000000 0.926705 0.522550
0.757829 0.924275 0.511988
0.923929 0.919043 0.488802
0.981520 0.906890 0.432016
0.991233 0.872955 0.275992
0.000000 0.974441 0.067144
0.000000 0.974388 0.062039
0.000000 0.974230 0.046724
0.000000 0.973963 0.021200
0.000000 0.973584 0.000000
0.000000 0.972940 0.000000
0.841453 0.971580 0.000000
0.971525 0.968561 0.000000
0.990871 0.961122 0.000000
0.000000 0.990216 0.000000
0.000000 0.990214 0.000000
0.000000 0.990208 0.000000
0.000000 0.990197 0.000000
0.000000 0.990183 0.000000
0.000000 0.990159 0.000000
0.000000 0.990109 0.000000
0.914288 0.990008 0.000000
0.990009 0.989681 0.000000
0.000000 0.000000 0.784055
0.130971 0.000000 0.783894
0.558650 0.000000 0.783409
0.740597 0.000000 0.782596
0.836212 0.000000 0.781448
0.905129 0.000000 0.779526
0.958539 0.000000 0.775562
0.987086 0.000000 0.767171
0.991583 0.000000 0.748358
0.000000 0.216507 0.783159
0.000000 0.198162 0.782996
0.533346 0.132266 0.782507
0.732996 0.000000 0.781688
0.832943 0.000000 0.780532
0.903729 0.000000 0.778595
0.958074 0.000000 0.774599
0.987010 0.000000 0.766140
0.991576 0.000000 0.747161
0.000000 0.509217 0.780429
0.000000 0.502574 0.780262
0.428080 0.481163 0.779762
0.707260 0.439408 0.778924
0.822445 0.369448 0.777741
0.899344 0.211298 0.775757
0.956638 0.000000 0.771665
0.986775 0.000000 0.762994
0.991556 0.000000 0.743502
0.000000 0.683518 0.775735
0.000000 0.681149 0.775562
0.052761 0.673810 0.775042
0.650512 0.660733 0.774170
0.802201 0.640362 0.772939
0.891365 0.599787 0.770874
0.954104 0.470368 0.766612
0.986359 0.000000 0.757567
0.991522 0.000000 0.737168
0.000000 0.784879 0.768841
0.000000 0.783776 0.768658
0.000000 0.780403 0.768108
0.508089 0.774562 0.767185
0.765881 0.765881 0.765881
0.878517 0.750042 0.763693
0.950230 0.710873 0.759172
0.985719 0.571970 0.749558
0.991475 0.000000 0.727762
0.000000 0.863185 0.756518
0.000000 0.862675 0.756316
0.000000 0.861126 0.755709
0.000000 0.858481 0.754689
0.666203 0.854642 0.753248
0.851459 0.847912 0.750828
0.942848 0.832717 0.745818
0.984507 0.792926 0.735118
0.991394 0.617014 0.710627
0.000000 0.929802 0.727450
0.000000 0.929608 0.727198
0.000000 0.929021 0.726440
0.000000 0.928029 0.725166
0.000000 0.926609 0.723363
0.752090 0.924174 0.720327
0.923038 0.918933 0.714010
0.981385 0.906756 0.700376
0.991227 0.872742 0.668354
0.000000 0.974416 0.640366
0.000000 0.974363 0.639913
0.000000 0.974205 0.638546
0.000000 0.973938 0.636241
0.000000 0.973558 0.632959
0.000000 0.972913 0.627381
0.838773 0.971551 0.615551
0.971276 0.968528 0.588894
0.990864 0.961080 0.518772
0.000000 0.990215 0.000000
0.000000 0.990213 0.000000
0.000000 0.990207 0.000000
0.000000 0.990196 0.000000
0.000000 0.990182 0.000000
0.000000 0.990158 0.000000
0.000000 0.990108 0.000000
0.913237 0.990007 0.000000
0.990000 0.989679 0.000000
0.000000 0.000000 0.862128
0.000000 0.000000 0.862053
0.521147 0.000000 0.861827
0.729547 0.000000 0.861450
0.831485 0.000000 0.860919
0.903110 0.000000 0.860033
0.957869 0.000000 0.858224
0.986977 0.000000 0.854470
0.991573 0.000000 0.846413
0.000000 0.202386 0.861711
0.000000 0.182906 0.861636
0.489774 0.111001 0.861409
0.721277 0.000000 0.861030
0.828055 0.000000 0.860496
0.901666 0.000000 0.859606
0.957394 0.000000 0.857788
0.986899 0.000000 0.854015
0.991567 0.000000 0.845917
0.000000 0.504081 0.860448
0.000000 0.497255 0.860372
0.358518 0.475221 0.860142
0.693057 0.432201 0.859757
0.817015 0.360879 0.859216
0.897144 0.196871 0.858313
0.955929 0.000000 0.856468
0.986659 0.000000 0.852638
0.991547 0.000000 0.844413
0.000000 0.681682 0.858303
0.000000 0.679284 0.858224
0.000000 0.671852 0.857988
0.629453 0.658600 0.857594
0.795622 0.637934 0.857039
0.888901 0.596682 0.856114
0.953342 0.464092 0.854223
0.986233 0.000000 0.850295
0.991513 0.000000 0.841851
0.000000 0.784023 0.855209
0.000000 0.782912 0.855128
0.000000 0.779515 0.854884
0.457620 0.773629 0.854476
0.756859 0.764879 0.853901
0.875599 0.748907 0.852943
0.949384 0.709354 0.850984
0.985580 0.568324 0.846912
0.991465 0.000000 0.838147
0.000000 0.862789 0.849847
0.000000 0.862277 0.849761
0.000000 0.860720 0.849502
0.000000 0.858064 0.849069
0.647251 0.854206 0.848460
0.847443 0.847443 0.847443
0.941837 0.832167 0.845362
0.984342 0.792129 0.841034
0.991384 0.614211 0.831692
0.000000 0.929651 0.838026
0.000000 0.929456 0.837928
0.000000 0.928868 0.837635
0.000000 0.927873 0.837145
0.000000 0.926449 0.836454
0.741998 0.924007 0.835300
0.921533 0.918750 0.832937
0.981159 0.906533 0.828007
0.991216 0.872388 0.817304
0.000000 0.974375 0.808889
0.000000 0.974323 0.808759
0.000000 0.974164 0.808370
0.000000 0.973896 0.807718
0.000000 0.973516 0.806799
0.000000 0.972869 0.805261
0.834171 0.971505 0.802102
0.970858 0.968475 0.795461
0.990852 0.961009 0.780808
0.000000 0.990213 0.709079
0.000000 0.990211 0.708791
0.000000 0.990205 0.707925
0.000000 0.990195 0.706469
0.000000 0.990180 0.704406
0.000000 0.990156 0.700927
0.000000 0.990107 0.693664
0.911459 0.990006 0.677865
0.989985 0.989675 0.640058
0.000000 0.000000 0.928880
0.000000 0.000000 0.928852
0.413420 0.000000 0.928765
0.704182 0.000000 0.928621
0.821247 0.000000 0.928419
0.898855 0.000000 0.928082
0.956480 0.000000 0.927399
0.986749 0.000000 0.925997
0.991554 0.000000 0.923064
0.000000 0.171208 0.928721
0.000000 0.148681 0.928692
0.364424 0.059045 0.928606
0.694220 0.000000 0.928461
0.817450 0.000000 0.928258
0.897318 0.000000 0.927920
0.955985 0.000000 0.927235
0.986668 0.000000 0.925829
0.991547 0.000000 0.922886
0.000000 0.493315 0.928240
0.000000 0.486095 0.928211
0.149011 0.462705 0.928123
0.659550 0.417329 0.927978
0.805173 0.343022 0.927773
0.892498 0.164885 0.927432
0.954458 0.000000 0.926740
0.986417 0.000000 0.925321
0.991527 0.000000 0.922351
0.000000 0.677920 0.927428
0.000000 0.675461 0.927399
0.000000 0.667834 0.927310
0.576737 0.654218 0.927162
0.781119 0.632936 0.926954
0.883687 0.590259 0.926608
0.951759 0.450840 0.925906
0.985972 0.000000 0.924464
0.991493 0.000000 0.921448
0.000000 0.782284 0.926271
0.000000 0.781156 0.926241
0.000000 0.777708 0.926150
0.315854 0.771731 0.925999
0.736521 0.762839 0.925787
0.869392 0.746591 0.925433
0.947626 0.706249 0.924715
0.985290 0.560755 0.923243
0.991445 0.000000 0.920158
0.000000 0.861987 0.924302
0.000000 0.861470 0.924270
0.000000 0.859899 0.924176
0.000000 0.857218 0.924020
0.600664 0.853323 0.923799
0.838803 0.846491 0.923433
0.939730 0.831052 0.922689
0.984000 0.790507 0.921161
0.991364 0.608427 0.917961
0.000000 0.929347 0.920116
0.000000 0.929151 0.920083
0.000000 0.928560 0.919982
0.000000 0.927559 0.919813
0.000000 0.926126 0.919576
0.719028 0.923670 0.919181
0.918380 0.918380 0.918380
0.980690 0.906083 0.916733
0.991195 0.871673 0.913279
0.000000 0.974293 0.910674
0.000000 0.974240 0.910635
0.000000 0.974081 0.910517
0.000000 0.973812 0.910320
0.000000 0.973430 0.910042
0.000000 0.972781 0.909581
0.824213 0.971410 0.908643
0.969993 0.968367 0.906714
0.990828 0.960868 0.902652
0.000000 0.990210 0.886195
0.000000 0.990208 0.886139
0.000000 0.990202 0.885971
0.000000 0.990192 0.885691
0.000000 0.990177 0.885296
0.000000 0.990153 0.884639
0.000000 0.990103 0.883299
0.907723 0.990002 0.880532
0.989950 0.989667 0.874654
0.000000 0.000000 0.973882
0.000000 0.000000 0.973874
0.000000 0.000000 0.973850
0.634134 0.000000 0.973811
0.797044 0.000000 0.973756
0.889428 0.000000 0.973664
0.953504 0.000000 0.973478
0.986260 0.000000 0.973099
0.991515 0.000000 0.972313
0.000000 0.089171 0.973838
0.000000 0.054095 0.973830
0.000000 0.000000 0.973807
0.618155 0.000000 0.973767
0.792285 0.000000 0.973712
0.887675 0.000000 0.973620
0.952966 0.000000 0.973434
0.986171 0.000000 0.973053
0.991508 0.000000 0.972266
0.000000 0.469684 0.973707
0.000000 0.461533 0.973699
0.000000 0.434974 0.973675
0.558557 0.385706 0.973635
0.776712 0.304132 0.973580
0.882160 0.078917 0.973487
0.951303 0.000000 0.973299
0.985897 0.000000 0.972917
0.991487 0.000000 0.972124
0.000000 0.670056 0.973486
0.000000 0.667465 0.973478
0.000000 0.659420 0.973454
0.380732 0.645016 0.973414
0.745296 0.622392 0.973357
0.872008 0.576574 0.973264
0.948360 0.421816 0.973074
0.985411 0.000000 0.972687
0.991453 0.000000 0.971886
0.000000 0.778705 0.973173
0.000000 0.777543 0.973165
0.000000 0.773987 0.973140
0.000000 0.767820 0.973099
0.683202 0.758633 0.973042
0.855336 0.741806 0.972947
0.943844 0.699788 0.972754
0.984670 0.544497 0.972361
0.991404 0.000000 0.971547
0.000000 0.860352 0.972643
0.000000 0.859825 0.972635
0.000000 0.858224 0.972610
0.000000 0.855490 0.972568
0.436765 0.851519 0.972509
0.818721 0.844548 0.972412
0.935180 0.828772 0.972214
0.983270 0.787174 0.971810
0.991322 0.596158 0.970975
0.000000 0.928730 0.971536
0.000000 0.928532 0.971527
0.000000 0.927933 0.971501
0.000000 0.926920 0.971457
0.000000 0.925470 0.971395
0.657155 0.922984 0.971292
0.911483 0.917628 0.971083
0.979692 0.905167 0.970658
0.991151 0.870214 0.969778
0.000000 0.974127 0.969124
0.000000 0.974073 0.969115
0.000000 0.973912 0.969085
0.000000 0.973641 0.969036
0.000000 0.973256 0.968967
0.000000 0.972601 0.968853
0.800744 0.971218 0.968621
0.968148 0.968148 0.968148
0.990780 0.960581 0.967169
0.000000 0.990204 0.963416
0.000000 0.990202 0.963404
0.000000 0.990195 0.963367
0.000000 0.990185 0.963307
0.000000 0.990170 0.963221
0.000000 0.990146 0.963079
0.000000 0.990097 0.962791
0.899494 0.989995 0.962202
0.989863 0.989651 0.960982
0.000000 0.000000 0.990172
0.000000 0.000000 0.990172
0.000000 0.000000 0.990171
0.210460 0.000000 0.990169
0.724616 0.000000 0.990167
0.865986 0.000000 0.990163
0.946685 0.000000 0.990156
0.985135 0.000000 0.990142
0.991434 0.000000 0.990113
0.000000 0.000000 0.990170
0.000000 0.000000 0.990170
0.000000 0.000000 0.990169
0.102662 0.000000 0.990167
0.716036 0.000000 0.990165
0.863630 0.000000 0.990162
0.946043 0.000000 0.990155
0.985030 0.000000 0.990140
0.991427 0.000000 0.990111
0.000000 0.412841 0.990165
0.000000 0.402928 0.990165
0.000000 0.371643 0.990164
0.000000 0.312941 0.990162
0.686647 0.207306 0.990160
0.856155 0.000000 0.990157
0.944058 0.000000 0.990150
0.984704 0.000000 0.990135
0.991407 0.000000 0.990106
0.000000 0.652902 0.990157
0.000000 0.650006 0.990156
0.000000 0.640987 0.990155
0.000000 0.624735 0.990154
0.619717 0.598915 0.990152
0.842137 0.545375 0.990148
0.940532 0.356212 0.990141
0.984130 0.000000 0.990127
0.991371 0.000000 0.990097
0.000000 0.771165 0.990145
0.000000 0.769928 0.990144
0.000000 0.766139 0.990144
0.000000 0.759556 0.990142
0.432054 0.749722 0.990140
0.818311 0.731620 0.990136
0.935092 0.685850 0.990129
0.983256 0.506719 0.990115
0.991321 0.000000 0.990085
0.000000 0.856966 0.990125
0.000000 0.856419 0.990125
0.000000 0.854755 0.990124
0.000000 0.851913 0.990122
0.000000 0.847779 0.990120
0.761695 0.840515 0.990116
0.924544 0.824022 0.990109
0.981614 0.780166 0.990095
0.991237 0.568481 0.990065
0.000000 0.927466 0.990085
0.000000 0.927263 0.990085
0.000000 0.926650 0.990084
0.000000 0.925613 0.990082
0.000000 0.924127 0.990080
0.323564 0.921580 0.990076
0.894872 0.916087 0.990069
0.977437 0.903285 0.990054
0.991062 0.867200 0.990024
0.000000 0.973787 0.990003
0.000000 0.973733 0.990003
0.000000 0.973569 0.990002
0.000000 0.973293 0.990000
0.000000 0.972901 0.989998
0.000000 0.972235 0.989994
0.731171 0.970827 0.989986
0.963974 0.967702 0.989969
0.990682 0.959995 0.989932
0.000000 0.990191 0.989755
0.000000 0.990189 0.989754
0.000000 0.990182 0.989752
0.000000 0.990172 0.989749
0.000000 0.990157 0.989744
0.000000 0.990133 0.989736
0.000000 0.990083 0.989721
0.879337 0.989980 0.989688
0.989618 0.989618 0.989618
