HLG_to_BT709.cube
TITLE "Rec2100HLG_Rec2100-Rec709_Rec709"
LUT_3D_SIZE 33
# Crated by Francesco Bucciantini
0.000000 0.000000 0.000000
0.029188 0.000000 0.000000
0.113482 0.000000 0.000000
0.207059 0.000000 0.000000
0.297506 0.000000 0.000000
0.385696 0.000000 0.000000
0.470996 0.000000 0.000000
0.542201 0.000000 0.000000
0.600246 0.000000 0.000000
0.648539 0.000000 0.000000
0.689356 0.000000 0.000000
0.724287 0.000000 0.000000
0.754486 0.000000 0.000000
0.780809 0.000000 0.000000
0.803911 0.000000 0.000000
0.824303 0.000000 0.000000
0.842389 0.000000 0.000000
0.859368 0.000000 0.000000
0.876072 0.000000 0.000000
0.892291 0.000000 0.000000
0.907823 0.000000 0.000000
0.922474 0.000000 0.000000
0.936069 0.000000 0.000000
0.948441 0.000000 0.000000
0.959442 0.000000 0.000000
0.968937 0.000000 0.000000
0.976804 0.000000 0.000000
0.982935 0.000000 0.000000
0.987233 0.000000 0.000000
0.989611 0.000000 0.000000
0.990371 0.000000 0.000000
0.990982 0.000000 0.000000
0.991596 0.000000 0.000000
0.000000 0.019914 0.000000
0.018859 0.017725 0.000000
0.104807 0.011157 0.000000
0.201584 0.000210 0.000000
0.293536 0.000000 0.000000
0.382596 0.000000 0.000000
0.468642 0.000000 0.000000
0.540578 0.000000 0.000000
0.599076 0.000000 0.000000
0.647667 0.000000 0.000000
0.688688 0.000000 0.000000
0.723765 0.000000 0.000000
0.754070 0.000000 0.000000
0.780473 0.000000 0.000000
0.803637 0.000000 0.000000
0.824077 0.000000 0.000000
0.842200 0.000000 0.000000
0.859212 0.000000 0.000000
0.875944 0.000000 0.000000
0.892187 0.000000 0.000000
0.907739 0.000000 0.000000
0.922409 0.000000 0.000000
0.936018 0.000000 0.000000
0.948403 0.000000 0.000000
0.959414 0.000000 0.000000
0.968917 0.000000 0.000000
0.976790 0.000000 0.000000
0.982926 0.000000 0.000000
0.987228 0.000000 0.000000
0.989609 0.000000 0.000000
0.990371 0.000000 0.000000
0.990982 0.000000 0.000000
0.991596 0.000000 0.000000
0.000000 0.079657 0.000000
0.000000 0.077468 0.000000
0.075435 0.070900 0.000000
0.184375 0.059953 0.000000
0.281317 0.044627 0.000000
0.373147 0.024923 0.000000
0.461409 0.000840 0.000000
0.535622 0.000000 0.000000
0.595518 0.000000 0.000000
0.645021 0.000000 0.000000
0.686666 0.000000 0.000000
0.722187 0.000000 0.000000
0.752815 0.000000 0.000000
0.779461 0.000000 0.000000
0.802810 0.000000 0.000000
0.823394 0.000000 0.000000
0.841632 0.000000 0.000000
0.858739 0.000000 0.000000
0.875556 0.000000 0.000000
0.891874 0.000000 0.000000
0.907489 0.000000 0.000000
0.922213 0.000000 0.000000
0.935867 0.000000 0.000000
0.948288 0.000000 0.000000
0.959329 0.000000 0.000000
0.968857 0.000000 0.000000
0.976750 0.000000 0.000000
0.982901 0.000000 0.000000
0.987215 0.000000 0.000000
0.989604 0.000000 0.000000
0.990369 0.000000 0.000000
0.990980 0.000000 0.000000
0.991595 0.000000 0.000000
0.000000 0.158683 0.000000
0.000000 0.157261 0.000000
0.023787 0.152939 0.000000
0.152444 0.145525 0.000000
0.259813 0.134660 0.000000
0.356864 0.119710 0.000000
0.448749 0.099543 0.000000
0.527056 0.071949 0.000000
0.589419 0.039109 0.000000
0.640511 0.001890 0.000000
0.683235 0.000000 0.000000
0.719515 0.000000 0.000000
0.750696 0.000000 0.000000
0.777754 0.000000 0.000000
0.801418 0.000000 0.000000
0.822246 0.000000 0.000000
0.840677 0.000000 0.000000
0.857947 0.000000 0.000000
0.874907 0.000000 0.000000
0.891348 0.000000 0.000000
0.907070 0.000000 0.000000
0.921883 0.000000 0.000000
0.935613 0.000000 0.000000
0.948096 0.000000 0.000000
0.959188 0.000000 0.000000
0.968756 0.000000 0.000000
0.976682 0.000000 0.000000
0.982858 0.000000 0.000000
0.987192 0.000000 0.000000
0.989596 0.000000 0.000000
0.990366 0.000000 0.000000
0.990978 0.000000 0.000000
0.991593 0.000000 0.000000
0.000000 0.234833 0.000000
0.000000 0.233799 0.000000
0.000000 0.230673 0.000000
0.096860 0.225380 0.000000
0.226751 0.217788 0.000000
0.332795 0.207687 0.000000
0.429796 0.194760 0.000000
0.514369 0.178525 0.000000
0.580503 0.158217 0.000000
0.633978 0.132527 0.000000
0.678294 0.098901 0.000000
0.715685 0.053715 0.000000
0.747669 0.003360 0.000000
0.775323 0.000000 0.000000
0.799440 0.000000 0.000000
0.820618 0.000000 0.000000
0.839324 0.000000 0.000000
0.856825 0.000000 0.000000
0.873988 0.000000 0.000000
0.890606 0.000000 0.000000
0.906479 0.000000 0.000000
0.921420 0.000000 0.000000
0.935255 0.000000 0.000000
0.947826 0.000000 0.000000
0.958990 0.000000 0.000000
0.968615 0.000000 0.000000
0.976586 0.000000 0.000000
0.982799 0.000000 0.000000
0.987159 0.000000 0.000000
0.989585 0.000000 0.000000
0.990362 0.000000 0.000000
0.990974 0.000000 0.000000
0.991590 0.000000 0.000000
0.000000 0.309083 0.000000
0.000000 0.308275 0.000000
0.000000 0.305837 0.000000
0.004454 0.301735 0.000000
0.176997 0.295903 0.000000
0.299204 0.288247 0.000000
0.404050 0.278630 0.000000
0.496713 0.266865 0.000000
0.568334 0.252687 0.000000
0.625173 0.235723 0.000000
0.671694 0.215426 0.000000
0.710603 0.190944 0.000000
0.743672 0.160845 0.000000
0.772124 0.122347 0.000000
0.796844 0.068741 0.000000
0.818487 0.005250 0.000000
0.837556 0.000000 0.000000
0.855361 0.000000 0.000000
0.872792 0.000000 0.000000
0.889640 0.000000 0.000000
0.905710 0.000000 0.000000
0.920818 0.000000 0.000000
0.934791 0.000000 0.000000
0.947477 0.000000 0.000000
0.958732 0.000000 0.000000
0.968432 0.000000 0.000000
0.976462 0.000000 0.000000
0.982721 0.000000 0.000000
0.987118 0.000000 0.000000
0.989570 0.000000 0.000000
0.990357 0.000000 0.000000
0.990970 0.000000 0.000000
0.991586 0.000000 0.000000
0.000000 0.381853 0.000000
0.000000 0.381191 0.000000
0.000000 0.379200 0.000000
0.000000 0.375860 0.000000
0.094789 0.371134 0.000000
0.252733 0.364971 0.000000
0.370211 0.357300 0.000000
0.472706 0.348027 0.000000
0.552241 0.337025 0.000000
0.613731 0.324131 0.000000
0.663218 0.309128 0.000000
0.704132 0.291719 0.000000
0.738614 0.271494 0.000000
0.768097 0.247857 0.000000
0.793588 0.219890 0.000000
0.815821 0.186056 0.000000
0.835351 0.143384 0.000000
0.853540 0.079882 0.000000
0.871305 0.000000 0.000000
0.888443 0.000000 0.000000
0.904759 0.000000 0.000000
0.920073 0.000000 0.000000
0.934219 0.000000 0.000000
0.947045 0.000000 0.000000
0.958415 0.000000 0.000000
0.968207 0.000000 0.000000
0.976310 0.000000 0.000000
0.982626 0.000000 0.000000
0.987066 0.000000 0.000000
0.989552 0.000000 0.000000
0.990350 0.000000 0.000000
0.990965 0.000000 0.000000
0.991581 0.000000 0.000000
0.000000 0.453248 0.000000
0.000000 0.452705 0.000000
0.000000 0.451070 0.000000
0.000000 0.448314 0.000000
0.000000 0.444392 0.000000
0.185627 0.439248 0.000000
0.325910 0.432869 0.000000
0.440039 0.425207 0.000000
0.531191 0.416193 0.000000
0.599120 0.405738 0.000000
0.652565 0.393731 0.000000
0.696087 0.380029 0.000000
0.732377 0.364451 0.000000
0.763161 0.346758 0.000000
0.789616 0.326631 0.000000
0.812582 0.303630 0.000000
0.832680 0.277119 0.000000
0.851339 0.244169 0.000000
0.869514 0.199015 0.000000
0.887003 0.130844 0.000000
0.903617 0.009706 0.000000
0.919181 0.000000 0.000000
0.933533 0.000000 0.000000
0.946529 0.000000 0.000000
0.958037 0.000000 0.000000
0.967938 0.000000 0.000000
0.976128 0.000000 0.000000
0.982512 0.000000 0.000000
0.987004 0.000000 0.000000
0.989529 0.000000 0.000000
0.990343 0.000000 0.000000
0.990958 0.000000 0.000000
0.991576 0.000000 0.000000
0.000000 0.516096 0.000000
0.000000 0.515702 0.000000
0.000000 0.514514 0.000000
0.000000 0.512519 0.000000
0.000000 0.509690 0.000000
0.068612 0.505991 0.000000
0.266487 0.501371 0.000000
0.397309 0.495765 0.000000
0.503545 0.489090 0.000000
0.580551 0.481239 0.000000
0.639307 0.472080 0.000000
0.686217 0.461442 0.000000
0.724803 0.449111 0.000000
0.757212 0.434873 0.000000
0.784858 0.418880 0.000000
0.808720 0.401002 0.000000
0.829507 0.380983 0.000000
0.848733 0.357103 0.000000
0.867398 0.326500 0.000000
0.885306 0.286120 0.000000
0.902275 0.229978 0.000000
0.918134 0.141972 0.000000
0.932731 0.000000 0.000000
0.945926 0.000000 0.000000
0.957594 0.000000 0.000000
0.967624 0.000000 0.000000
0.975916 0.000000 0.000000
0.982378 0.000000 0.000000
0.986932 0.000000 0.000000
0.989503 0.000000 0.000000
0.990334 0.000000 0.000000
0.990951 0.000000 0.000000
0.991570 0.000000 0.000000
0.000000 0.568773 0.000000
0.000000 0.568477 0.000000
0.000000 0.567586 0.000000
0.000000 0.566090 0.000000
0.000000 0.563975 0.000000
0.000000 0.561219 0.000000
0.180133 0.557792 0.000000
0.342673 0.553656 0.000000
0.466545 0.548764 0.000000
0.556829 0.543058 0.000000
0.622833 0.536464 0.000000
0.674176 0.528893 0.000000
0.715680 0.520235 0.000000
0.750115 0.510353 0.000000
0.779221 0.499075 0.000000
0.804170 0.486185 0.000000
0.825785 0.471403 0.000000
0.845687 0.453304 0.000000
0.864934 0.429621 0.000000
0.883337 0.399378 0.000000
0.900721 0.360143 0.000000
0.916925 0.307272 0.000000
0.931805 0.230520 0.000000
0.945231 0.091059 0.000000
0.957085 0.000000 0.000000
0.967264 0.000000 0.000000
0.975672 0.000000 0.000000
0.982226 0.000000 0.000000
0.986849 0.000000 0.000000
0.989472 0.000000 0.000000
0.990324 0.000000 0.000000
0.990942 0.000000 0.000000
0.991562 0.000000 0.000000
0.000000 0.613631 0.000000
0.000000 0.613402 0.000000
0.000000 0.612715 0.000000
0.000000 0.611563 0.000000
0.000000 0.609937 0.000000
0.000000 0.607823 0.000000
0.017817 0.605203 0.000000
0.269670 0.602053 0.000000
0.416029 0.598346 0.000000
0.526040 0.594044 0.000000
0.602246 0.589106 0.000000
0.659482 0.583480 0.000000
0.704727 0.577103 0.000000
0.741691 0.569901 0.000000
0.772589 0.561780 0.000000
0.798852 0.552631 0.000000
0.821458 0.542314 0.000000
0.842163 0.529941 0.000000
0.862095 0.514055 0.000000
0.881075 0.493233 0.000000
0.898941 0.465146 0.000000
0.915544 0.425970 0.000000
0.930751 0.373003 0.000000
0.944441 0.298453 0.000000
0.956508 0.177347 0.000000
0.966855 0.000000 0.000000
0.975395 0.000000 0.000000
0.982052 0.000000 0.000000
0.986754 0.000000 0.000000
0.989437 0.000000 0.000000
0.990313 0.000000 0.000000
0.990933 0.000000 0.000000
0.991554 0.000000 0.000000
0.000000 0.652314 0.000000
0.000000 0.652134 0.000000
0.000000 0.651592 0.000000
0.000000 0.650686 0.000000
0.000000 0.649407 0.000000
0.000000 0.647748 0.000000
0.000000 0.645697 0.000000
0.159402 0.643238 0.000000
0.350831 0.640354 0.000000
0.484905 0.637020 0.000000
0.576171 0.633212 0.000000
0.641449 0.628896 0.000000
0.691558 0.624035 0.000000
0.731709 0.618584 0.000000
0.764813 0.612488 0.000000
0.792667 0.605686 0.000000
0.816456 0.598099 0.000000
0.838110 0.589119 0.000000
0.858845 0.577781 0.000000
0.878497 0.563255 0.000000
0.896920 0.544271 0.000000
0.913980 0.518777 0.000000
0.929559 0.483155 0.000000
0.943550 0.430384 0.000000
0.955858 0.353894 0.000000
0.966395 0.234421 0.000000
0.975085 0.000000 0.000000
0.981857 0.000000 0.000000
0.986647 0.000000 0.000000
0.989397 0.000000 0.000000
0.990300 0.000000 0.000000
0.990922 0.000000 0.000000
0.991546 0.000000 0.000000
0.000000 0.686017 0.000000
0.000000 0.685873 0.000000
0.000000 0.685438 0.000000
0.000000 0.684712 0.000000
0.000000 0.683688 0.000000
0.000000 0.682362 0.000000
0.000000 0.680725 0.000000
0.000000 0.678767 0.000000
0.262623 0.676475 0.000000
0.427447 0.673835 0.000000
0.542379 0.670829 0.000000
0.619059 0.667437 0.000000
0.675637 0.663633 0.000000
0.719856 0.659390 0.000000
0.755698 0.654674 0.000000
0.785486 0.649445 0.000000
0.810693 0.643658 0.000000
0.833469 0.636870 0.000000
0.855143 0.628395 0.000000
0.875574 0.617695 0.000000
0.894638 0.603987 0.000000
0.912221 0.586078 0.000000
0.928223 0.562039 0.000000
0.942554 0.528486 0.000000
0.955131 0.478730 0.000000
0.965882 0.399236 0.000000
0.974738 0.273635 0.000000
0.981639 0.000000 0.000000
0.986528 0.000000 0.000000
0.989351 0.000000 0.000000
0.990286 0.000000 0.000000
0.990911 0.000000 0.000000
0.991536 0.000000 0.000000
0.000000 0.715631 0.000000
0.000000 0.715514 0.000000
0.000000 0.715160 0.000000
0.000000 0.714569 0.000000
0.000000 0.713737 0.000000
0.000000 0.712660 0.000000
0.000000 0.711333 0.000000
0.000000 0.709748 0.000000
0.118003 0.707896 0.000000
0.350956 0.705768 0.000000
0.496939 0.703352 0.000000
0.590735 0.700633 0.000000
0.656195 0.697595 0.000000
0.705708 0.694220 0.000000
0.744989 0.690484 0.000000
0.777147 0.686363 0.000000
0.804059 0.681828 0.000000
0.828166 0.676541 0.000000
0.850939 0.669995 0.000000
0.872273 0.661814 0.000000
0.892072 0.651473 0.000000
0.910251 0.638204 0.000000
0.926731 0.620835 0.000000
0.941444 0.597461 0.000000
0.954324 0.564726 0.000000
0.965313 0.515938 0.000000
0.974355 0.434918 0.000000
0.981398 0.296839 0.000000
0.986395 0.000000 0.000000
0.989300 0.000000 0.000000
0.990271 0.000000 0.000000
0.990898 0.000000 0.000000
0.991525 0.000000 0.000000
0.000000 0.741839 0.000000
0.000000 0.741742 0.000000
0.000000 0.741450 0.000000
0.000000 0.740963 0.000000
0.000000 0.740278 0.000000
0.000000 0.739392 0.000000
0.000000 0.738302 0.000000
0.000000 0.737001 0.000000
0.000000 0.735484 0.000000
0.244569 0.733744 0.000000
0.432133 0.731772 0.000000
0.553862 0.729558 0.000000
0.632080 0.727091 0.000000
0.688669 0.724358 0.000000
0.732346 0.721344 0.000000
0.767440 0.718032 0.000000
0.796417 0.714402 0.000000
0.822108 0.710191 0.000000
0.846172 0.705007 0.000000
0.868552 0.698578 0.000000
0.889196 0.690529 0.000000
0.908052 0.680332 0.000000
0.925073 0.667209 0.000000
0.940214 0.649965 0.000000
0.953432 0.626637 0.000000
0.964685 0.593720 0.000000
0.973931 0.544090 0.000000
0.981132 0.459857 0.000000
0.986248 0.302295 0.000000
0.989242 0.000000 0.000000
0.990255 0.000000 0.000000
0.990884 0.000000 0.000000
0.991514 0.000000 0.000000
0.000000 0.765171 0.000000
0.000000 0.765090 0.000000
0.000000 0.764847 0.000000
0.000000 0.764442 0.000000
0.000000 0.763872 0.000000
0.000000 0.763135 0.000000
0.000000 0.762228 0.000000
0.000000 0.761148 0.000000
0.000000 0.759891 0.000000
0.040087 0.758450 0.000000
0.343053 0.756820 0.000000
0.503672 0.754994 0.000000
0.601472 0.752963 0.000000
0.667878 0.750719 0.000000
0.717299 0.748250 0.000000
0.756086 0.745546 0.000000
0.787591 0.742591 0.000000
0.815181 0.739176 0.000000
0.840768 0.734992 0.000000
0.864365 0.729832 0.000000
0.885978 0.723418 0.000000
0.905604 0.715368 0.000000
0.923235 0.705135 0.000000
0.938856 0.691910 0.000000
0.952449 0.674430 0.000000
0.963994 0.650596 0.000000
0.973466 0.616572 0.000000
0.980839 0.564314 0.000000
0.986086 0.472435 0.000000
0.989177 0.284607 0.000000
0.990238 0.000000 0.000000
0.990870 0.000000 0.000000
0.991502 0.000000 0.000000
0.000000 0.786050 0.000000
0.000000 0.785982 0.000000
0.000000 0.785778 0.000000
0.000000 0.785437 0.000000
0.000000 0.784958 0.000000
0.000000 0.784339 0.000000
0.000000 0.783579 0.000000
0.000000 0.782673 0.000000
0.000000 0.781620 0.000000
0.000000 0.780415 0.000000
0.213146 0.779053 0.000000
0.430305 0.777530 0.000000
0.561277 0.775839 0.000000
0.642023 0.773974 0.000000
0.699189 0.771927 0.000000
0.742712 0.769689 0.000000
0.777353 0.767251 0.000000
0.807242 0.764442 0.000000
0.834634 0.761012 0.000000
0.859651 0.756800 0.000000
0.882380 0.751595 0.000000
0.902883 0.745108 0.000000
0.921200 0.736938 0.000000
0.937358 0.726506 0.000000
0.951369 0.712946 0.000000
0.963236 0.694884 0.000000
0.972956 0.669988 0.000000
0.980518 0.633870 0.000000
0.985907 0.576889 0.000000
0.989104 0.471105 0.000000
0.990219 0.230268 0.000000
0.990854 0.000000 0.000000
0.991488 0.000000 0.000000
0.000000 0.805842 0.000000
0.000000 0.805785 0.000000
0.000000 0.805614 0.000000
0.000000 0.805327 0.000000
0.000000 0.804926 0.000000
0.000000 0.804407 0.000000
0.000000 0.803769 0.000000
0.000000 0.803011 0.000000
0.000000 0.802129 0.000000
0.000000 0.801122 0.000000
0.000000 0.799985 0.000000
0.319384 0.798715 0.000000
0.501730 0.797307 0.000000
0.606801 0.795757 0.000000
0.675615 0.794058 0.000000
0.725793 0.792205 0.000000
0.764651 0.790191 0.000000
0.797535 0.787876 0.000000
0.827225 0.785057 0.000000
0.854014 0.781609 0.000000
0.878113 0.777368 0.000000
0.899677 0.772114 0.000000
0.918816 0.765545 0.000000
0.935610 0.757240 0.000000
0.950112 0.746584 0.000000
0.962357 0.732640 0.000000
0.972365 0.713904 0.000000
0.980146 0.687754 0.000000
0.985700 0.649091 0.000000
0.989019 0.586081 0.000000
0.990197 0.460430 0.000000
0.990836 0.117241 0.000000
0.991473 0.000000 0.000000
0.000000 0.825528 0.000000
0.000000 0.825481 0.000000
0.000000 0.825339 0.000000
0.000000 0.825101 0.000000
0.000000 0.824768 0.000000
0.000000 0.824337 0.000000
0.000000 0.823808 0.000000
0.000000 0.823180 0.000000
0.000000 0.822450 0.000000
0.000000 0.821617 0.000000
0.000000 0.820678 0.000000
0.095625 0.819630 0.000000
0.396804 0.818469 0.000000
0.552377 0.817194 0.000000
0.641737 0.815798 0.000000
0.702475 0.814279 0.000000
0.747612 0.812630 0.000000
0.784772 0.810740 0.000000
0.817636 0.808445 0.000000
0.846809 0.805647 0.000000
0.872714 0.802218 0.000000
0.895654 0.797993 0.000000
0.915845 0.792745 0.000000
0.933443 0.786164 0.000000
0.948560 0.777812 0.000000
0.961274 0.767041 0.000000
0.971639 0.752857 0.000000
0.979689 0.733629 0.000000
0.985444 0.706454 0.000000
0.988911 0.665494 0.000000
0.990172 0.596432 0.000000
0.990815 0.446936 0.000000
0.991455 0.000000 0.000000
0.000000 0.844894 0.000000
0.000000 0.844855 0.000000
0.000000 0.844738 0.000000
0.000000 0.844543 0.000000
0.000000 0.844269 0.000000
0.000000 0.843916 0.000000
0.000000 0.843482 0.000000
0.000000 0.842967 0.000000
0.000000 0.842370 0.000000
0.000000 0.841688 0.000000
0.000000 0.840920 0.000000
0.000000 0.840064 0.000000
0.203048 0.839118 0.000000
0.455466 0.838079 0.000000
0.589155 0.836944 0.000000
0.668672 0.835711 0.000000
0.723904 0.834375 0.000000
0.767513 0.832846 0.000000
0.804950 0.830993 0.000000
0.837439 0.828742 0.000000
0.865787 0.825993 0.000000
0.890548 0.822621 0.000000
0.912105 0.818455 0.000000
0.930734 0.813269 0.000000
0.946630 0.806746 0.000000
0.959933 0.798435 0.000000
0.970742 0.787665 0.000000
0.979124 0.773389 0.000000
0.985126 0.753866 0.000000
0.988776 0.725928 0.000000
0.990141 0.682992 0.000000
0.990789 0.607997 0.000000
0.991434 0.429810 0.000000
0.000000 0.863729 0.000000
0.000000 0.863697 0.000000
0.000000 0.863603 0.000000
0.000000 0.863444 0.000000
0.000000 0.863222 0.000000
0.000000 0.862935 0.000000
0.000000 0.862584 0.000000
0.000000 0.862167 0.000000
0.000000 0.861683 0.000000
0.000000 0.861131 0.000000
0.000000 0.860510 0.000000
0.000000 0.859819 0.000000
0.000000 0.859055 0.000000
0.260100 0.858218 0.000000
0.494876 0.857305 0.000000
0.615480 0.856313 0.000000
0.689050 0.855241 0.000000
0.743226 0.854017 0.000000
0.787656 0.852536 0.000000
0.824966 0.850741 0.000000
0.856734 0.848556 0.000000
0.883967 0.845886 0.000000
0.907339 0.842603 0.000000
0.927312 0.838541 0.000000
0.944208 0.833471 0.000000
0.958258 0.827074 0.000000
0.969624 0.818892 0.000000
0.978421 0.808236 0.000000
0.984729 0.794020 0.000000
0.988602 0.774408 0.000000
0.990104 0.745991 0.000000
0.990758 0.701461 0.000000
0.991408 0.620810 0.000000
0.000000 0.881836 0.000000
0.000000 0.881811 0.000000
0.000000 0.881735 0.000000
0.000000 0.881608 0.000000
0.000000 0.881430 0.000000
0.000000 0.881200 0.000000
0.000000 0.880918 0.000000
0.000000 0.880584 0.000000
0.000000 0.880197 0.000000
0.000000 0.879755 0.000000
0.000000 0.879259 0.000000
0.000000 0.878707 0.000000
0.000000 0.878098 0.000000
0.000000 0.877431 0.000000
0.285511 0.876704 0.000000
0.517555 0.875915 0.000000
0.632916 0.875064 0.000000
0.706912 0.874093 0.000000
0.763045 0.872921 0.000000
0.807824 0.871504 0.000000
0.844606 0.869784 0.000000
0.875321 0.867688 0.000000
0.901169 0.865122 0.000000
0.922931 0.861963 0.000000
0.941135 0.858045 0.000000
0.956145 0.853142 0.000000
0.968219 0.846936 0.000000
0.977537 0.838967 0.000000
0.984228 0.828537 0.000000
0.988379 0.814530 0.000000
0.990060 0.795038 0.000000
0.990721 0.766440 0.000000
0.991377 0.720749 0.000000
0.000000 0.899030 0.000000
0.000000 0.899010 0.000000
0.000000 0.898950 0.000000
0.000000 0.898849 0.000000
0.000000 0.898708 0.000000
0.000000 0.898526 0.000000
0.000000 0.898303 0.000000
0.000000 0.898039 0.000000
0.000000 0.897733 0.000000
0.000000 0.897384 0.000000
0.000000 0.896992 0.000000
0.000000 0.896557 0.000000
0.000000 0.896077 0.000000
0.000000 0.895551 0.000000
0.000000 0.894979 0.000000
0.277933 0.894360 0.000000
0.524476 0.893691 0.000000
0.646719 0.892930 0.000000
0.725616 0.892013 0.000000
0.783153 0.890906 0.000000
0.827799 0.889565 0.000000
0.863663 0.887936 0.000000
0.893016 0.885949 0.000000
0.917229 0.883513 0.000000
0.937179 0.880507 0.000000
0.953448 0.876771 0.000000
0.966435 0.872084 0.000000
0.976417 0.866132 0.000000
0.983589 0.858456 0.000000
0.988088 0.848357 0.000000
0.990006 0.834705 0.000000
0.990676 0.815537 0.000000
0.991340 0.787062 0.000000
0.000000 0.915139 0.000000
0.000000 0.915124 0.000000
0.000000 0.915077 0.000000
0.000000 0.914998 0.000000
0.000000 0.914888 0.000000
0.000000 0.914746 0.000000
0.000000 0.914572 0.000000
0.000000 0.914366 0.000000
0.000000 0.914127 0.000000
0.000000 0.913856 0.000000
0.000000 0.913550 0.000000
0.000000 0.913211 0.000000
0.000000 0.912838 0.000000
0.000000 0.912430 0.000000
0.000000 0.911986 0.000000
0.000000 0.911505 0.000000
0.221777 0.910987 0.000000
0.522754 0.910398 0.000000
0.661732 0.909689 0.000000
0.744991 0.908835 0.000000
0.803334 0.907802 0.000000
0.847368 0.906550 0.000000
0.881943 0.905027 0.000000
0.909646 0.903167 0.000000
0.931997 0.900883 0.000000
0.949953 0.898059 0.000000
0.964139 0.894541 0.000000
0.974980 0.890114 0.000000
0.982766 0.884472 0.000000
0.987703 0.877164 0.000000
0.989931 0.867496 0.000000
0.990622 0.854337 0.000000
0.991295 0.835690 0.000000
0.000000 0.930009 0.000000
0.000000 0.929997 0.000000
0.000000 0.929961 0.000000
0.000000 0.929900 0.000000
0.000000 0.929816 0.000000
0.000000 0.929707 0.000000
0.000000 0.929573 0.000000
0.000000 0.929415 0.000000
0.000000 0.929232 0.000000
0.000000 0.929023 0.000000
0.000000 0.928789 0.000000
0.000000 0.928529 0.000000
0.000000 0.928243 0.000000
0.000000 0.927931 0.000000
0.000000 0.927591 0.000000
0.000000 0.927224 0.000000
0.000000 0.926829 0.000000
0.085059 0.926379 0.000000
0.520683 0.925839 0.000000
0.677900 0.925189 0.000000
0.764844 0.924404 0.000000
0.823371 0.923455 0.000000
0.866326 0.922304 0.000000
0.899265 0.920901 0.000000
0.925054 0.919185 0.000000
0.945339 0.917073 0.000000
0.961137 0.914457 0.000000
0.973108 0.911189 0.000000
0.981691 0.907063 0.000000
0.987189 0.901783 0.000000
0.989810 0.894912 0.000000
0.990557 0.885768 0.000000
0.991241 0.873228 0.000000
0.000000 0.943497 0.000000
0.000000 0.943488 0.000000
0.000000 0.943461 0.000000
0.000000 0.943415 0.000000
0.000000 0.943351 0.000000
0.000000 0.943269 0.000000
0.000000 0.943169 0.000000
0.000000 0.943049 0.000000
0.000000 0.942911 0.000000
0.000000 0.942754 0.000000
0.000000 0.942578 0.000000
0.000000 0.942383 0.000000
0.000000 0.942168 0.000000
0.000000 0.941933 0.000000
0.000000 0.941678 0.000000
0.000000 0.941402 0.000000
0.000000 0.941106 0.000000
0.000000 0.940769 0.000000
0.000000 0.940365 0.000000
0.518187 0.939878 0.000000
0.695132 0.939293 0.000000
0.784967 0.938585 0.000000
0.843048 0.937728 0.000000
0.884480 0.936687 0.000000
0.915463 0.935416 0.000000
0.939098 0.933859 0.000000
0.957133 0.931939 0.000000
0.970628 0.929554 0.000000
0.980264 0.926564 0.000000
0.986490 0.922775 0.000000
0.989615 0.917906 0.000000
0.990478 0.911534 0.000000
0.991176 0.902997 0.000000
0.000000 0.955478 0.000000
0.000000 0.955471 0.000000
0.000000 0.955451 0.000000
0.000000 0.955417 0.000000
0.000000 0.955370 0.000000
0.000000 0.955310 0.000000
0.000000 0.955236 0.000000
0.000000 0.955148 0.000000
0.000000 0.955046 0.000000
0.000000 0.954931 0.000000
0.000000 0.954802 0.000000
0.000000 0.954658 0.000000
0.000000 0.954500 0.000000
0.000000 0.954327 0.000000
0.000000 0.954140 0.000000
0.000000 0.953938 0.000000
0.000000 0.953721 0.000000
0.000000 0.953474 0.000000
0.000000 0.953178 0.000000
0.000000 0.952822 0.000000
0.515170 0.952393 0.000000
0.713303 0.951877 0.000000
0.805145 0.951252 0.000000
0.862160 0.950495 0.000000
0.901652 0.949573 0.000000
0.930385 0.948446 0.000000
0.951652 0.947062 0.000000
