HLG_to_BT709.cube
TITLE "Rec2100HLG_Rec2100-Rec709_Rec709"
LUT_3D_SIZE 5
# Crated by Francesco Bucciantini
0.000000 0.000000 0.000000
0.600246 0.000000 0.000000
0.842389 0.000000 0.000000
0.959442 0.000000 0.000000
0.991596 0.000000 0.000000
0.000000 0.516096 0.000000
0.503545 0.489090 0.000000
0.829507 0.380983 0.000000
0.957594 0.000000 0.000000
0.991570 0.000000 0.000000
0.000000 0.786050 0.000000
0.000000 0.781620 0.000000
0.777353 0.767251 0.000000
0.951369 0.712946 0.000000
0.991488 0.000000 0.000000
0.000000 0.930009 0.000000
0.000000 0.929232 0.000000
0.000000 0.926829 0.000000
0.925054 0.919185 0.000000
0.991241 0.873228 0.000000
0.000000 0.990217 0.000000
0.000000 0.990209 0.000000
0.000000 0.990184 0.000000
0.000000 0.990111 0.000000
0.990021 0.989684 0.000000
0.000000 0.000000 0.513207
0.590737 0.000000 0.509443
0.840881 0.000000 0.497686
0.959218 0.000000 0.458877
0.991593 0.000000 0.215177
0.000000 0.514399 0.491356
0.487138 0.487138 0.487138
0.827787 0.378131 0.473911
0.957358 0.000000 0.429853
0.991566 0.000000 0.149456
0.000000 0.785758 0.407868
0.000000 0.781317 0.402048
0.774585 0.766910 0.384072
0.951087 0.712431 0.326484
0.991485 0.000000 0.000000
0.000000 0.929957 0.000000
0.000000 0.929179 0.000000
0.000000 0.926774 0.000000
0.924557 0.919122 0.000000
0.991237 0.873106 0.000000
0.000000 0.990217 0.000000
0.000000 0.990208 0.000000
0.000000 0.990184 0.000000
0.000000 0.990110 0.000000
0.990016 0.989683 0.000000
0.000000 0.000000 0.784055
0.558650 0.000000 0.783409
0.836212 0.000000 0.781448
0.958539 0.000000 0.775562
0.991583 0.000000 0.748358
0.000000 0.509217 0.780429
0.428080 0.481163 0.779762
0.822445 0.369448 0.777741
0.956638 0.000000 0.771665
0.991556 0.000000 0.743502
0.000000 0.784879 0.768841
0.000000 0.780403 0.768108
0.765881 0.765881 0.765881
0.950230 0.710873 0.759172
0.991475 0.000000 0.727762
0.000000 0.929802 0.727450
0.000000 0.929021 0.726440
0.000000 0.926609 0.723363
0.923038 0.918933 0.714010
0.991227 0.872742 0.668354
0.000000 0.990215 0.000000
0.000000 0.990207 0.000000
0.000000 0.990182 0.000000
0.000000 0.990108 0.000000
0.990000 0.989679 0.000000
0.000000 0.000000 0.928880
0.413420 0.000000 0.928765
0.821247 0.000000 0.928419
0.956480 0.000000 0.927399
0.991554 0.000000 0.923064
0.000000 0.493315 0.928240
0.149011 0.462705 0.928123
0.805173 0.343022 0.927773
0.954458 0.000000 0.926740
0.991527 0.000000 0.922351
0.000000 0.782284 0.926271
0.000000 0.777708 0.926150
0.736521 0.762839 0.925787
0.947626 0.706249 0.924715
0.991445 0.000000 0.920158
0.000000 0.929347 0.920116
0.000000 0.928560 0.919982
0.000000 0.926126 0.919576
0.918380 0.918380 0.918380
0.991195 0.871673 0.913279
0.000000 0.990210 0.886195
0.000000 0.990202 0.885971
0.000000 0.990177 0.885296
0.000000 0.990103 0.883299
0.989950 0.989667 0.874654
0.000000 0.000000 0.990172
0.000000 0.000000 0.990171
0.724616 0.000000 0.990167
0.946685 0.000000 0.990156
0.991434 0.000000 0.990113
0.000000 0.412841 0.990165
0.000000 0.371643 0.990164
0.686647 0.207306 0.990160
0.944058 0.000000 0.990150
0.991407 0.000000 0.990106
0.000000 0.771165 0.990145
0.000000 0.766139 0.990144
0.432054 0.749722 0.990140
0.935092 0.685850 0.990129
0.991321 0.000000 0.990085
0.000000 0.927466 0.990085
0.000000 0.926650 0.990084
0.000000 0.924127 0.990080
0.894872 0.916087 0.990069
0.991062 0.867200 0.990024
0.000000 0.990191 0.989755
0.000000 0.990182 0.989752
0.000000 0.990157 0.989744
0.000000 0.990083 0.989721
0.989618 0.989618 0.989618
