LogC_to_BT601_NTSC.cube
TITLE "LogC_to_BT601_NTSC"
LUT_3D_SIZE 33
# LogC to BT601 NTSC by Francesco Bucciantini
0.00000000 0.00000000 0.00000000
0.00000000 0.00000000 0.00000000
0.01411500 0.00000000 0.00000000
0.06439871 0.00000000 0.00000000
0.11177818 0.00000000 0.00000000
0.14946953 0.00000000 0.00000000
0.18779746 0.00000000 0.00000000
0.23092465 0.00000000 0.00000000
0.27962159 0.00000000 0.00000000
0.33474604 0.00000000 0.00000000
0.39726068 0.00000000 0.00000000
0.46738900 0.00000000 0.00000000
0.53594912 0.00000000 0.00000000
0.60014196 0.00000000 0.00000000
0.65990609 0.00000000 0.00000000
0.71515189 0.00000000 0.00000000
0.76576950 0.00000000 0.00000000
0.81163442 0.00000000 0.00000000
0.85261157 0.00000000 0.00000000
0.88855823 0.00000000 0.00000000
0.91932615 0.00000000 0.00000000
0.94476310 0.00000000 0.00000000
0.96471394 0.00000000 0.00000000
0.97902149 0.00000000 0.00000000
0.98752705 0.00000000 0.00000000
0.99026518 0.00000000 0.00000000
0.99131536 0.00000000 0.00000000
0.99236546 0.00000000 0.00000000
0.99341552 0.00000000 0.00000000
0.99446554 0.00000000 0.00000000
0.99551553 0.00000000 0.00000000
0.99656549 0.00000000 0.00000000
0.99761545 0.00000000 0.00000000
0.00000000 0.00000000 0.00000000
0.00000000 0.00000000 0.00000000
0.00000000 0.00000000 0.00000000
0.04564960 0.00000000 0.00000000
0.09550838 0.00000000 0.00000000
0.13636666 0.00000000 0.00000000
0.17690259 0.00000000 0.00000000
0.22180295 0.00000000 0.00000000
0.27194766 0.00000000 0.00000000
0.32826801 0.00000000 0.00000000
0.39177872 0.00000000 0.00000000
0.46301687 0.00000000 0.00000000
0.53289025 0.00000000 0.00000000
0.59801114 0.00000000 0.00000000
0.65843044 0.00000000 0.00000000
0.71413769 0.00000000 0.00000000
0.76507914 0.00000000 0.00000000
0.81117023 0.00000000 0.00000000
0.85230435 0.00000000 0.00000000
0.88835912 0.00000000 0.00000000
0.91920079 0.00000000 0.00000000
0.94468743 0.00000000 0.00000000
0.96467124 0.00000000 0.00000000
0.97900022 0.00000000 0.00000000
0.98751933 0.00000000 0.00000000
0.99026409 0.00000000 0.00000000
0.99131454 0.00000000 0.00000000
0.99236485 0.00000000 0.00000000
0.99341506 0.00000000 0.00000000
0.99446520 0.00000000 0.00000000
0.99551527 0.00000000 0.00000000
0.99656530 0.00000000 0.00000000
0.99761530 0.00000000 0.00000000
0.00000000 0.00000000 0.00000000
0.00000000 0.00000000 0.00000000
0.00000000 0.00000000 0.00000000
0.02690049 0.00000000 0.00000000
0.07718420 0.00000000 0.00000000
0.12230511 0.00000000 0.00000000
0.16545467 0.00000000 0.00000000
0.21235266 0.00000000 0.00000000
0.26407461 0.00000000 0.00000000
0.32166765 0.00000000 0.00000000
0.38622087 0.00000000 0.00000000
0.45854781 0.00000000 0.00000000
0.52978042 0.00000000 0.00000000
0.59585351 0.00000000 0.00000000
0.65694070 0.00000000 0.00000000
0.71311610 0.00000000 0.00000000
0.76438492 0.00000000 0.00000000
0.81070402 0.00000000 0.00000000
0.85199609 0.00000000 0.00000000
0.88815949 0.00000000 0.00000000
0.91907516 0.00000000 0.00000000
0.94461162 0.00000000 0.00000000
0.96462847 0.00000000 0.00000000
0.97897891 0.00000000 0.00000000
0.98751159 0.00000000 0.00000000
0.99026300 0.00000000 0.00000000
0.99131373 0.00000000 0.00000000
0.99236424 0.00000000 0.00000000
0.99341461 0.00000000 0.00000000
0.99446486 0.00000000 0.00000000
0.99551502 0.00000000 0.00000000
0.99656511 0.00000000 0.00000000
0.99761516 0.00000000 0.00000000
0.00000000 0.03558840 0.00000000
0.00000000 0.03254522 0.00000000
0.00000000 0.02950205 0.00000000
0.00815138 0.02645888 0.00000000
0.05843509 0.02341571 0.00000000
0.10705625 0.02035242 0.00000000
0.15336642 0.01659633 0.00000000
0.20253806 0.01157107 0.00000000
0.25598715 0.00484783 0.00000000
0.31493822 0.00000000 0.00000000
0.38058411 0.00000000 0.00000000
0.45397787 0.00000000 0.00000000
0.52661813 0.00000000 0.00000000
0.59366847 0.00000000 0.00000000
0.65543663 0.00000000 0.00000000
0.71208703 0.00000000 0.00000000
0.76368680 0.00000000 0.00000000
0.81023580 0.00000000 0.00000000
0.85168680 0.00000000 0.00000000
0.88795932 0.00000000 0.00000000
0.91894925 0.00000000 0.00000000
0.94453568 0.00000000 0.00000000
0.96458563 0.00000000 0.00000000
0.97895758 0.00000000 0.00000000
0.98750384 0.00000000 0.00000000
0.99026191 0.00000000 0.00000000
0.99131291 0.00000000 0.00000000
0.99236363 0.00000000 0.00000000
0.99341415 0.00000000 0.00000000
0.99446452 0.00000000 0.00000000
0.99551476 0.00000000 0.00000000
0.99656492 0.00000000 0.00000000
0.99761502 0.00000000 0.00000000
0.00000000 0.07626867 0.00000000
0.00000000 0.07322550 0.00000000
0.00000000 0.07018233 0.00000000
0.00000000 0.06713916 0.00000000
0.03968598 0.06409598 0.00000000
0.09028496 0.06103269 0.00000000
0.14052530 0.05727660 0.00000000
0.19231657 0.05225135 0.00000000
0.24766797 0.04552811 0.00000000
0.30807235 0.03653313 0.00000000
0.37486518 0.02449882 0.00000000
0.44930290 0.00839821 0.00000000
0.52340176 0.00000000 0.00000000
0.59145543 0.00000000 0.00000000
0.65391800 0.00000000 0.00000000
0.71105038 0.00000000 0.00000000
0.76298475 0.00000000 0.00000000
0.80976554 0.00000000 0.00000000
0.85137645 0.00000000 0.00000000
0.88775861 0.00000000 0.00000000
0.91882308 0.00000000 0.00000000
0.94445960 0.00000000 0.00000000
0.96454273 0.00000000 0.00000000
0.97893621 0.00000000 0.00000000
0.98749608 0.00000000 0.00000000
0.99026082 0.00000000 0.00000000
0.99131209 0.00000000 0.00000000
0.99236303 0.00000000 0.00000000
0.99341370 0.00000000 0.00000000
0.99446418 0.00000000 0.00000000
0.99551451 0.00000000 0.00000000
0.99656473 0.00000000 0.00000000
0.99761488 0.00000000 0.00000000
0.00000000 0.11386257 0.00000000
0.00000000 0.11135775 0.00000000
0.00000000 0.10881594 0.00000000
0.00000000 0.10623555 0.00000000
0.02081292 0.10361488 0.00000000
0.07142905 0.10093437 0.00000000
0.12668774 0.09758645 0.00000000
0.18156447 0.09299521 0.00000000
0.23903978 0.08663422 0.00000000
0.30101509 0.07748233 0.00000000
0.36902196 0.06544803 0.00000000
0.44448645 0.04934742 0.00000000
0.52010783 0.02780653 0.00000000
0.58919881 0.00000000 0.00000000
0.65237437 0.00000000 0.00000000
0.70999913 0.00000000 0.00000000
0.76227404 0.00000000 0.00000000
0.80929010 0.00000000 0.00000000
0.85106300 0.00000000 0.00000000
0.88755604 0.00000000 0.00000000
0.91869580 0.00000000 0.00000000
0.94438289 0.00000000 0.00000000
0.96449948 0.00000000 0.00000000
0.97891467 0.00000000 0.00000000
0.98748825 0.00000000 0.00000000
0.99025972 0.00000000 0.00000000
0.99131127 0.00000000 0.00000000
0.99236241 0.00000000 0.00000000
0.99341324 0.00000000 0.00000000
0.99446383 0.00000000 0.00000000
0.99551425 0.00000000 0.00000000
0.99656454 0.00000000 0.00000000
0.99761473 0.00000000 0.00000000
0.00000000 0.15090507 0.00000000
0.00000000 0.14885073 0.00000000
0.00000000 0.14677537 0.00000000
0.00000000 0.14467837 0.00000000
0.00000000 0.14255908 0.00000000
0.04828759 0.14040257 0.00000000
0.10815806 0.13772549 0.00000000
0.16765091 0.13408491 0.00000000
0.22807817 0.12910267 0.00000000
0.29214841 0.12222128 0.00000000
0.36173321 0.11258354 0.00000000
0.43843925 0.09878167 0.00000000
0.51598923 0.07801697 0.00000000
0.58639120 0.04919758 0.00000000
0.65046077 0.01064036 0.00000000
0.70869938 0.00000000 0.00000000
0.76139705 0.00000000 0.00000000
0.80870428 0.00000000 0.00000000
0.85067718 0.00000000 0.00000000
0.88730690 0.00000000 0.00000000
0.91853936 0.00000000 0.00000000
0.94428863 0.00000000 0.00000000
0.96444635 0.00000000 0.00000000
0.97888822 0.00000000 0.00000000
0.98747862 0.00000000 0.00000000
0.99025837 0.00000000 0.00000000
0.99131026 0.00000000 0.00000000
0.99236166 0.00000000 0.00000000
0.99341268 0.00000000 0.00000000
0.99446341 0.00000000 0.00000000
0.99551394 0.00000000 0.00000000
0.99656431 0.00000000 0.00000000
0.99761456 0.00000000 0.00000000
0.00000000 0.19187298 0.00000000
0.00000000 0.19016901 0.00000000
0.00000000 0.18845267 0.00000000
0.00000000 0.18672372 0.00000000
0.00000000 0.18498188 0.00000000
0.01732680 0.18321524 0.00000000
0.07939047 0.18103043 0.00000000
0.14751640 0.17807439 0.00000000
0.21266959 0.17405819 0.00000000
0.27988679 0.16856926 0.00000000
0.35175543 0.16100299 0.00000000
0.43020554 0.15043818 0.00000000
0.51033596 0.13538390 0.00000000
0.58256283 0.11317138 0.00000000
0.64786384 0.07781651 0.00000000
0.70694161 0.02623109 0.00000000
0.76021406 0.00000000 0.00000000
0.80791555 0.00000000 0.00000000
0.85015846 0.00000000 0.00000000
0.88697230 0.00000000 0.00000000
0.91832940 0.00000000 0.00000000
0.94416221 0.00000000 0.00000000
0.96437512 0.00000000 0.00000000
0.97885275 0.00000000 0.00000000
0.98746571 0.00000000 0.00000000
0.99025656 0.00000000 0.00000000
0.99130892 0.00000000 0.00000000
0.99236065 0.00000000 0.00000000
0.99341192 0.00000000 0.00000000
0.99446285 0.00000000 0.00000000
0.99551352 0.00000000 0.00000000
0.99656399 0.00000000 0.00000000
0.99761432 0.00000000 0.00000000
0.00000000 0.23757820 0.00000000
0.00000000 0.23615402 0.00000000
0.00000000 0.23472241 0.00000000
0.00000000 0.23328326 0.00000000
0.00000000 0.23183645 0.00000000
0.00000000 0.23037222 0.00000000
0.03796828 0.22856590 0.00000000
0.11692850 0.22613004 0.00000000
0.19046817 0.22283580 0.00000000
0.26268100 0.21836293 0.00000000
0.33796824 0.21225538 0.00000000
0.41893849 0.20384750 0.00000000
0.50250212 0.19213122 0.00000000
0.57730659 0.17549070 0.00000000
0.64432170 0.15108141 0.00000000
0.70455545 0.11295121 0.00000000
0.75861374 0.04708981 0.00000000
0.80685131 0.00000000 0.00000000
0.84945987 0.00000000 0.00000000
0.88652230 0.00000000 0.00000000
0.91804733 0.00000000 0.00000000
0.94399248 0.00000000 0.00000000
0.96427953 0.00000000 0.00000000
0.97880516 0.00000000 0.00000000
0.98744838 0.00000000 0.00000000
0.99025415 0.00000000 0.00000000
0.99130711 0.00000000 0.00000000
0.99235930 0.00000000 0.00000000
0.99341092 0.00000000 0.00000000
0.99446210 0.00000000 0.00000000
0.99551296 0.00000000 0.00000000
0.99656357 0.00000000 0.00000000
0.99761401 0.00000000 0.00000000
0.00000000 0.28887484 0.00000000
0.00000000 0.28767821 0.00000000
0.00000000 0.28647703 0.00000000
0.00000000 0.28527125 0.00000000
0.00000000 0.28406084 0.00000000
0.00000000 0.28283769 0.00000000
0.00000000 0.28133133 0.00000000
0.06558434 0.27930451 0.00000000
0.15702447 0.27657191 0.00000000
0.23796290 0.27287752 0.00000000
0.31864552 0.26786353 0.00000000
0.40337866 0.26102139 0.00000000
0.49149942 0.25161085 0.00000000
0.57002044 0.23851558 0.00000000
0.63945656 0.21995794 0.00000000
0.70129952 0.19284371 0.00000000
0.75644047 0.15084047 0.00000000
0.80541109 0.07499653 0.00000000
0.84851692 0.00000000 0.00000000
0.88591604 0.00000000 0.00000000
0.91766784 0.00000000 0.00000000
0.94376436 0.00000000 0.00000000
0.96415113 0.00000000 0.00000000
0.97874124 0.00000000 0.00000000
0.98742507 0.00000000 0.00000000
0.99025091 0.00000000 0.00000000
0.99130470 0.00000000 0.00000000
0.99235750 0.00000000 0.00000000
0.99340957 0.00000000 0.00000000
0.99446109 0.00000000 0.00000000
0.99551220 0.00000000 0.00000000
0.99656301 0.00000000 0.00000000
0.99761359 0.00000000 0.00000000
0.00000000 0.34669042 0.00000000
0.00000000 0.34568118 0.00000000
0.00000000 0.34466914 0.00000000
0.00000000 0.34365427 0.00000000
0.00000000 0.34263654 0.00000000
0.00000000 0.34160919 0.00000000
0.00000000 0.34034547 0.00000000
0.00000000 0.33864777 0.00000000
0.10141867 0.33636377 0.00000000
0.20093668 0.33328491 0.00000000
0.29094308 0.32912334 0.00000000
0.38159078 0.32347704 0.00000000
0.47574105 0.31577546 0.00000000
0.55978246 0.30518970 0.00000000
0.63270905 0.29047344 0.00000000
0.69682510 0.26965121 0.00000000
0.75347350 0.23931128 0.00000000
0.80345428 0.19257682 0.00000000
0.84724022 0.10982375 0.00000000
0.88509732 0.00000000 0.00000000
0.91715631 0.00000000 0.00000000
0.94345726 0.00000000 0.00000000
0.96397842 0.00000000 0.00000000
0.97865529 0.00000000 0.00000000
0.98739369 0.00000000 0.00000000
0.99024658 0.00000000 0.00000000
0.99130146 0.00000000 0.00000000
0.99235508 0.00000000 0.00000000
0.99340776 0.00000000 0.00000000
0.99445974 0.00000000 0.00000000
0.99551120 0.00000000 0.00000000
0.99656226 0.00000000 0.00000000
0.99761303 0.00000000 0.00000000
0.00000000 0.41205057 0.00000000
0.00000000 0.41119708 0.00000000
0.00000000 0.41034185 0.00000000
0.00000000 0.40948485 0.00000000
0.00000000 0.40862608 0.00000000
0.00000000 0.40775984 0.00000000
0.00000000 0.40669522 0.00000000
0.00000000 0.40526656 0.00000000
0.00333512 0.40334740 0.00000000
0.14024031 0.40076567 0.00000000
0.24960638 0.39728589 0.00000000
0.35039956 0.39258313 0.00000000
0.45249948 0.38620401 0.00000000
0.54511114 0.37750563 0.00000000
0.62322141 0.36555532 0.00000000
0.69061510 0.34895368 0.00000000
0.74939336 0.32548992 0.00000000
0.80078101 0.29136713 0.00000000
0.84550443 0.23901321 0.00000000
0.88398807 0.14742046 0.00000000
0.91646501 0.00000000 0.00000000
0.94304299 0.00000000 0.00000000
0.96374569 0.00000000 0.00000000
0.97853951 0.00000000 0.00000000
0.98735134 0.00000000 0.00000000
0.99024077 0.00000000 0.00000000
0.99129713 0.00000000 0.00000000
0.99235185 0.00000000 0.00000000
0.99340535 0.00000000 0.00000000
0.99445794 0.00000000 0.00000000
0.99550985 0.00000000 0.00000000
0.99656125 0.00000000 0.00000000
0.99761227 0.00000000 0.00000000
0.00000000 0.48371930 0.00000000
0.00000000 0.48307156 0.00000000
0.00000000 0.48242170 0.00000000
0.00000000 0.48176969 0.00000000
0.00000000 0.48111552 0.00000000
0.00000000 0.48045484 0.00000000
0.00000000 0.47964171 0.00000000
0.00000000 0.47854859 0.00000000
0.00000000 0.47707663 0.00000000
0.01924891 0.47509010 0.00000000
0.18247814 0.47240096 0.00000000
0.30398323 0.46874561 0.00000000
0.41740783 0.46374852 0.00000000
0.52345799 0.45686311 0.00000000
0.60961297 0.44726999 0.00000000
0.68187496 0.43378020 0.00000000
0.74372531 0.41499976 0.00000000
0.79710146 0.38847795 0.00000000
0.84313102 0.34996145 0.00000000
0.88247861 0.29103234 0.00000000
0.91552754 0.18879010 0.00000000
0.94248254 0.00000000 0.00000000
0.96343132 0.00000000 0.00000000
0.97838318 0.00000000 0.00000000
0.98729402 0.00000000 0.00000000
0.99023299 0.00000000 0.00000000
0.99129132 0.00000000 0.00000000
0.99234752 0.00000000 0.00000000
0.99340211 0.00000000 0.00000000
0.99445552 0.00000000 0.00000000
0.99550804 0.00000000 0.00000000
0.99655990 0.00000000 0.00000000
0.99761127 0.00000000 0.00000000
0.00000000 0.55192048 0.00000000
0.00000000 0.55146838 0.00000000
0.00000000 0.55101516 0.00000000
0.00000000 0.55056081 0.00000000
0.00000000 0.55010533 0.00000000
0.00000000 0.54964568 0.00000000
0.00000000 0.54908051 0.00000000
0.00000000 0.54832162 0.00000000
0.00000000 0.54730137 0.00000000
0.00000000 0.54592746 0.00000000
0.04053984 0.54407310 0.00000000
0.22909168 0.54156263 0.00000000
0.36507469 0.53814965 0.00000000
0.48997873 0.53348305 0.00000000
0.58950465 0.52705145 0.00000000
0.66932275 0.51808780 0.00000000
0.73573793 0.50539414 0.00000000
0.79198371 0.48699099 0.00000000
0.83986034 0.45933184 0.00000000
0.88041222 0.41613946 0.00000000
0.91425025 0.34958391 0.00000000
0.94172145 0.23478542 0.00000000
0.96300529 0.00000000 0.00000000
0.97817144 0.00000000 0.00000000
0.98721615 0.00000000 0.00000000
0.99022255 0.00000000 0.00000000
0.99128354 0.00000000 0.00000000
0.99234171 0.00000000 0.00000000
0.99339778 0.00000000 0.00000000
0.99445229 0.00000000 0.00000000
0.99550563 0.00000000 0.00000000
0.99655810 0.00000000 0.00000000
0.99760992 0.00000000 0.00000000
0.00000000 0.61549981 0.00000000
0.00000000 0.61518564 0.00000000
0.00000000 0.61487088 0.00000000
0.00000000 0.61455553 0.00000000
0.00000000 0.61423959 0.00000000
0.00000000 0.61392095 0.00000000
0.00000000 0.61352942 0.00000000
0.00000000 0.61300416 0.00000000
0.00000000 0.61229884 0.00000000
0.00000000 0.61135054 0.00000000
0.00000000 0.61007341 0.00000000
0.06902482 0.60834946 0.00000000
0.28101979 0.60601517 0.00000000
0.43397990 0.60284103 0.00000000
0.55836707 0.59849976 0.00000000
0.65074363 0.59251428 0.00000000
0.72424751 0.58416819 0.00000000
0.78476012 0.57234119 0.00000000
0.83530408 0.55517958 0.00000000
0.87756012 0.52935766 0.00000000
0.91249877 0.48813466 0.00000000
0.94068253 0.41571249 0.00000000
0.96242537 0.28628487 0.00000000
0.97788347 0.00000000 0.00000000
0.98710982 0.00000000 0.00000000
0.99020854 0.00000000 0.00000000
0.99127311 0.00000000 0.00000000
0.99233393 0.00000000 0.00000000
0.99339198 0.00000000 0.00000000
0.99444796 0.00000000 0.00000000
0.99550239 0.00000000 0.00000000
0.99655568 0.00000000 0.00000000
0.99760812 0.00000000 0.00000000
0.00000000 0.67445711 0.00000000
0.00000000 0.67424011 0.00000000
0.00000000 0.67402280 0.00000000
0.00000000 0.67380518 0.00000000
0.00000000 0.67358725 0.00000000
0.00000000 0.67336757 0.00000000
0.00000000 0.67309776 0.00000000
0.00000000 0.67273604 0.00000000
0.00000000 0.67225074 0.00000000
0.00000000 0.67159904 0.00000000
0.00000000 0.67072275 0.00000000
0.00000000 0.66954245 0.00000000
0.10541867 0.66794897 0.00000000
0.33924164 0.66579085 0.00000000
0.50611442 0.66285542 0.00000000
0.62190918 0.65883908 0.00000000
0.70720146 0.65329870 0.00000000
0.77434572 0.64556786 0.00000000
0.82885936 0.63460248 0.00000000
0.87357854 0.61867126 0.00000000
0.91007596 0.59466083 0.00000000
0.93925438 0.55624658 0.00000000
0.96163131 0.48770663 0.00000000
0.97748967 0.34423115 0.00000000
0.98696366 0.00000000 0.00000000
0.99018971 0.00000000 0.00000000
0.99125910 0.00000000 0.00000000
0.99232350 0.00000000 0.00000000
0.99338420 0.00000000 0.00000000
0.99444215 0.00000000 0.00000000
0.99549806 0.00000000 0.00000000
0.99655245 0.00000000 0.00000000
0.99760570 0.00000000 0.00000000
0.00000000 0.72874607 0.00000000
0.00000000 0.72859737 0.00000000
0.00000000 0.72844851 0.00000000
0.00000000 0.72829948 0.00000000
0.00000000 0.72815030 0.00000000
0.00000000 0.72799996 0.00000000
0.00000000 0.72781539 0.00000000
0.00000000 0.72756807 0.00000000
0.00000000 0.72723647 0.00000000
0.00000000 0.72679156 0.00000000
0.00000000 0.72619405 0.00000000
0.00000000 0.72539052 0.00000000
0.00000000 0.72430806 0.00000000
0.14455553 0.72284636 0.00000000
0.40481533 0.72086616 0.00000000
0.57338053 0.71817172 0.00000000
0.68066538 0.71448322 0.00000000
0.75885035 0.70939163 0.00000000
0.81954139 0.70228050 0.00000000
0.86793072 0.69218170 0.00000000
0.90668369 0.67748517 0.00000000
0.93727231 0.65528600 0.00000000
0.96053527 0.61966241 0.00000000
0.97694714 0.55584725 0.00000000
0.98676102 0.40965963 0.00000000
0.99016436 0.00000000 0.00000000
0.99124027 0.00000000 0.00000000
0.99230949 0.00000000 0.00000000
0.99337377 0.00000000 0.00000000
0.99443438 0.00000000 0.00000000
0.99549226 0.00000000 0.00000000
0.99654812 0.00000000 0.00000000
0.99760247 0.00000000 0.00000000
0.00000000 0.77828757 0.00000000
0.00000000 0.77818670 0.00000000
0.00000000 0.77808575 0.00000000
0.00000000 0.77798472 0.00000000
0.00000000 0.77788359 0.00000000
0.00000000 0.77778172 0.00000000
0.00000000 0.77765668 0.00000000
0.00000000 0.77748919 0.00000000
0.00000000 0.77726474 0.00000000
0.00000000 0.77696379 0.00000000
0.00000000 0.77655997 0.00000000
0.00000000 0.77601757 0.00000000
0.00000000 0.77528807 0.00000000
0.00000000 0.77430511 0.00000000
0.18721446 0.77297742 0.00000000
0.47722442 0.77117812 0.00000000
0.63582123 0.76872863 0.00000000
0.73463164 0.76537327 0.00000000
0.80562407 0.76073748 0.00000000
0.85973397 0.75425533 0.00000000
0.90185291 0.74503518 0.00000000
0.93448503 0.73158857 0.00000000
0.95900591 0.71121841 0.00000000
0.97619228 0.67840031 0.00000000
0.98647683 0.61929147 0.00000000
0.99013016 0.48158438 0.00000000
0.99121492 0.00000000 0.00000000
0.99229067 0.00000000 0.00000000
0.99335976 0.00000000 0.00000000
0.99442394 0.00000000 0.00000000
0.99548448 0.00000000 0.00000000
0.99654232 0.00000000 0.00000000
0.99759814 0.00000000 0.00000000
0.00000000 0.82297903 0.00000000
0.00000000 0.82291149 0.00000000
0.00000000 0.82284391 0.00000000
0.00000000 0.82277628 0.00000000
0.00000000 0.82270861 0.00000000
0.00000000 0.82264045 0.00000000
0.00000000 0.82255681 0.00000000
0.00000000 0.82244481 0.00000000
0.00000000 0.82229477 0.00000000
0.00000000 0.82209369 0.00000000
0.00000000 0.82182406 0.00000000
0.00000000 0.82146222 0.00000000
0.00000000 0.82097614 0.00000000
0.00000000 0.82032224 0.00000000
0.00000000 0.81944095 0.00000000
0.23434864 0.81825015 0.00000000
0.54649256 0.81663560 0.00000000
0.69348000 0.81443626 0.00000000
0.78375857 0.81142102 0.00000000
0.84742906 0.80725045 0.00000000
0.89480533 0.80140996 0.00000000
0.93049290 0.79308556 0.00000000
0.95684002 0.78091190 0.00000000
0.97512797 0.76240126 0.00000000
0.98607239 0.73242682 0.00000000
0.99008390 0.67805783 0.00000000
0.99118073 0.55013465 0.00000000
0.99226532 0.00000000 0.00000000
0.99334094 0.00000000 0.00000000
0.99440994 0.00000000 0.00000000
0.99547405 0.00000000 0.00000000
0.99653454 0.00000000 0.00000000
0.99759233 0.00000000 0.00000000
0.00000000 0.86270097 0.00000000
0.00000000 0.86265652 0.00000000
0.00000000 0.86261203 0.00000000
0.00000000 0.86256753 0.00000000
0.00000000 0.86252300 0.00000000
0.00000000 0.86247815 0.00000000
0.00000000 0.86242314 0.00000000
0.00000000 0.86234947 0.00000000
0.00000000 0.86225082 0.00000000
0.00000000 0.86211866 0.00000000
0.00000000 0.86194152 0.00000000
0.00000000 0.86170398 0.00000000
0.00000000 0.86138515 0.00000000
0.00000000 0.86095677 0.00000000
0.00000000 0.86038034 0.00000000
0.00000000 0.85960319 0.00000000
0.28689888 0.85855262 0.00000000
0.61089490 0.85712734 0.00000000
0.74634093 0.85518421 0.00000000
0.82796459 0.85251729 0.00000000
0.88415220 0.84882305 0.00000000
0.92462472 0.84363937 0.00000000
0.95370927 0.83623146 0.00000000
0.97360042 0.82535933 0.00000000
0.98548575 0.80874788 0.00000000
0.99002106 0.78167190 0.00000000
0.99113448 0.73211314 0.00000000
0.99223114 0.61398383 0.00000000
0.99331560 0.00000000 0.00000000
0.99439112 0.00000000 0.00000000
0.99546005 0.00000000 0.00000000
0.99652411 0.00000000 0.00000000
0.99758456 0.00000000 0.00000000
0.00000000 0.89732183 0.00000000
0.00000000 0.89729322 0.00000000
0.00000000 0.89726460 0.00000000
0.00000000 0.89723597 0.00000000
0.00000000 0.89720732 0.00000000
0.00000000 0.89717848 0.00000000
0.00000000 0.89714309 0.00000000
0.00000000 0.89709572 0.00000000
0.00000000 0.89703229 0.00000000
0.00000000 0.89694734 0.00000000
0.00000000 0.89683353 0.00000000
0.00000000 0.89668098 0.00000000
0.00000000 0.89647636 0.00000000
0.00000000 0.89620168 0.00000000
0.00000000 0.89583251 0.00000000
0.00000000 0.89533559 0.00000000
0.00000000 0.89466532 0.00000000
0.34585114 0.89375867 0.00000000
0.67050594 0.89252760 0.00000000
0.79434626 0.89084737 0.00000000
0.86714517 0.88853785 0.00000000
0.91566632 0.88533228 0.00000000
0.94905233 0.88082231 0.00000000
0.97135454 0.87435423 0.00000000
0.98461387 0.86481623 0.00000000
0.98992368 0.85015017 0.00000000
0.99107165 0.82603936 0.00000000
0.99218489 0.78138751 0.00000000
0.99328142 0.67315585 0.00000000
0.99436578 0.00000000 0.00000000
0.99544123 0.00000000 0.00000000
0.99651010 0.00000000 0.00000000
0.99757413 0.00000000 0.00000000
0.00000000 0.92670128 0.00000000
0.00000000 0.92668345 0.00000000
0.00000000 0.92666561 0.00000000
0.00000000 0.92664776 0.00000000
0.00000000 0.92662991 0.00000000
0.00000000 0.92661193 0.00000000
0.00000000 0.92658988 0.00000000
0.00000000 0.92656036 0.00000000
0.00000000 0.92652085 0.00000000
0.00000000 0.92646794 0.00000000
0.00000000 0.92639707 0.00000000
0.00000000 0.92630211 0.00000000
0.00000000 0.92617480 0.00000000
0.00000000 0.92600401 0.00000000
0.00000000 0.92577467 0.00000000
0.00000000 0.92546634 0.00000000
0.00000000 0.92505109 0.00000000
0.00000000 0.92449061 0.00000000
0.41227377 0.92373180 0.00000000
0.72533156 0.92270023 0.00000000
0.83740845 0.92129006 0.00000000
0.90117931 0.91934762 0.00000000
0.94183419 0.91664395 0.00000000
0.96794186 0.91282586 0.00000000
0.98327691 0.90732283 0.00000000
0.98972507 0.89915443 0.00000000
0.99098584 0.88648469 0.00000000
0.99212207 0.86541430 0.00000000
0.99323517 0.82578491 0.00000000
0.99433160 0.72762132 0.00000000
0.99541589 0.00000000 0.00000000
