LogC_to_BT601_PAL.cube
TITLE "LogC_to_BT601_PAL"
LUT_3D_SIZE 9
# LogC to BT601 PAL by Francesco Bucciantini
0.00000000 0.00000000 0.00000000
0.09336246 0.00000000 0.00000000
0.25729598 0.00000000 0.00000000
0.50905215 0.00000000 0.00000000
0.74676188 0.00000000 0.00000000
0.90818379 0.00000000 0.00000000
0.98498054 0.00000000 0.00000000
0.99301585 0.00000000 0.00000000
0.99721595 0.00000000 0.00000000
0.00000000 0.06894750 0.00000000
0.04023123 0.06073014 0.00000000
0.23305771 0.04819560 0.00000000
0.49882949 0.00858898 0.00000000
0.74446589 0.00000000 0.00000000
0.90775526 0.00000000 0.00000000
0.98494594 0.00000000 0.00000000
0.99301440 0.00000000 0.00000000
0.99721550 0.00000000 0.00000000
0.00000000 0.22880869 0.00000000
0.00000000 0.22481754 0.00000000
0.19123972 0.21861106 0.00000000
0.48212193 0.19794776 0.00000000
0.74088425 0.11509745 0.00000000
0.90709610 0.00000000 0.00000000
0.98489285 0.00000000 0.00000000
0.99301219 0.00000000 0.00000000
0.99721481 0.00000000 0.00000000
0.00000000 0.47194918 0.00000000
0.00000000 0.47008770 0.00000000
0.00000000 0.46721449 0.00000000
0.41851426 0.45785621 0.00000000
0.72888729 0.42499583 0.00000000
0.90496864 0.29526631 0.00000000
0.98472264 0.00000000 0.00000000
0.99300520 0.00000000 0.00000000
0.99721263 0.00000000 0.00000000
0.00000000 0.72034554 0.00000000
0.00000000 0.71991822 0.00000000
0.00000000 0.71926383 0.00000000
0.01996137 0.71717560 0.00000000
0.68151261 0.71026682 0.00000000
0.89766082 0.68557421 0.00000000
0.98415136 0.56121806 0.00000000
0.99298270 0.00000000 0.00000000
0.99720563 0.00000000 0.00000000
0.00000000 0.89216687 0.00000000
0.00000000 0.89208382 0.00000000
0.00000000 0.89195697 0.00000000
0.00000000 0.89155469 0.00000000
0.14585164 0.89025076 0.00000000
0.86768989 0.88591229 0.00000000
0.98203187 0.87011741 0.00000000
0.99290965 0.78528606 0.00000000
0.99718314 0.00000000 0.00000000
0.00000000 0.98026879 0.00000000
0.00000000 0.98026028 0.00000000
0.00000000 0.98024730 0.00000000
0.00000000 0.98020619 0.00000000
0.00000000 0.98007360 0.00000000
0.34770659 0.97963966 0.00000000
0.97125609 0.97815126 0.00000000
0.99266513 0.97220853 0.00000000
0.99711011 0.93070056 0.00000000
0.00000000 0.99248446 0.00000000
0.00000000 0.99248420 0.00000000
0.00000000 0.99248381 0.00000000
0.00000000 0.99248256 0.00000000
0.00000000 0.99247857 0.00000000
0.00000000 0.99246574 0.00000000
0.61924525 0.99242433 0.00000000
0.99174695 0.99228836 0.00000000
0.99686564 0.99181461 0.00000000
0.00000000 0.99668481 0.00000000
0.00000000 0.99668473 0.00000000
0.00000000 0.99668461 0.00000000
0.00000000 0.99668422 0.00000000
0.00000000 0.99668297 0.00000000
0.00000000 0.99667898 0.00000000
0.00000000 0.99666615 0.00000000
0.82613688 0.99662475 0.00000000
0.99594773 0.99648882 0.00000000
0.00000000 0.00000000 0.06097010
0.08358438 0.00000000 0.05858179
0.25280043 0.00000000 0.05493874
0.50713114 0.00000000 0.04342743
0.74632421 0.00000000 0.00654586
0.90810173 0.00000000 0.00000000
0.98497391 0.00000000 0.00000000
0.99301557 0.00000000 0.00000000
0.99721586 0.00000000 0.00000000
0.00000000 0.03820312 0.03237406
0.02998576 0.02998576 0.02998576
0.22815139 0.01745123 0.02634271
0.49680357 0.00000000 0.01483140
0.74402044 0.00000000 0.00000000
0.90767266 0.00000000 0.00000000
0.98493928 0.00000000 0.00000000
0.99301413 0.00000000 0.00000000
0.99721541 0.00000000 0.00000000
0.00000000 0.21355498 0.00000000
0.00000000 0.20932091 0.00000000
0.18543744 0.20272196 0.00000000
0.47991482 0.18060629 0.00000000
0.74042648 0.08808850 0.00000000
0.90701266 0.00000000 0.00000000
0.98488614 0.00000000 0.00000000
0.99301191 0.00000000 0.00000000
0.99721472 0.00000000 0.00000000
0.00000000 0.46489414 0.00000000
0.00000000 0.46296573 0.00000000
0.00000000 0.45998819 0.00000000
0.41567801 0.45028150 0.00000000
0.72838654 0.41655850 0.00000000
0.90488246 0.28321380 0.00000000
0.98471578 0.00000000 0.00000000
0.99300492 0.00000000 0.00000000
0.99721254 0.00000000 0.00000000
0.00000000 0.71873994 0.00000000
0.00000000 0.71830762 0.00000000
0.00000000 0.71764559 0.00000000
0.00971591 0.71553275 0.00000000
0.68081435 0.70854071 0.00000000
0.89756491 0.68352589 0.00000000
0.98414401 0.55683140 0.00000000
0.99298242 0.00000000 0.00000000
0.99720555 0.00000000 0.00000000
0.00000000 0.89185568 0.00000000
0.00000000 0.89177229 0.00000000
0.00000000 0.89164489 0.00000000
0.00000000 0.89124089 0.00000000
0.13866750 0.88993135 0.00000000
0.86754859 0.88557384 0.00000000
0.98202271 0.86970479 0.00000000
0.99290937 0.78432195 0.00000000
0.99718305 0.00000000 0.00000000
0.00000000 0.98023694 0.00000000
0.00000000 0.98022841 0.00000000
0.00000000 0.98021540 0.00000000
0.00000000 0.98017419 0.00000000
0.00000000 0.98004127 0.00000000
0.34430711 0.97960627 0.00000000
0.97123818 0.97811424 0.00000000
0.99266482 0.97215708 0.00000000
0.99711002 0.93053323 0.00000000
0.00000000 0.99248349 0.00000000
0.00000000 0.99248323 0.00000000
0.00000000 0.99248284 0.00000000
0.00000000 0.99248159 0.00000000
0.00000000 0.99247760 0.00000000
0.00000000 0.99246477 0.00000000
0.61820878 0.99242334 0.00000000
0.99174656 0.99228734 0.00000000
0.99686555 0.99181345 0.00000000
0.00000000 0.99668451 0.00000000
0.00000000 0.99668443 0.00000000
0.00000000 0.99668430 0.00000000
0.00000000 0.99668392 0.00000000
0.00000000 0.99668267 0.00000000
0.00000000 0.99667868 0.00000000
0.00000000 0.99666585 0.00000000
0.82591623 0.99662445 0.00000000
0.99594761 0.99648850 0.00000000
0.00000000 0.00000000 0.21891452
0.06772357 0.00000000 0.21771645
0.24580455 0.00000000 0.21587819
0.50416343 0.00000000 0.20998157
0.74565375 0.00000000 0.19008964
0.90797637 0.00000000 0.11059244
0.98496378 0.00000000 0.00000000
0.99301515 0.00000000 0.00000000
0.99721573 0.00000000 0.00000000
0.00000000 0.00000000 0.20418707
0.01435761 0.00000000 0.20291716
0.22048928 0.00000000 0.20096741
0.49367209 0.00000000 0.19470224
0.74333803 0.00000000 0.17343056
0.90754647 0.00000000 0.08486618
0.98492911 0.00000000 0.00000000
0.99301370 0.00000000 0.00000000
0.99721528 0.00000000 0.00000000
0.00000000 0.18835706 0.17986812
0.00000000 0.18365676 0.17846084
0.17629724 0.17629724 0.17629724
0.47650010 0.15128247 0.16932001
0.73972514 0.04109340 0.14530475
0.90688518 0.00000000 0.04103806
0.98487590 0.00000000 0.00000000
0.99301149 0.00000000 0.00000000
0.99721459 0.00000000 0.00000000
0.00000000 0.45363297 0.07579951
0.00000000 0.45159374 0.07341121
0.00000000 0.44844334 0.06976816
0.41131451 0.43817760 0.05825685
0.72761914 0.40335326 0.02137528
0.90475080 0.26387866 0.00000000
0.98470531 0.00000000 0.00000000
0.99300449 0.00000000 0.00000000
0.99721241 0.00000000 0.00000000
0.00000000 0.71625448 0.00000000
0.00000000 0.71581437 0.00000000
0.00000000 0.71514036 0.00000000
0.00000000 0.71298904 0.00000000
0.67974294 0.70586666 0.00000000
0.89741837 0.68034626 0.00000000
0.98413277 0.54992897 0.00000000
0.99298199 0.00000000 0.00000000
0.99720542 0.00000000 0.00000000
0.00000000 0.89137845 0.00000000
0.00000000 0.89129451 0.00000000
0.00000000 0.89116628 0.00000000
0.00000000 0.89075963 0.00000000
0.12716731 0.88944146 0.00000000
0.86733260 0.88505468 0.00000000
0.98200874 0.86907144 0.00000000
0.99290893 0.78283594 0.00000000
0.99718292 0.00000000 0.00000000
0.00000000 0.98018821 0.00000000
0.00000000 0.98017965 0.00000000
0.00000000 0.98016659 0.00000000
0.00000000 0.98012522 0.00000000
0.00000000 0.97999181 0.00000000
0.33905941 0.97955519 0.00000000
0.97121084 0.97805761 0.00000000
0.99266435 0.97207836 0.00000000
0.99710989 0.93027695 0.00000000
0.00000000 0.99248202 0.00000000
0.00000000 0.99248176 0.00000000
0.00000000 0.99248136 0.00000000
0.00000000 0.99248012 0.00000000
0.00000000 0.99247612 0.00000000
0.00000000 0.99246328 0.00000000
0.61661527 0.99242184 0.00000000
0.99174595 0.99228578 0.00000000
0.99686540 0.99181167 0.00000000
0.00000000 0.99668405 0.00000000
0.00000000 0.99668397 0.00000000
0.00000000 0.99668384 0.00000000
0.00000000 0.99668346 0.00000000
0.00000000 0.99668221 0.00000000
0.00000000 0.99667822 0.00000000
0.00000000 0.99666539 0.00000000
0.82557872 0.99662398 0.00000000
0.99594742 0.99648801 0.00000000
0.00000000 0.00000000 0.45828202
0.01834174 0.00000000 0.45770482
0.22246382 0.00000000 0.45682121
0.49447520 0.00000000 0.45400360
0.74351234 0.00000000 0.44470453
0.90757866 0.00000000 0.41288749
0.98493170 0.00000000 0.28906775
0.99301381 0.00000000 0.00000000
0.99721531 0.00000000 0.00000000
0.00000000 0.00000000 0.45126085
0.00000000 0.00000000 0.45066334
0.19465418 0.00000000 0.44974854
0.48343451 0.00000000 0.44683073
0.74115817 0.00000000 0.43722316
0.90714611 0.00000000 0.40481391
0.98489687 0.00000000 0.27764625
0.99301236 0.00000000 0.00000000
0.99721486 0.00000000 0.00000000
0.00000000 0.08016532 0.44006834
0.00000000 0.07194795 0.43944101
0.14462067 0.05941342 0.43848238
0.46530897 0.01980679 0.43543946
0.73748433 0.00000000 0.42554439
0.90648074 0.00000000 0.39218484
0.98484344 0.00000000 0.25936007
0.99301015 0.00000000 0.00000000
0.99721417 0.00000000 0.00000000
0.00000000 0.41438402 0.40228067
0.00000000 0.41208824 0.40159498
0.00000000 0.40856185 0.40054684
0.39721710 0.39721710 0.39721710
0.72516552 0.35852788 0.38636013
0.90433304 0.19228602 0.34938746
0.98467213 0.00000000 0.19218725
0.99300315 0.00000000 0.00000000
0.99721199 0.00000000 0.00000000
0.00000000 0.70809803 0.24688749
0.00000000 0.70763164 0.24580717
0.00000000 0.70691726 0.24415128
0.00000000 0.70463614 0.23885364
0.67630642 0.69707338 0.22115297
0.89695330 0.66983416 0.15406530
0.98409718 0.52624451 0.00000000
0.99298064 0.00000000 0.00000000
0.99720500 0.00000000 0.00000000
0.00000000 0.88984983 0.00000000
0.00000000 0.88976413 0.00000000
0.00000000 0.88963322 0.00000000
0.00000000 0.88921803 0.00000000
0.08494866 0.88787203 0.00000000
0.86664646 0.88339076 0.00000000
0.98196447 0.86703829 0.00000000
0.99290755 0.77801404 0.00000000
0.99718250 0.00000000 0.00000000
0.00000000 0.98003303 0.00000000
0.00000000 0.98002438 0.00000000
0.00000000 0.98001116 0.00000000
0.00000000 0.97996930 0.00000000
0.00000000 0.97983431 0.00000000
0.32194899 0.97939251 0.00000000
0.97112422 0.97787728 0.00000000
0.99266287 0.97182768 0.00000000
0.99710945 0.92945876 0.00000000
0.00000000 0.99247735 0.00000000
0.00000000 0.99247709 0.00000000
0.00000000 0.99247670 0.00000000
0.00000000 0.99247545 0.00000000
0.00000000 0.99247145 0.00000000
0.00000000 0.99245859 0.00000000
0.61147788 0.99241710 0.00000000
0.99174405 0.99228085 0.00000000
0.99686494 0.99180605 0.00000000
0.00000000 0.99668259 0.00000000
0.00000000 0.99668251 0.00000000
0.00000000 0.99668239 0.00000000
0.00000000 0.99668200 0.00000000
0.00000000 0.99668075 0.00000000
0.00000000 0.99667676 0.00000000
0.00000000 0.99666393 0.00000000
0.82450490 0.99662250 0.00000000
0.99594682 0.99648647 0.00000000
0.00000000 0.00000000 0.71057163
0.00000000 0.00000000 0.71043858
0.12765537 0.00000000 0.71023539
0.45976846 0.00000000 0.70959142
0.73640697 0.00000000 0.70750824
0.90628783 0.00000000 0.70062127
0.98482798 0.00000000 0.67607116
0.99300951 0.00000000 0.55409865
0.99721397 0.00000000 0.00000000
0.00000000 0.00000000 0.70897030
0.00000000 0.00000000 0.70883573
0.08164992 0.00000000 0.70863022
0.44656371 0.00000000 0.70797890
0.73392205 0.00000000 0.70587177
0.90584664 0.00000000 0.69890383
0.98479268 0.00000000 0.67404161
0.99300806 0.00000000 0.54985707
0.99721352 0.00000000 0.00000000
0.00000000 0.00000000 0.70649230
0.00000000 0.00000000 0.70635537
0.00000000 0.00000000 0.70614624
0.42501565 0.00000000 0.70548342
0.73004078 0.00000000 0.70333885
0.90516793 0.00000000 0.69624422
0.98473851 0.00000000 0.67089260
0.99300585 0.00000000 0.54319168
0.99721283 0.00000000 0.00000000
0.00000000 0.25120662 0.69836766
0.00000000 0.24752898 0.69822275
0.00000000 0.24182550 0.69800145
0.34834433 0.22298532 0.69729993
0.71699558 0.15071426 0.69502922
0.90297673 0.00000000 0.68750717
0.98456485 0.00000000 0.66049457
0.99299884 0.00000000 0.52040403
0.99721065 0.00000000 0.00000000
0.00000000 0.67833677 0.66881887
0.00000000 0.67776501 0.66864218
0.00000000 0.67688865 0.66837227
0.00000000 0.67408566 0.66751625
0.66474108 0.66474108 0.66474108
0.89544235 0.63037670 0.65549914
0.98398213 0.42226312 0.62164677
0.99297630 0.00000000 0.42210773
0.99720365 0.00000000 0.00000000
0.00000000 0.88473043 0.50345660
0.00000000 0.88463871 0.50299734
0.00000000 0.88449859 0.50229469
0.00000000 0.88405416 0.50005755
0.00000000 0.88261272 0.49271124
0.86441021 0.87780697 0.46713567
0.98182142 0.86017867 0.36279797
0.99290312 0.76112838 0.00000000
0.99718114 0.00000000 0.00000000
0.00000000 0.97952336 0.00000000
0.00000000 0.97951437 0.00000000
0.00000000 0.97950064 0.00000000
0.00000000 0.97945717 0.00000000
0.00000000 0.97931699 0.00000000
0.26030792 0.97885824 0.00000000
0.97084437 0.97728509 0.00000000
0.99265814 0.97100434 0.00000000
0.99710807 0.92674873 0.00000000
0.00000000 0.99246236 0.00000000
0.00000000 0.99246210 0.00000000
0.00000000 0.99246170 0.00000000
0.00000000 0.99246045 0.00000000
0.00000000 0.99245643 0.00000000
0.00000000 0.99244353 0.00000000
0.59388155 0.99240186 0.00000000
0.99173793 0.99226502 0.00000000
0.99686346 0.99178799 0.00000000
0.00000000 0.99667793 0.00000000
0.00000000 0.99667785 0.00000000
0.00000000 0.99667773 0.00000000
0.00000000 0.99667734 0.00000000
0.00000000 0.99667609 0.00000000
0.00000000 0.99667209 0.00000000
0.00000000 0.99665924 0.00000000
0.82098708 0.99661776 0.00000000
0.99594492 0.99648155 0.00000000
0.00000000 0.00000000 0.88610252
0.00000000 0.00000000 0.88607634
0.00000000 0.00000000 0.88603641
0.30827495 0.00000000 0.88591007
0.71074482 0.00000000 0.88550387
0.90197410 0.00000000 0.88418772
0.98448601 0.00000000 0.87981351
0.99299570 0.00000000 0.86395031
0.99720967 0.00000000 0.78027565
0.00000000 0.00000000 0.88578856
0.00000000 0.00000000 0.88576228
0.00000000 0.00000000 0.88572217
0.28792366 0.00000000 0.88559531
0.70774534 0.00000000 0.88518744
0.90150347 0.00000000 0.88386579
0.98444914 0.00000000 0.87947299
0.99299425 0.00000000 0.86353764
0.99720922 0.00000000 0.77934022
0.00000000 0.00000000 0.88530715
0.00000000 0.00000000 0.88528070
0.00000000 0.00000000 0.88524035
0.25408177 0.00000000 0.88511268
0.70304463 0.00000000 0.88470221
0.90077927 0.00000000 0.88337213
0.98439257 0.00000000 0.87895073
0.99299202 0.00000000 0.86290435
0.99720853 0.00000000 0.77789906
0.00000000 0.00000000 0.88376580
0.00000000 0.00000000 0.88373881
0.00000000 0.00000000 0.88369764
0.10242687 0.00000000 0.88356738
0.68709918 0.00000000 0.88314856
0.89843963 0.00000000 0.88179127
0.98421124 0.00000000 0.87727761
0.99298499 0.00000000 0.86087241
0.99720635 0.00000000 0.77322823
0.00000000 0.50848736 0.87861081
0.00000000 0.50694359 0.87858199
0.00000000 0.50456465 0.87853801
0.00000000 0.49684929 0.87839889
0.62063460 0.46985921 0.87795151
0.89037591 0.35765714 0.87650108
0.98360305 0.00000000 0.87167114
0.99296237 0.00000000 0.85402840
0.99719934 0.00000000 0.75693906
0.00000000 0.86564584 0.85948559
0.00000000 0.86552977 0.85944939
0.00000000 0.86535242 0.85939415
0.00000000 0.86478960 0.85921938
0.00000000 0.86296117 0.85865707
0.85683112 0.85683112 0.85683112
0.98135058 0.83386809 0.85071824
0.99288890 0.68496520 0.82793861
0.99717681 0.00000000 0.68484423
0.00000000 0.97775505 0.74465336
0.00000000 0.97774491 0.74454980
0.00000000 0.97772943 0.74439169
0.00000000 0.97768041 0.74389081
0.00000000 0.97752231 0.74227303
0.00000000 0.97700501 0.73695197
0.96992361 0.97523146 0.71833091
0.99264291 0.96814587 0.63437111
0.99710365 0.91704967 0.00000000
0.00000000 0.99241391 0.00000000
0.00000000 0.99241365 0.00000000
0.00000000 0.99241325 0.00000000
0.00000000 0.99241198 0.00000000
0.00000000 0.99240790 0.00000000
0.00000000 0.99239482 0.00000000
0.52163675 0.99235258 0.00000000
0.99171828 0.99221383 0.00000000
0.99685873 0.99172950 0.00000000
0.00000000 0.99666294 0.00000000
0.00000000 0.99666286 0.00000000
0.00000000 0.99666274 0.00000000
0.00000000 0.99666235 0.00000000
0.00000000 0.99666110 0.00000000
0.00000000 0.99665708 0.00000000
0.00000000 0.99664417 0.00000000
0.80885135 0.99660252 0.00000000
0.99593881 0.99646572 0.00000000
0.00000000 0.00000000 0.97821771
0.00000000 0.00000000 0.97821485
0.00000000 0.00000000 0.97821048
0.00000000 0.00000000 0.97819669
0.57395623 0.00000000 0.97815241
0.88602882 0.00000000 0.97800966
0.98328605 0.00000000 0.97754325
0.99295111 0.00000000 0.97595161
0.99719587 0.00000000 0.96969273
0.00000000 0.00000000 0.97818343
0.00000000 0.00000000 0.97818056
0.00000000 0.00000000 0.97817619
0.00000000 0.00000000 0.97816237
0.56680921 0.00000000 0.97811798
0.88544129 0.00000000 0.97797492
0.98324380 0.00000000 0.97750745
0.99294964 0.00000000 0.97591222
0.99719541 0.00000000 0.96963914
0.00000000 0.00000000 0.97813100
0.00000000 0.00000000 0.97812812
0.00000000 0.00000000 0.97812374
0.00000000 0.00000000 0.97810986
0.55532725 0.00000000 0.97806533
0.88453629 0.00000000 0.97792177
0.98317897 0.00000000 0.97745269
0.99294739 0.00000000 0.97585197
0.99719472 0.00000000 0.96955715
0.00000000 0.00000000 0.97796414
0.00000000 0.00000000 0.97796123
0.00000000 0.00000000 0.97795679
0.00000000 0.00000000 0.97794277
0.51346476 0.00000000 0.97789775
0.88160480 0.00000000 0.97775262
0.98297127 0.00000000 0.97727841
0.99294026 0.00000000 0.97566022
0.99719253 0.00000000 0.96929621
0.00000000 0.00000000 0.97741714
0.00000000 0.00000000 0.97741413
0.00000000 0.00000000 0.97740953
0.00000000 0.00000000 0.97739501
0.28538315 0.00000000 0.97734839
0.87140808 0.00000000 0.97719812
0.98227545 0.00000000 0.97670712
0.99291736 0.00000000 0.97503165
0.99718550 0.00000000 0.96844043
0.00000000 0.74810399 0.97553071
0.00000000 0.74775668 0.97552735
0.00000000 0.74722511 0.97552221
0.00000000 0.74553105 0.97550598
0.00000000 0.73995083 0.97545386
0.82724880 0.72032056 0.97528587
0.97970636 0.62955569 0.97473699
0.99284296 0.00000000 0.97286377
0.99716288 0.00000000 0.96548335
0.00000000 0.97042290 0.96784680
0.00000000 0.97040799 0.96784197
0.00000000 0.97038523 0.96783461
0.00000000 0.97031317 0.96781133
0.00000000 0.97008075 0.96773659
0.00000000 0.96931999 0.96749564
0.96670790 0.96670790 0.96670790
0.99259371 0.95617082 0.96401370
0.99708943 0.87003039 0.95327934
0.00000000 0.99225415 0.90728547
0.00000000 0.99225388 0.90726608
0.00000000 0.99225346 0.90723651
0.00000000 0.99225213 0.90714295
0.00000000 0.99224787 0.90684232
0.00000000 0.99223420 0.90586970
0.00000000 0.99219002 0.90265385
0.99165456 0.99204474 0.89120763
0.99684351 0.99153544 0.83656886
0.00000000 0.99661451 0.00000000
0.00000000 0.99661443 0.00000000
0.00000000 0.99661430 0.00000000
0.00000000 0.99661390 0.00000000
0.00000000 0.99661263 0.00000000
0.00000000 0.99660856 0.00000000
0.00000000 0.99659548 0.00000000
0.75782407 0.99655326 0.00000000
0.99591915 0.99641455 0.00000000
0.00000000 0.00000000 0.99229424
0.00000000 0.00000000 0.99229416
0.00000000 0.00000000 0.99229404
0.00000000 0.00000000 0.99229366
0.00000000 0.00000000 0.99229243
0.79380959 0.00000000 0.99228851
0.97817186 0.00000000 0.99227592
0.99280440 0.00000000 0.99223528
0.99715128 0.00000000 0.99210190
0.00000000 0.00000000 0.99229329
0.00000000 0.00000000 0.99229321
0.00000000 0.00000000 0.99229309
0.00000000 0.00000000 0.99229271
0.00000000 0.00000000 0.99229149
0.79225075 0.00000000 0.99228756
0.97810764 0.00000000 0.99227497
0.99280287 0.00000000 0.99223432
0.99715082 0.00000000 0.99210090
0.00000000 0.00000000 0.99229184
0.00000000 0.00000000 0.99229176
0.00000000 0.00000000 0.99229164
0.00000000 0.00000000 0.99229126
0.00000000 0.00000000 0.99229004
0.78983143 0.00000000 0.99228612
0.97800916 0.00000000 0.99227352
0.99280052 0.00000000 0.99223285
0.99715012 0.00000000 0.99209938
0.00000000 0.00000000 0.99228727
0.00000000 0.00000000 0.99228719
0.00000000 0.00000000 0.99228707
0.00000000 0.00000000 0.99228669
0.00000000 0.00000000 0.99228546
0.78183813 0.00000000 0.99228153
0.97769379 0.00000000 0.99226892
0.99279311 0.00000000 0.99222820
0.99714790 0.00000000 0.99209455
0.00000000 0.00000000 0.99227257
0.00000000 0.00000000 0.99227249
0.00000000 0.00000000 0.99227237
0.00000000 0.00000000 0.99227199
0.00000000 0.00000000 0.99227076
0.75194936 0.00000000 0.99226681
0.97663920 0.00000000 0.99225415
0.99276924 0.00000000 0.99221326
0.99714078 0.00000000 0.99207905
0.00000000 0.00000000 0.99222508
0.00000000 0.00000000 0.99222500
0.00000000 0.00000000 0.99222488
0.00000000 0.00000000 0.99222449
0.00000000 0.00000000 0.99222324
0.55283448 0.00000000 0.99221925
0.97275980 0.00000000 0.99220641
0.99269169 0.00000000 0.99216498
0.99711788 0.00000000 0.99202892
0.00000000 0.90931566 0.99206857
0.00000000 0.90925101 0.99206849
0.00000000 0.90915226 0.99206836
0.00000000 0.90883923 0.99206795
0.00000000 0.90782596 0.99206665
0.00000000 0.90446939 0.99206247
0.95293885 0.89244429 0.99204907
0.99243137 0.83331201 0.99200577
0.99704350 0.00000000 0.99186346
0.00000000 0.99168869 0.99151580
0.00000000 0.99168837 0.99151570
0.00000000 0.99168788 0.99151555
0.00000000 0.99168632 0.99151508
0.00000000 0.99168134 0.99151356
0.00000000 0.99166533 0.99150869
0.00000000 0.99161356 0.99149306
0.99144249 0.99144249 0.99144249
0.99679431 0.99083239 0.99127556
0.00000000 0.99645479 0.98477633
0.00000000 0.99645471 0.98477474
0.00000000 0.99645458 0.98477232
0.00000000 0.99645416 0.98476466
0.00000000 0.99645283 0.98474008
0.00000000 0.99644858 0.98466079
0.00000000 0.99643491 0.98440129
0.00000000 0.99639075 0.98351157
0.99585546 0.99624551 0.97998299
0.00000000 0.00000000 0.99649469
0.00000000 0.00000000 0.99649467
0.00000000 0.00000000 0.99649463
0.00000000 0.00000000 0.99649451
0.00000000 0.00000000 0.99649413
0.00000000 0.00000000 0.99649291
0.93532227 0.00000000 0.99648899
0.99228962 0.00000000 0.99647640
0.99700460 0.00000000 0.99643577
0.00000000 0.00000000 0.99649440
0.00000000 0.00000000 0.99649437
0.00000000 0.00000000 0.99649433
0.00000000 0.00000000 0.99649421
0.00000000 0.00000000 0.99649383
0.00000000 0.00000000 0.99649261
0.93505702 0.00000000 0.99648869
0.99228785 0.00000000 0.99647610
0.99700412 0.00000000 0.99643547
0.00000000 0.00000000 0.99649395
0.00000000 0.00000000 0.99649392
0.00000000 0.00000000 0.99649388
0.00000000 0.00000000 0.99649376
0.00000000 0.00000000 0.99649338
0.00000000 0.00000000 0.99649216
0.93464963 0.00000000 0.99648824
0.99228515 0.00000000 0.99647565
0.99700339 0.00000000 0.99643501
0.00000000 0.00000000 0.99649252
0.00000000 0.00000000 0.99649249
0.00000000 0.00000000 0.99649246
0.00000000 0.00000000 0.99649234
0.00000000 0.00000000 0.99649196
0.00000000 0.00000000 0.99649073
0.93333987 0.00000000 0.99648681
0.99227659 0.00000000 0.99647421
0.99700108 0.00000000 0.99643356
0.00000000 0.00000000 0.99648795
0.00000000 0.00000000 0.99648792
0.00000000 0.00000000 0.99648788
0.00000000 0.00000000 0.99648776
0.00000000 0.00000000 0.99648738
0.00000000 0.00000000 0.99648616
0.92890025 0.00000000 0.99648223
0.99224903 0.00000000 0.99646962
0.99699366 0.00000000 0.99642891
0.00000000 0.00000000 0.99647325
0.00000000 0.00000000 0.99647323
0.00000000 0.00000000 0.99647319
0.00000000 0.00000000 0.99647307
0.00000000 0.00000000 0.99647269
0.00000000 0.00000000 0.99647146
0.91165050 0.00000000 0.99646751
0.99215930 0.00000000 0.99645485
0.99696980 0.00000000 0.99641398
0.00000000 0.00000000 0.99642578
0.00000000 0.00000000 0.99642575
0.00000000 0.00000000 0.99642571
0.00000000 0.00000000 0.99642559
0.00000000 0.00000000 0.99642520
0.00000000 0.00000000 0.99642396
0.78007346 0.00000000 0.99641996
0.99185578 0.00000000 0.99640713
0.99689227 0.00000000 0.99636571
0.00000000 0.98529605 0.99626931
0.00000000 0.98529096 0.99626929
0.00000000 0.98528319 0.99626925
0.00000000 0.98525857 0.99626912
0.00000000 0.98517912 0.99626871
0.00000000 0.98491857 0.99626741
0.00000000 0.98401977 0.99626324
0.99066448 0.98038951 0.99624984
0.99663202 0.95590239 0.99620656
0.00000000 0.99588950 0.99571673
0.00000000 0.99588940 0.99571670
0.00000000 0.99588925 0.99571665
0.00000000 0.99588877 0.99571650
0.00000000 0.99588721 0.99571603
0.00000000 0.99588223 0.99571451
0.00000000 0.99586623 0.99570965
0.00000000 0.99581448 0.99569401
0.99564347 0.99564347 0.99564347
