LogC_to_BT601_PAL.cube
TITLE "LogC_to_BT601_PAL"
LUT_3D_SIZE 33
# LogC to BT601 PAL by Francesco Bucciantini
0.00000000 0.00000000 0.00000000
0.00000000 0.00000000 0.00000000
0.00357238 0.00000000 0.00000000
0.04858479 0.00000000 0.00000000
0.09336246 0.00000000 0.00000000
0.13076197 0.00000000 0.00000000
0.16831930 0.00000000 0.00000000
0.21023684 0.00000000 0.00000000
0.25729598 0.00000000 0.00000000
0.31034642 0.00000000 0.00000000
0.37032846 0.00000000 0.00000000
0.43829364 0.00000000 0.00000000
0.50905215 0.00000000 0.00000000
0.57531142 0.00000000 0.00000000
0.63705248 0.00000000 0.00000000
0.69422898 0.00000000 0.00000000
0.74676188 0.00000000 0.00000000
0.79454877 0.00000000 0.00000000
0.83747042 0.00000000 0.00000000
0.87539546 0.00000000 0.00000000
0.90818379 0.00000000 0.00000000
0.93568897 0.00000000 0.00000000
0.95776004 0.00000000 0.00000000
0.97424276 0.00000000 0.00000000
0.98498054 0.00000000 0.00000000
0.98981511 0.00000000 0.00000000
0.99091549 0.00000000 0.00000000
0.99196571 0.00000000 0.00000000
0.99301585 0.00000000 0.00000000
0.99406593 0.00000000 0.00000000
0.99511597 0.00000000 0.00000000
0.99616597 0.00000000 0.00000000
0.99721595 0.00000000 0.00000000
0.00000000 0.00000000 0.00000000
0.00000000 0.00000000 0.00000000
0.00000000 0.00000000 0.00000000
0.03524330 0.00000000 0.00000000
0.08025570 0.00000000 0.00000000
0.12055533 0.00000000 0.00000000
0.15990493 0.00000000 0.00000000
0.20323309 0.00000000 0.00000000
0.25142806 0.00000000 0.00000000
0.30540749 0.00000000 0.00000000
0.36615782 0.00000000 0.00000000
0.43476345 0.00000000 0.00000000
0.50654684 0.00000000 0.00000000
0.57356485 0.00000000 0.00000000
0.63584095 0.00000000 0.00000000
0.69339420 0.00000000 0.00000000
0.74619166 0.00000000 0.00000000
0.79416356 0.00000000 0.00000000
0.83721387 0.00000000 0.00000000
0.87522777 0.00000000 0.00000000
0.90807692 0.00000000 0.00000000
0.93562328 0.00000000 0.00000000
0.95772185 0.00000000 0.00000000
0.97422259 0.00000000 0.00000000
0.98497190 0.00000000 0.00000000
0.98981360 0.00000000 0.00000000
0.99091485 0.00000000 0.00000000
0.99196523 0.00000000 0.00000000
0.99301549 0.00000000 0.00000000
0.99406566 0.00000000 0.00000000
0.99511577 0.00000000 0.00000000
0.99616582 0.00000000 0.00000000
0.99721584 0.00000000 0.00000000
0.00000000 0.00000000 0.00000000
0.00000000 0.00000000 0.00000000
0.00000000 0.00000000 0.00000000
0.02190180 0.00000000 0.00000000
0.06691421 0.00000000 0.00000000
0.10973293 0.00000000 0.00000000
0.15114225 0.00000000 0.00000000
0.19602513 0.00000000 0.00000000
0.24543751 0.00000000 0.00000000
0.30039372 0.00000000 0.00000000
0.36194098 0.00000000 0.00000000
0.43120449 0.00000000 0.00000000
0.50400849 0.00000000 0.00000000
0.57180091 0.00000000 0.00000000
0.63462029 0.00000000 0.00000000
0.69255464 0.00000000 0.00000000
0.74561893 0.00000000 0.00000000
0.79377703 0.00000000 0.00000000
0.83695664 0.00000000 0.00000000
0.87505972 0.00000000 0.00000000
0.90796987 0.00000000 0.00000000
0.93555751 0.00000000 0.00000000
0.95768362 0.00000000 0.00000000
0.97420241 0.00000000 0.00000000
0.98496326 0.00000000 0.00000000
0.98981208 0.00000000 0.00000000
0.99091420 0.00000000 0.00000000
0.99196474 0.00000000 0.00000000
0.99301513 0.00000000 0.00000000
0.99406539 0.00000000 0.00000000
0.99511556 0.00000000 0.00000000
0.99616567 0.00000000 0.00000000
0.99721572 0.00000000 0.00000000
0.00000000 0.03009752 0.00000000
0.00000000 0.02804318 0.00000000
0.00000000 0.02598884 0.00000000
0.00856031 0.02393450 0.00000000
0.05357272 0.02188016 0.00000000
0.09817697 0.01981223 0.00000000
0.14198729 0.01727662 0.00000000
0.18859522 0.01388425 0.00000000
0.23931682 0.00934562 0.00000000
0.29530181 0.00327342 0.00000000
0.35767645 0.00000000 0.00000000
0.42761610 0.00000000 0.00000000
0.50143631 0.00000000 0.00000000
0.57001930 0.00000000 0.00000000
0.63339038 0.00000000 0.00000000
0.69171023 0.00000000 0.00000000
0.74504368 0.00000000 0.00000000
0.79338920 0.00000000 0.00000000
0.83669873 0.00000000 0.00000000
0.87489133 0.00000000 0.00000000
0.90786265 0.00000000 0.00000000
0.93549165 0.00000000 0.00000000
0.95764534 0.00000000 0.00000000
0.97418220 0.00000000 0.00000000
0.98495460 0.00000000 0.00000000
0.98981056 0.00000000 0.00000000
0.99091355 0.00000000 0.00000000
0.99196426 0.00000000 0.00000000
0.99301477 0.00000000 0.00000000
0.99406512 0.00000000 0.00000000
0.99511536 0.00000000 0.00000000
0.99616552 0.00000000 0.00000000
0.99721561 0.00000000 0.00000000
0.00000000 0.06894750 0.00000000
0.00000000 0.06689316 0.00000000
0.00000000 0.06483882 0.00000000
0.00000000 0.06278448 0.00000000
0.04023123 0.06073014 0.00000000
0.08572725 0.05866222 0.00000000
0.13238614 0.05612661 0.00000000
0.18092295 0.05273423 0.00000000
0.23305771 0.04819560 0.00000000
0.29012824 0.04212340 0.00000000
0.35336268 0.03399945 0.00000000
0.42399756 0.02313049 0.00000000
0.49882949 0.00858898 0.00000000
0.56821970 0.00000000 0.00000000
0.63215110 0.00000000 0.00000000
0.69086095 0.00000000 0.00000000
0.74446589 0.00000000 0.00000000
0.79300005 0.00000000 0.00000000
0.83644014 0.00000000 0.00000000
0.87472259 0.00000000 0.00000000
0.90775526 0.00000000 0.00000000
0.93542570 0.00000000 0.00000000
0.95760702 0.00000000 0.00000000
0.97416198 0.00000000 0.00000000
0.98494594 0.00000000 0.00000000
0.98980903 0.00000000 0.00000000
0.99091290 0.00000000 0.00000000
0.99196377 0.00000000 0.00000000
0.99301440 0.00000000 0.00000000
0.99406485 0.00000000 0.00000000
0.99511516 0.00000000 0.00000000
0.99616537 0.00000000 0.00000000
0.99721550 0.00000000 0.00000000
0.00000000 0.10620645 0.00000000
0.00000000 0.10444155 0.00000000
0.00000000 0.10265773 0.00000000
0.00000000 0.10085441 0.00000000
0.02680154 0.09903099 0.00000000
0.07211151 0.09717454 0.00000000
0.12220272 0.09486851 0.00000000
0.17293121 0.09172983 0.00000000
0.22660810 0.08742917 0.00000000
0.28483415 0.08147830 0.00000000
0.34896901 0.07310627 0.00000000
0.42032393 0.06223730 0.00000000
0.49616961 0.04769579 0.00000000
0.56638971 0.02824082 0.00000000
0.63089404 0.00221216 0.00000000
0.69000106 0.00000000 0.00000000
0.74388169 0.00000000 0.00000000
0.79260698 0.00000000 0.00000000
0.83617916 0.00000000 0.00000000
0.87455238 0.00000000 0.00000000
0.90764697 0.00000000 0.00000000
0.93535923 0.00000000 0.00000000
0.95756841 0.00000000 0.00000000
0.97414159 0.00000000 0.00000000
0.98493721 0.00000000 0.00000000
0.98980749 0.00000000 0.00000000
0.99091225 0.00000000 0.00000000
0.99196329 0.00000000 0.00000000
0.99301404 0.00000000 0.00000000
0.99406458 0.00000000 0.00000000
0.99511495 0.00000000 0.00000000
0.99616521 0.00000000 0.00000000
0.99721538 0.00000000 0.00000000
0.00000000 0.14308352 0.00000000
0.00000000 0.14164376 0.00000000
0.00000000 0.14019340 0.00000000
0.00000000 0.13873220 0.00000000
0.01033454 0.13725994 0.00000000
0.05564452 0.13576654 0.00000000
0.10887519 0.13391939 0.00000000
0.16272209 0.13141973 0.00000000
0.21848019 0.12802270 0.00000000
0.27821835 0.12337825 0.00000000
0.34350871 0.11697254 0.00000000
0.41577565 0.10802065 0.00000000
0.49285777 0.09524707 0.00000000
0.56412002 0.07619218 0.00000000
0.62933935 0.05016352 0.00000000
0.68893980 0.01533998 0.00000000
0.74316179 0.00000000 0.00000000
0.79212317 0.00000000 0.00000000
0.83585819 0.00000000 0.00000000
0.87434319 0.00000000 0.00000000
0.90751394 0.00000000 0.00000000
0.93527760 0.00000000 0.00000000
0.95752100 0.00000000 0.00000000
0.97411657 0.00000000 0.00000000
0.98492648 0.00000000 0.00000000
0.98980560 0.00000000 0.00000000
0.99091145 0.00000000 0.00000000
0.99196269 0.00000000 0.00000000
0.99301359 0.00000000 0.00000000
0.99406424 0.00000000 0.00000000
0.99511470 0.00000000 0.00000000
0.99616503 0.00000000 0.00000000
0.99721524 0.00000000 0.00000000
0.00000000 0.18367268 0.00000000
0.00000000 0.18248267 0.00000000
0.00000000 0.18128648 0.00000000
0.00000000 0.18008402 0.00000000
0.00000000 0.17887519 0.00000000
0.03361345 0.17765185 0.00000000
0.08921423 0.17614274 0.00000000
0.14824982 0.17410776 0.00000000
0.20719080 0.17135584 0.00000000
0.26913882 0.16761962 0.00000000
0.33607198 0.16251855 0.00000000
0.40961261 0.15549745 0.00000000
0.48833727 0.14571619 0.00000000
0.56103787 0.13182986 0.00000000
0.62723598 0.11147591 0.00000000
0.68750791 0.07949373 0.00000000
0.74219243 0.03290358 0.00000000
0.79147268 0.00000000 0.00000000
0.83542712 0.00000000 0.00000000
0.87406247 0.00000000 0.00000000
0.90733554 0.00000000 0.00000000
0.93516817 0.00000000 0.00000000
0.95745746 0.00000000 0.00000000
0.97408305 0.00000000 0.00000000
0.98491212 0.00000000 0.00000000
0.98980305 0.00000000 0.00000000
0.99091038 0.00000000 0.00000000
0.99196189 0.00000000 0.00000000
0.99301299 0.00000000 0.00000000
0.99406380 0.00000000 0.00000000
0.99511437 0.00000000 0.00000000
0.99616478 0.00000000 0.00000000
0.99721506 0.00000000 0.00000000
0.00000000 0.22880869 0.00000000
0.00000000 0.22781649 0.00000000
0.00000000 0.22682058 0.00000000
0.00000000 0.22582095 0.00000000
0.00000000 0.22481754 0.00000000
0.00413825 0.22380364 0.00000000
0.05969570 0.22255510 0.00000000
0.12709269 0.22087537 0.00000000
0.19123972 0.21861106 0.00000000
0.25654538 0.21555044 0.00000000
0.32587252 0.21139782 0.00000000
0.40122153 0.20573352 0.00000000
0.48212193 0.19794776 0.00000000
0.55683018 0.18712357 0.00000000
0.62437911 0.17180720 0.00000000
0.68557027 0.14948711 0.00000000
0.74088425 0.11509745 0.00000000
0.79059659 0.05640179 0.00000000
0.83484743 0.00000000 0.00000000
0.87368539 0.00000000 0.00000000
0.90709610 0.00000000 0.00000000
0.93502138 0.00000000 0.00000000
0.95737227 0.00000000 0.00000000
0.97403810 0.00000000 0.00000000
0.98489285 0.00000000 0.00000000
0.98979962 0.00000000 0.00000000
0.99090894 0.00000000 0.00000000
0.99196082 0.00000000 0.00000000
0.99301219 0.00000000 0.00000000
0.99406320 0.00000000 0.00000000
0.99511392 0.00000000 0.00000000
0.99616444 0.00000000 0.00000000
0.99721481 0.00000000 0.00000000
0.00000000 0.27935253 0.00000000
0.00000000 0.27852026 0.00000000
0.00000000 0.27768573 0.00000000
0.00000000 0.27684894 0.00000000
0.00000000 0.27600987 0.00000000
0.00000000 0.27516293 0.00000000
0.02026105 0.27412123 0.00000000
0.09427886 0.27272196 0.00000000
0.16805420 0.27083977 0.00000000
0.23879130 0.26830313 0.00000000
0.31173962 0.26487551 0.00000000
0.38971855 0.26022707 0.00000000
0.47348875 0.25389050 0.00000000
0.55104364 0.24518882 0.00000000
0.62047790 0.23310827 0.00000000
0.68293776 0.21605231 0.00000000
0.73911354 0.19129332 0.00000000
0.78941399 0.15344557 0.00000000
0.83406651 0.08794477 0.00000000
0.87317816 0.00000000 0.00000000
0.90677437 0.00000000 0.00000000
0.93482430 0.00000000 0.00000000
0.95725795 0.00000000 0.00000000
0.97397780 0.00000000 0.00000000
0.98486700 0.00000000 0.00000000
0.98979500 0.00000000 0.00000000
0.99090702 0.00000000 0.00000000
0.99195938 0.00000000 0.00000000
0.99301112 0.00000000 0.00000000
0.99406240 0.00000000 0.00000000
0.99511333 0.00000000 0.00000000
0.99616400 0.00000000 0.00000000
0.99721447 0.00000000 0.00000000
0.00000000 0.33622877 0.00000000
0.00000000 0.33552768 0.00000000
0.00000000 0.33482521 0.00000000
0.00000000 0.33412134 0.00000000
0.00000000 0.33341607 0.00000000
0.00000000 0.33270472 0.00000000
0.00000000 0.33183052 0.00000000
0.04183163 0.33065754 0.00000000
0.13251772 0.32908207 0.00000000
0.21308359 0.32696311 0.00000000
0.29184604 0.32410785 0.00000000
0.37379060 0.32025059 0.00000000
0.46132183 0.31502114 0.00000000
0.54300378 0.30789579 0.00000000
0.61511091 0.29811734 0.00000000
0.67934157 0.28455529 0.00000000
0.73670693 0.26543748 0.00000000
0.78781267 0.23775954 0.00000000
0.83301198 0.19567487 0.00000000
0.87249460 0.12393442 0.00000000
0.90634144 0.00000000 0.00000000
0.93455939 0.00000000 0.00000000
0.95710439 0.00000000 0.00000000
0.97389684 0.00000000 0.00000000
0.98483228 0.00000000 0.00000000
0.98978876 0.00000000 0.00000000
0.99090445 0.00000000 0.00000000
0.99195746 0.00000000 0.00000000
0.99300969 0.00000000 0.00000000
0.99406133 0.00000000 0.00000000
0.99511253 0.00000000 0.00000000
0.99616340 0.00000000 0.00000000
0.99721403 0.00000000 0.00000000
0.00000000 0.40045326 0.00000000
0.00000000 0.39986088 0.00000000
0.00000000 0.39926764 0.00000000
0.00000000 0.39867353 0.00000000
0.00000000 0.39807856 0.00000000
0.00000000 0.39747877 0.00000000
0.00000000 0.39674213 0.00000000
0.00000000 0.39575448 0.00000000
0.07069075 0.39442932 0.00000000
0.17398227 0.39264958 0.00000000
0.26311617 0.39025609 0.00000000
0.35139490 0.38703130 0.00000000
0.44380724 0.38267553 0.00000000
0.53166890 0.37677157 0.00000000
0.60765041 0.36872979 0.00000000
0.67439170 0.35769886 0.00000000
0.73341769 0.34241046 0.00000000
0.78563522 0.32088293 0.00000000
0.83158341 0.28977504 0.00000000
0.87157113 0.24265042 0.00000000
0.90575773 0.16312895 0.00000000
0.93420274 0.00000000 0.00000000
0.95689785 0.00000000 0.00000000
0.97378799 0.00000000 0.00000000
0.98478557 0.00000000 0.00000000
0.98978029 0.00000000 0.00000000
0.99090101 0.00000000 0.00000000
0.99195489 0.00000000 0.00000000
0.99300777 0.00000000 0.00000000
0.99405989 0.00000000 0.00000000
0.99511145 0.00000000 0.00000000
0.99616260 0.00000000 0.00000000
0.99721343 0.00000000 0.00000000
0.00000000 0.47194918 0.00000000
0.00000000 0.47148543 0.00000000
0.00000000 0.47102061 0.00000000
0.00000000 0.47055470 0.00000000
0.00000000 0.47008770 0.00000000
0.00000000 0.46961651 0.00000000
0.00000000 0.46903724 0.00000000
0.00000000 0.46825961 0.00000000
0.00000000 0.46721449 0.00000000
0.10726862 0.46580766 0.00000000
0.21964403 0.46390995 0.00000000
0.31911154 0.46134272 0.00000000
0.41851426 0.45785621 0.00000000
0.51534482 0.45309583 0.00000000
0.59712572 0.44654780 0.00000000
0.66750639 0.43747421 0.00000000
0.72888729 0.42499583 0.00000000
0.78265727 0.40771010 0.00000000
0.82963964 0.38338953 0.00000000
0.87031932 0.34829309 0.00000000
0.90496864 0.29526631 0.00000000
0.93372153 0.20641098 0.00000000
0.95661953 0.00000000 0.00000000
0.97364140 0.00000000 0.00000000
0.98472264 0.00000000 0.00000000
0.98976877 0.00000000 0.00000000
0.99089640 0.00000000 0.00000000
0.99195145 0.00000000 0.00000000
0.99300520 0.00000000 0.00000000
0.99405797 0.00000000 0.00000000
0.99511002 0.00000000 0.00000000
0.99616153 0.00000000 0.00000000
0.99721263 0.00000000 0.00000000
0.00000000 0.54105351 0.00000000
0.00000000 0.54072983 0.00000000
0.00000000 0.54040558 0.00000000
0.00000000 0.54008076 0.00000000
0.00000000 0.53975537 0.00000000
0.00000000 0.53942725 0.00000000
0.00000000 0.53902412 0.00000000
0.00000000 0.53848341 0.00000000
0.00000000 0.53775753 0.00000000
0.00000000 0.53678191 0.00000000
0.14651177 0.53546858 0.00000000
0.27043830 0.53369686 0.00000000
0.38209715 0.53129988 0.00000000
0.49106583 0.52804419 0.00000000
0.58195594 0.52359828 0.00000000
0.65778437 0.51748160 0.00000000
0.72257982 0.50897797 0.00000000
0.77855207 0.49697867 0.00000000
0.82697904 0.47967421 0.00000000
0.86861463 0.45388022 0.00000000
0.90389805 0.41435999 0.00000000
0.93307038 0.35448384 0.00000000
0.95624360 0.25464811 0.00000000
0.97344357 0.00471395 0.00000000
0.98463764 0.00000000 0.00000000
0.98975299 0.00000000 0.00000000
0.99089023 0.00000000 0.00000000
0.99194684 0.00000000 0.00000000
0.99300176 0.00000000 0.00000000
0.99405540 0.00000000 0.00000000
0.99510810 0.00000000 0.00000000
0.99616009 0.00000000 0.00000000
0.99721156 0.00000000 0.00000000
0.00000000 0.60548101 0.00000000
0.00000000 0.60525599 0.00000000
0.00000000 0.60503068 0.00000000
0.00000000 0.60480506 0.00000000
0.00000000 0.60457915 0.00000000
0.00000000 0.60435143 0.00000000
0.00000000 0.60407180 0.00000000
0.00000000 0.60369697 0.00000000
0.00000000 0.60319418 0.00000000
0.00000000 0.60251918 0.00000000
0.00000000 0.60161190 0.00000000
0.18932867 0.60039046 0.00000000
0.32733179 0.59874254 0.00000000
0.45304060 0.59651273 0.00000000
0.55937002 0.59348353 0.00000000
0.64375467 0.58934588 0.00000000
0.71366299 0.58365141 0.00000000
0.77282992 0.57573126 0.00000000
0.82330716 0.56454881 0.00000000
0.86627865 0.54841018 0.00000000
0.90243847 0.52433091 0.00000000
0.93218583 0.48642810 0.00000000
0.95573413 0.42135991 0.00000000
0.97317578 0.30874751 0.00000000
0.98452248 0.01868710 0.00000000
0.98973124 0.00000000 0.00000000
0.99088195 0.00000000 0.00000000
0.99194067 0.00000000 0.00000000
0.99299715 0.00000000 0.00000000
0.99405196 0.00000000 0.00000000
0.99510553 0.00000000 0.00000000
0.99615817 0.00000000 0.00000000
0.99721012 0.00000000 0.00000000
0.00000000 0.66525495 0.00000000
0.00000000 0.66509941 0.00000000
0.00000000 0.66494372 0.00000000
0.00000000 0.66478786 0.00000000
0.00000000 0.66463185 0.00000000
0.00000000 0.66447465 0.00000000
0.00000000 0.66428167 0.00000000
0.00000000 0.66402312 0.00000000
0.00000000 0.66367652 0.00000000
0.00000000 0.66321158 0.00000000
0.00000000 0.66258736 0.00000000
0.00391425 0.66174827 0.00000000
0.23666766 0.66061850 0.00000000
0.39136392 0.65909405 0.00000000
0.52395154 0.65703089 0.00000000
0.62283289 0.65422737 0.00000000
0.70077444 0.65039663 0.00000000
0.76472788 0.64512209 0.00000000
0.81818124 0.63778143 0.00000000
0.86304994 0.62740852 0.00000000
0.90043528 0.61242159 0.00000000
0.93097784 0.59002779 0.00000000
0.95504066 0.55471067 0.00000000
0.97281186 0.49340609 0.00000000
0.98436578 0.36969089 0.00000000
0.98970096 0.03738167 0.00000000
0.99087084 0.00000000 0.00000000
0.99193239 0.00000000 0.00000000
0.99299098 0.00000000 0.00000000
0.99404736 0.00000000 0.00000000
0.99510209 0.00000000 0.00000000
0.99615560 0.00000000 0.00000000
0.99720820 0.00000000 0.00000000
0.00000000 0.72034554 0.00000000
0.00000000 0.72023884 0.00000000
0.00000000 0.72013205 0.00000000
0.00000000 0.72002517 0.00000000
0.00000000 0.71991822 0.00000000
0.00000000 0.71981047 0.00000000
0.00000000 0.71967824 0.00000000
0.00000000 0.71950113 0.00000000
0.00000000 0.71926383 0.00000000
0.00000000 0.71894571 0.00000000
0.00000000 0.71851895 0.00000000
0.00000000 0.71794594 0.00000000
0.01996137 0.71717560 0.00000000
0.28946914 0.71613826 0.00000000
0.46308632 0.71473825 0.00000000
0.58995581 0.71284303 0.00000000
0.68151261 0.71026682 0.00000000
0.75299233 0.70674508 0.00000000
0.81090862 0.70189302 0.00000000
0.85853362 0.69513475 0.00000000
0.89766082 0.68557421 0.00000000
0.92931622 0.67174038 0.00000000
0.95409108 0.65102807 0.00000000
0.97231468 0.61827470 0.00000000
0.98415136 0.56121806 0.00000000
0.98965833 0.43856166 0.00000000
0.99085593 0.06239299 0.00000000
0.99192129 0.00000000 0.00000000
0.99298270 0.00000000 0.00000000
0.99404118 0.00000000 0.00000000
0.99509749 0.00000000 0.00000000
0.99615217 0.00000000 0.00000000
0.99720563 0.00000000 0.00000000
0.00000000 0.77068537 0.00000000
0.00000000 0.77061287 0.00000000
0.00000000 0.77054032 0.00000000
0.00000000 0.77046774 0.00000000
0.00000000 0.77039511 0.00000000
0.00000000 0.77032195 0.00000000
0.00000000 0.77023220 0.00000000
0.00000000 0.77011201 0.00000000
0.00000000 0.76995102 0.00000000
0.00000000 0.76973531 0.00000000
0.00000000 0.76944612 0.00000000
0.00000000 0.76905814 0.00000000
0.00000000 0.76853714 0.00000000
0.04143069 0.76783662 0.00000000
0.34872115 0.76689314 0.00000000
0.53331300 0.76561949 0.00000000
0.65115570 0.76389477 0.00000000
0.73540365 0.76154928 0.00000000
0.80034557 0.75834105 0.00000000
0.85210865 0.75391741 0.00000000
0.89376923 0.74774931 0.00000000
0.92700798 0.73901114 0.00000000
0.95278028 0.72634278 0.00000000
0.97163055 0.70732571 0.00000000
0.98385580 0.67714594 0.00000000
0.98959744 0.62431702 0.00000000
0.99083588 0.51000491 0.00000000
0.99190638 0.09543731 0.00000000
0.99297160 0.00000000 0.00000000
0.99403291 0.00000000 0.00000000
0.99509131 0.00000000 0.00000000
0.99614756 0.00000000 0.00000000
0.99720220 0.00000000 0.00000000
0.00000000 0.81618016 0.00000000
0.00000000 0.81613151 0.00000000
0.00000000 0.81608284 0.00000000
0.00000000 0.81603415 0.00000000
0.00000000 0.81598544 0.00000000
0.00000000 0.81593638 0.00000000
0.00000000 0.81587619 0.00000000
0.00000000 0.81579561 0.00000000
0.00000000 0.81568771 0.00000000
0.00000000 0.81554318 0.00000000
0.00000000 0.81534951 0.00000000
0.00000000 0.81508984 0.00000000
0.00000000 0.81474144 0.00000000
0.00000000 0.81427353 0.00000000
0.07015433 0.81364429 0.00000000
0.41549586 0.81279660 0.00000000
0.59865276 0.81165189 0.00000000
0.70757645 0.81010112 0.00000000
0.78445555 0.80799100 0.00000000
0.84274306 0.80510251 0.00000000
0.88821270 0.80111568 0.00000000
0.92375751 0.79554902 0.00000000
0.95095086 0.78764832 0.00000000
0.97068014 0.77616557 0.00000000
0.98344435 0.75887014 0.00000000
0.98950892 0.73129626 0.00000000
0.99080888 0.68272251 0.00000000
0.99188633 0.57668795 0.00000000
0.99295669 0.13203599 0.00000000
0.99402180 0.00000000 0.00000000
0.99508304 0.00000000 0.00000000
0.99614139 0.00000000 0.00000000
0.99719759 0.00000000 0.00000000
0.00000000 0.85671644 0.00000000
0.00000000 0.85668432 0.00000000
0.00000000 0.85665219 0.00000000
0.00000000 0.85662005 0.00000000
0.00000000 0.85658789 0.00000000
0.00000000 0.85655552 0.00000000
0.00000000 0.85651580 0.00000000
0.00000000 0.85646264 0.00000000
0.00000000 0.85639146 0.00000000
0.00000000 0.85629615 0.00000000
0.00000000 0.85616847 0.00000000
0.00000000 0.85599736 0.00000000
0.00000000 0.85576793 0.00000000
0.00000000 0.85546005 0.00000000
0.00000000 0.85504650 0.00000000
0.10665806 0.85449022 0.00000000
0.48805736 0.85374060 0.00000000
0.65919557 0.85272790 0.00000000
0.75918936 0.85135520 0.00000000
0.82858599 0.84948599 0.00000000
0.88007345 0.84692472 0.00000000
0.91909208 0.84338483 0.00000000
0.94835882 0.83843334 0.00000000
0.96934261 0.83138888 0.00000000
0.98286413 0.82111747 0.00000000
0.98937749 0.80557904 0.00000000
0.99077244 0.78065934 0.00000000
0.99185934 0.73640200 0.00000000
0.99293664 0.63866840 0.00000000
0.99400690 0.17203409 0.00000000
0.99507193 0.00000000 0.00000000
0.99613311 0.00000000 0.00000000
0.99719142 0.00000000 0.00000000
0.00000000 0.89216687 0.00000000
0.00000000 0.89214611 0.00000000
0.00000000 0.89212536 0.00000000
0.00000000 0.89210459 0.00000000
0.00000000 0.89208382 0.00000000
0.00000000 0.89206291 0.00000000
0.00000000 0.89203726 0.00000000
0.00000000 0.89200293 0.00000000
0.00000000 0.89195697 0.00000000
0.00000000 0.89189544 0.00000000
0.00000000 0.89181303 0.00000000
0.00000000 0.89170264 0.00000000
0.00000000 0.89155469 0.00000000
0.00000000 0.89135627 0.00000000
0.00000000 0.89108997 0.00000000
0.00000000 0.89073218 0.00000000
0.14585164 0.89025076 0.00000000
0.55656961 0.88960173 0.00000000
0.71495807 0.88872445 0.00000000
0.80592758 0.88753440 0.00000000
0.86768989 0.88591229 0.00000000
0.91221084 0.88368662 0.00000000
0.94460846 0.88060502 0.00000000
0.96742694 0.87628427 0.00000000
0.98203187 0.87011741 0.00000000
0.98917743 0.86108706 0.00000000
0.99072311 0.84734747 0.00000000
0.99182290 0.82514167 0.00000000
0.99290965 0.78528606 0.00000000
0.99398685 0.69595168 0.00000000
0.99505703 0.21630461 0.00000000
0.99612201 0.00000000 0.00000000
0.99718314 0.00000000 0.00000000
0.00000000 0.92239418 0.00000000
0.00000000 0.92238117 0.00000000
0.00000000 0.92236815 0.00000000
0.00000000 0.92235514 0.00000000
0.00000000 0.92234211 0.00000000
0.00000000 0.92232901 0.00000000
0.00000000 0.92231293 0.00000000
0.00000000 0.92229141 0.00000000
0.00000000 0.92226260 0.00000000
0.00000000 0.92222405 0.00000000
0.00000000 0.92217242 0.00000000
0.00000000 0.92210328 0.00000000
0.00000000 0.92201064 0.00000000
0.00000000 0.92188646 0.00000000
0.00000000 0.92171990 0.00000000
0.00000000 0.92149630 0.00000000
0.00000000 0.92119577 0.00000000
0.18860311 0.92079123 0.00000000
0.62023627 0.92024552 0.00000000
0.76590551 0.91950729 0.00000000
0.84769707 0.91850483 0.00000000
0.90164589 0.91713646 0.00000000
0.93901894 0.91525540 0.00000000
0.96461660 0.91264438 0.00000000
0.98081099 0.90897117 0.00000000
0.98886405 0.90370520 0.00000000
0.99065603 0.89594849 0.00000000
0.99177358 0.88405421 0.00000000
0.99287322 0.86463026 0.00000000
0.99395987 0.82927894 0.00000000
0.99503699 0.74849530 0.00000000
