LogC_to_BT601_PAL.cube
TITLE "LogC_to_BT601_PAL"
LUT_3D_SIZE 5
# LogC to BT601 PAL by Francesco Bucciantini
0.00000000 0.00000000 0.00000000
0.25729598 0.00000000 0.00000000
0.74676188 0.00000000 0.00000000
0.98498054 0.00000000 0.00000000
0.99721595 0.00000000 0.00000000
0.00000000 0.22880869 0.00000000
0.19123972 0.21861106 0.00000000
0.74088425 0.11509745 0.00000000
0.98489285 0.00000000 0.00000000
0.99721481 0.00000000 0.00000000
0.00000000 0.72034554 0.00000000
0.00000000 0.71926383 0.00000000
0.68151261 0.71026682 0.00000000
0.98415136 0.56121806 0.00000000
0.99720563 0.00000000 0.00000000
0.00000000 0.98026879 0.00000000
0.00000000 0.98024730 0.00000000
0.00000000 0.98007360 0.00000000
0.97125609 0.97815126 0.00000000
0.99711011 0.93070056 0.00000000
0.00000000 0.99668481 0.00000000
0.00000000 0.99668461 0.00000000
0.00000000 0.99668297 0.00000000
0.00000000 0.99666615 0.00000000
0.99594773 0.99648882 0.00000000
0.00000000 0.00000000 0.21891452
0.24580455 0.00000000 0.21587819
0.74565375 0.00000000 0.19008964
0.98496378 0.00000000 0.00000000
0.99721573 0.00000000 0.00000000
0.00000000 0.18835706 0.17986812
0.17629724 0.17629724 0.17629724
0.73972514 0.04109340 0.14530475
0.98487590 0.00000000 0.00000000
0.99721459 0.00000000 0.00000000
0.00000000 0.71625448 0.00000000
0.00000000 0.71514036 0.00000000
0.67974294 0.70586666 0.00000000
0.98413277 0.54992897 0.00000000
0.99720542 0.00000000 0.00000000
0.00000000 0.98018821 0.00000000
0.00000000 0.98016659 0.00000000
0.00000000 0.97999181 0.00000000
0.97121084 0.97805761 0.00000000
0.99710989 0.93027695 0.00000000
0.00000000 0.99668405 0.00000000
0.00000000 0.99668384 0.00000000
0.00000000 0.99668221 0.00000000
0.00000000 0.99666539 0.00000000
0.99594742 0.99648801 0.00000000
0.00000000 0.00000000 0.71057163
0.12765537 0.00000000 0.71023539
0.73640697 0.00000000 0.70750824
0.98482798 0.00000000 0.67607116
0.99721397 0.00000000 0.00000000
0.00000000 0.00000000 0.70649230
0.00000000 0.00000000 0.70614624
0.73004078 0.00000000 0.70333885
0.98473851 0.00000000 0.67089260
0.99721283 0.00000000 0.00000000
0.00000000 0.67833677 0.66881887
0.00000000 0.67688865 0.66837227
0.66474108 0.66474108 0.66474108
0.98398213 0.42226312 0.62164677
0.99720365 0.00000000 0.00000000
0.00000000 0.97952336 0.00000000
0.00000000 0.97950064 0.00000000
0.00000000 0.97931699 0.00000000
0.97084437 0.97728509 0.00000000
0.99710807 0.92674873 0.00000000
0.00000000 0.99667793 0.00000000
0.00000000 0.99667773 0.00000000
0.00000000 0.99667609 0.00000000
0.00000000 0.99665924 0.00000000
0.99594492 0.99648155 0.00000000
0.00000000 0.00000000 0.97821771
0.00000000 0.00000000 0.97821048
0.57395623 0.00000000 0.97815241
0.98328605 0.00000000 0.97754325
0.99719587 0.00000000 0.96969273
0.00000000 0.00000000 0.97813100
0.00000000 0.00000000 0.97812374
0.55532725 0.00000000 0.97806533
0.98317897 0.00000000 0.97745269
0.99719472 0.00000000 0.96955715
0.00000000 0.00000000 0.97741714
0.00000000 0.00000000 0.97740953
0.28538315 0.00000000 0.97734839
0.98227545 0.00000000 0.97670712
0.99718550 0.00000000 0.96844043
0.00000000 0.97042290 0.96784680
0.00000000 0.97038523 0.96783461
0.00000000 0.97008075 0.96773659
0.96670790 0.96670790 0.96670790
0.99708943 0.87003039 0.95327934
0.00000000 0.99661451 0.00000000
0.00000000 0.99661430 0.00000000
0.00000000 0.99661263 0.00000000
0.00000000 0.99659548 0.00000000
0.99591915 0.99641455 0.00000000
0.00000000 0.00000000 0.99649469
0.00000000 0.00000000 0.99649463
0.00000000 0.00000000 0.99649413
0.93532227 0.00000000 0.99648899
0.99700460 0.00000000 0.99643577
0.00000000 0.00000000 0.99649395
0.00000000 0.00000000 0.99649388
0.00000000 0.00000000 0.99649338
0.93464963 0.00000000 0.99648824
0.99700339 0.00000000 0.99643501
0.00000000 0.00000000 0.99648795
0.00000000 0.00000000 0.99648788
0.00000000 0.00000000 0.99648738
0.92890025 0.00000000 0.99648223
0.99699366 0.00000000 0.99642891
0.00000000 0.00000000 0.99642578
0.00000000 0.00000000 0.99642571
0.00000000 0.00000000 0.99642520
0.78007346 0.00000000 0.99641996
0.99689227 0.00000000 0.99636571
0.00000000 0.99588950 0.99571673
0.00000000 0.99588925 0.99571665
0.00000000 0.99588721 0.99571603
0.00000000 0.99586623 0.99570965
0.99564347 0.99564347 0.99564347
