LogC_to_BT601_NTSC.cube
TITLE "LogC_to_BT601_NTSC"
LUT_3D_SIZE 5
# LogC to BT601 NTSC by Francesco Bucciantini
0.00000000 0.00000000 0.00000000
0.27962159 0.00000000 0.00000000
0.76576950 0.00000000 0.00000000
0.98752705 0.00000000 0.00000000
0.99761545 0.00000000 0.00000000
0.00000000 0.23757820 0.00000000
0.19046817 0.22283580 0.00000000
0.75861374 0.04708981 0.00000000
0.98744838 0.00000000 0.00000000
0.99761401 0.00000000 0.00000000
0.00000000 0.72874607 0.00000000
0.00000000 0.72723647 0.00000000
0.68066538 0.71448322 0.00000000
0.98676102 0.40965963 0.00000000
0.99760247 0.00000000 0.00000000
0.00000000 0.98190371 0.00000000
0.00000000 0.98187590 0.00000000
0.00000000 0.98165031 0.00000000
0.97103513 0.97905724 0.00000000
0.99748179 0.86197967 0.00000000
0.00000000 0.99685089 0.00000000
0.00000000 0.99685060 0.00000000
0.00000000 0.99684829 0.00000000
0.00000000 0.99682447 0.00000000
0.99593217 0.99657039 0.00000000
0.00000000 0.00000000 0.21492733
0.26955601 0.00000000 0.21212534
0.76486674 0.00000000 0.18842244
0.98751696 0.00000000 0.00000000
0.99761526 0.00000000 0.00000000
0.00000000 0.19394694 0.17954564
0.17629724 0.17629724 0.17629724
0.75765769 0.00000000 0.14832149
0.98743809 0.00000000 0.00000000
0.99761382 0.00000000 0.00000000
0.00000000 0.72447295 0.00000000
0.00000000 0.72291514 0.00000000
0.67898087 0.70973902 0.00000000
0.98674909 0.38463695 0.00000000
0.99760228 0.00000000 0.00000000
0.00000000 0.98182563 0.00000000
0.00000000 0.98179763 0.00000000
0.00000000 0.98157046 0.00000000
0.97099186 0.97895950 0.00000000
0.99748160 0.86070173 0.00000000
0.00000000 0.99685008 0.00000000
0.00000000 0.99684979 0.00000000
0.00000000 0.99684748 0.00000000
0.00000000 0.99682365 0.00000000
0.99593187 0.99656951 0.00000000
0.00000000 0.00000000 0.70654266
0.17198553 0.00000000 0.70622822
0.75737702 0.00000000 0.70367994
0.98743508 0.00000000 0.67456897
0.99761377 0.00000000 0.00000000
0.00000000 0.00000000 0.70277794
0.01104714 0.00000000 0.70245511
0.74971525 0.00000000 0.69983831
0.98735465 0.00000000 0.66987930
0.99761233 0.00000000 0.00000000
0.00000000 0.68446930 0.66845242
0.00000000 0.68240588 0.66804551
0.66474108 0.66474108 0.66474108
0.98665239 0.03501376 0.62607810
0.99760079 0.00000000 0.00000000
0.00000000 0.98117908 0.00000000
0.00000000 0.98114948 0.00000000
0.00000000 0.98090931 0.00000000
0.97064160 0.97815065 0.00000000
0.99748006 0.84972514 0.00000000
0.00000000 0.99684360 0.00000000
0.00000000 0.99684331 0.00000000
0.00000000 0.99684099 0.00000000
0.00000000 0.99681712 0.00000000
0.99592949 0.99656251 0.00000000
0.00000000 0.00000000 0.97732761
0.00000000 0.00000000 0.97732066
0.63935649 0.00000000 0.97726479
0.98649691 0.00000000 0.97667986
0.99759844 0.00000000 0.96929912
0.00000000 0.00000000 0.97724520
0.00000000 0.00000000 0.97723821
0.62152160 0.00000000 0.97718205
0.98639925 0.00000000 0.97659412
0.99759699 0.00000000 0.96917534
0.00000000 0.00000000 0.97656847
0.00000000 0.00000000 0.97656119
0.32754140 0.00000000 0.97650268
0.98555147 0.00000000 0.97589016
0.99758540 0.00000000 0.96815846
0.00000000 0.97201958 0.96774530
0.00000000 0.97196767 0.96773417
0.00000000 0.97154659 0.96764473
0.96670790 0.96670790 0.96670790
0.99746414 0.40484055 0.95475729
0.00000000 0.99677636 0.00000000
0.00000000 0.99677606 0.00000000
0.00000000 0.99677370 0.00000000
0.00000000 0.99674938 0.00000000
0.99590500 0.99648976 0.00000000
0.00000000 0.00000000 0.99641726
0.00000000 0.00000000 0.99641720
0.00000000 0.00000000 0.99641674
0.95840479 0.00000000 0.99641196
0.99743713 0.00000000 0.99636257
0.00000000 0.00000000 0.99641657
0.00000000 0.00000000 0.99641652
0.00000000 0.00000000 0.99641605
0.95786915 0.00000000 0.99641127
0.99743563 0.00000000 0.99636187
0.00000000 0.00000000 0.99641107
0.00000000 0.00000000 0.99641101
0.00000000 0.00000000 0.99641055
0.95323730 0.00000000 0.99640576
0.99742350 0.00000000 0.99635628
0.00000000 0.00000000 0.99635407
0.00000000 0.00000000 0.99635401
0.00000000 0.00000000 0.99635354
0.81290548 0.00000000 0.99634868
0.99729658 0.00000000 0.99629840
0.00000000 0.99600220 0.99571012
0.00000000 0.99600184 0.99571005
0.00000000 0.99599891 0.99570949
0.00000000 0.99596874 0.99570368
0.99564347 0.99564347 0.99564347
