LogC_to_BT601_NTSC.cube
TITLE "LogC_to_BT601_NTSC"
LUT_3D_SIZE 9
# LogC to BT601 NTSC by Francesco Bucciantini
0.00000000 0.00000000 0.00000000
0.11177818 0.00000000 0.00000000
0.27962159 0.00000000 0.00000000
0.53594912 0.00000000 0.00000000
0.76576950 0.00000000 0.00000000
0.91932615 0.00000000 0.00000000
0.98752705 0.00000000 0.00000000
0.99341552 0.00000000 0.00000000
0.99761545 0.00000000 0.00000000
0.00000000 0.07626867 0.00000000
0.03968598 0.06409598 0.00000000
0.24766797 0.04552811 0.00000000
0.52340176 0.00000000 0.00000000
0.76298475 0.00000000 0.00000000
0.91882308 0.00000000 0.00000000
0.98749608 0.00000000 0.00000000
0.99341370 0.00000000 0.00000000
0.99761488 0.00000000 0.00000000
0.00000000 0.23757820 0.00000000
0.00000000 0.23183645 0.00000000
0.19046817 0.22283580 0.00000000
0.50250212 0.19213122 0.00000000
0.75861374 0.04708981 0.00000000
0.91804733 0.00000000 0.00000000
0.98744838 0.00000000 0.00000000
0.99341092 0.00000000 0.00000000
0.99761401 0.00000000 0.00000000
0.00000000 0.48371930 0.00000000
0.00000000 0.48111552 0.00000000
0.00000000 0.47707663 0.00000000
0.41740783 0.46374852 0.00000000
0.74372531 0.41499976 0.00000000
0.91552754 0.18879010 0.00000000
0.98729402 0.00000000 0.00000000
0.99340211 0.00000000 0.00000000
0.99761127 0.00000000 0.00000000
0.00000000 0.72874607 0.00000000
0.00000000 0.72815030 0.00000000
0.00000000 0.72723647 0.00000000
0.00000000 0.72430806 0.00000000
0.68066538 0.71448322 0.00000000
0.90668369 0.67748517 0.00000000
0.98676102 0.40965963 0.00000000
0.99337377 0.00000000 0.00000000
0.99760247 0.00000000 0.00000000
0.00000000 0.89732183 0.00000000
0.00000000 0.89720732 0.00000000
0.00000000 0.89703229 0.00000000
0.00000000 0.89647636 0.00000000
0.00000000 0.89466532 0.00000000
0.86714517 0.88853785 0.00000000
0.98461387 0.86481623 0.00000000
0.99328142 0.67315585 0.00000000
0.99757413 0.00000000 0.00000000
0.00000000 0.98190371 0.00000000
0.00000000 0.98189271 0.00000000
0.00000000 0.98187590 0.00000000
0.00000000 0.98182265 0.00000000
0.00000000 0.98165031 0.00000000
0.00000000 0.98108023 0.00000000
0.97103513 0.97905724 0.00000000
0.99296852 0.97004490 0.00000000
0.99748179 0.86197967 0.00000000
0.00000000 0.99265062 0.00000000
0.00000000 0.99265025 0.00000000
0.00000000 0.99264970 0.00000000
0.00000000 0.99264793 0.00000000
0.00000000 0.99264228 0.00000000
0.00000000 0.99262411 0.00000000
0.00000000 0.99256526 0.00000000
0.99173138 0.99236997 0.00000000
0.99716897 0.99166187 0.00000000
0.00000000 0.99685089 0.00000000
0.00000000 0.99685077 0.00000000
0.00000000 0.99685060 0.00000000
0.00000000 0.99685005 0.00000000
0.00000000 0.99684829 0.00000000
0.00000000 0.99684263 0.00000000
0.00000000 0.99682447 0.00000000
0.00000000 0.99676563 0.00000000
0.99593217 0.99657039 0.00000000
0.00000000 0.00000000 0.05783962
0.10356020 0.00000000 0.05566855
0.27567532 0.00000000 0.05235686
0.53437282 0.00000000 0.04189258
0.76541281 0.00000000 0.00836563
0.91926133 0.00000000 0.00000000
0.98752306 0.00000000 0.00000000
0.99341528 0.00000000 0.00000000
0.99761537 0.00000000 0.00000000
0.00000000 0.04215845 0.03215683
0.02998576 0.02998576 0.02998576
0.24326653 0.01141788 0.02667407
0.52171593 0.00000000 0.01620979
0.76261997 0.00000000 0.00000000
0.91875770 0.00000000 0.00000000
0.98749205 0.00000000 0.00000000
0.99341346 0.00000000 0.00000000
0.99761480 0.00000000 0.00000000
0.00000000 0.22116914 0.00000000
0.00000000 0.21505807 0.00000000
0.18496005 0.20544605 0.00000000
0.50062070 0.17229939 0.00000000
0.75823602 0.01297959 0.00000000
0.91798108 0.00000000 0.00000000
0.98744431 0.00000000 0.00000000
0.99341068 0.00000000 0.00000000
0.99761394 0.00000000 0.00000000
0.00000000 0.47633477 0.00000000
0.00000000 0.47363155 0.00000000
0.00000000 0.46943628 0.00000000
0.41471592 0.45557319 0.00000000
0.74330121 0.40540054 0.00000000
0.91545845 0.16865298 0.00000000
0.98728980 0.00000000 0.00000000
0.99340188 0.00000000 0.00000000
0.99761119 0.00000000 0.00000000
0.00000000 0.72706997 0.00000000
0.00000000 0.72646680 0.00000000
0.00000000 0.72554158 0.00000000
0.00000000 0.72257632 0.00000000
0.68000061 0.71262368 0.00000000
0.90660420 0.67508385 0.00000000
0.98675630 0.39993443 0.00000000
0.99337353 0.00000000 0.00000000
0.99760239 0.00000000 0.00000000
0.00000000 0.89700048 0.00000000
0.00000000 0.89688545 0.00000000
0.00000000 0.89670961 0.00000000
0.00000000 0.89615113 0.00000000
0.00000000 0.89433171 0.00000000
0.86701053 0.88817512 0.00000000
0.98460729 0.86432869 0.00000000
0.99328117 0.67068446 0.00000000
0.99757405 0.00000000 0.00000000
0.00000000 0.98187285 0.00000000
0.00000000 0.98186182 0.00000000
0.00000000 0.98184497 0.00000000
0.00000000 0.98179157 0.00000000
0.00000000 0.98161876 0.00000000
0.00000000 0.98104711 0.00000000
0.97101801 0.97901861 0.00000000
0.99296825 0.96998193 0.00000000
0.99748172 0.86147586 0.00000000
0.00000000 0.99264959 0.00000000
0.00000000 0.99264923 0.00000000
0.00000000 0.99264867 0.00000000
0.00000000 0.99264691 0.00000000
0.00000000 0.99264125 0.00000000
0.00000000 0.99262308 0.00000000
0.00000000 0.99256421 0.00000000
0.99173101 0.99236887 0.00000000
0.99716888 0.99166052 0.00000000
0.00000000 0.99685057 0.00000000
0.00000000 0.99685045 0.00000000
0.00000000 0.99685028 0.00000000
0.00000000 0.99684973 0.00000000
0.00000000 0.99684797 0.00000000
0.00000000 0.99684231 0.00000000
0.00000000 0.99682414 0.00000000
0.00000000 0.99676530 0.00000000
0.99593205 0.99657004 0.00000000
0.00000000 0.00000000 0.21492733
0.09017518 0.00000000 0.21382146
0.26955601 0.00000000 0.21212534
0.53194241 0.00000000 0.20669013
0.76486674 0.00000000 0.18842244
0.91916231 0.00000000 0.11696347
0.98751696 0.00000000 0.00000000
0.99341492 0.00000000 0.00000000
0.99761526 0.00000000 0.00000000
0.00000000 0.00000000 0.20152504
0.01518932 0.00000000 0.20035835
0.23641623 0.00000000 0.19856793
0.51911515 0.00000000 0.19282203
0.76206149 0.00000000 0.17340509
0.91865782 0.00000000 0.09498767
0.98748591 0.00000000 0.00000000
0.99341310 0.00000000 0.00000000
0.99761469 0.00000000 0.00000000
0.00000000 0.19394694 0.17954564
0.00000000 0.18711701 0.17826490
0.17629724 0.17629724 0.17629724
0.49771519 0.13807706 0.16996379
0.75765769 0.00000000 0.14832149
0.91787988 0.00000000 0.05618773
0.98743809 0.00000000 0.00000000
0.99341032 0.00000000 0.00000000
0.99761382 0.00000000 0.00000000
0.00000000 0.46451522 0.08932959
0.00000000 0.46164655 0.08725505
0.00000000 0.45719072 0.08403507
0.41057625 0.44243332 0.07334534
0.74265165 0.39031242 0.03981840
0.91535291 0.13376477 0.00000000
0.98728336 0.00000000 0.00000000
0.99340152 0.00000000 0.00000000
0.99761108 0.00000000 0.00000000
0.00000000 0.72447295 0.00000000
0.00000000 0.72385820 0.00000000
0.00000000 0.72291514 0.00000000
0.00000000 0.71989210 0.00000000
0.67898087 0.70973902 0.00000000
0.90648276 0.67134607 0.00000000
0.98674909 0.38463695 0.00000000
0.99337317 0.00000000 0.00000000
0.99760228 0.00000000 0.00000000
0.00000000 0.89650746 0.00000000
0.00000000 0.89639162 0.00000000
0.00000000 0.89621456 0.00000000
0.00000000 0.89565215 0.00000000
0.00000000 0.89381985 0.00000000
0.86680474 0.88761842 0.00000000
0.98459724 0.86357966 0.00000000
0.99328080 0.66683596 0.00000000
0.99757394 0.00000000 0.00000000
0.00000000 0.98182563 0.00000000
0.00000000 0.98181455 0.00000000
0.00000000 0.98179763 0.00000000
0.00000000 0.98174400 0.00000000
0.00000000 0.98157046 0.00000000
0.00000000 0.98099641 0.00000000
0.97099186 0.97895950 0.00000000
0.99296784 0.96988553 0.00000000
0.99748160 0.86070173 0.00000000
0.00000000 0.99264803 0.00000000
0.00000000 0.99264767 0.00000000
0.00000000 0.99264711 0.00000000
0.00000000 0.99264534 0.00000000
0.00000000 0.99263969 0.00000000
0.00000000 0.99262150 0.00000000
0.00000000 0.99256261 0.00000000
0.99173043 0.99236718 0.00000000
0.99716876 0.99165846 0.00000000
0.00000000 0.99685008 0.00000000
0.00000000 0.99684997 0.00000000
0.00000000 0.99684979 0.00000000
0.00000000 0.99684924 0.00000000
0.00000000 0.99684748 0.00000000
0.00000000 0.99684183 0.00000000
0.00000000 0.99682365 0.00000000
0.00000000 0.99676480 0.00000000
0.99593187 0.99656951 0.00000000
0.00000000 0.00000000 0.45265551
0.04343198 0.00000000 0.45211613
0.24934955 0.00000000 0.45129061
0.52404878 0.00000000 0.44865998
0.76312533 0.00000000 0.44000207
0.91884831 0.00000000 0.41084248
0.98749763 0.00000000 0.29954017
0.99341379 0.00000000 0.00000000
0.99761491 0.00000000 0.00000000
0.00000000 0.00000000 0.44618173
0.00000000 0.00000000 0.44562496
0.21355252 0.00000000 0.44477277
0.51065535 0.00000000 0.44205653
0.76028026 0.00000000 0.43320753
0.91834112 0.00000000 0.40356253
0.98746643 0.00000000 0.28963888
0.99341197 0.00000000 0.00000000
0.99761434 0.00000000 0.00000000
0.00000000 0.07393104 0.43594465
0.00000000 0.06175835 0.43536903
0.14643343 0.04319047 0.43448954
0.48823875 0.00000000 0.43169881
0.75581271 0.00000000 0.42263422
0.91755898 0.00000000 0.39220283
0.98741839 0.00000000 0.27391242
0.99340918 0.00000000 0.00000000
0.99761347 0.00000000 0.00000000
0.00000000 0.42240206 0.40182269
0.00000000 0.41906108 0.40119872
0.00000000 0.41391353 0.40024510
0.39721710 0.39721710 0.39721710
0.74057783 0.33839755 0.38735991
0.91501820 0.00000000 0.35399472
0.98726293 0.00000000 0.21784250
0.99340038 0.00000000 0.00000000
0.99761073 0.00000000 0.00000000
0.00000000 0.71592934 0.26584069
0.00000000 0.71527536 0.26492096
0.00000000 0.71427189 0.26351255
0.00000000 0.71105314 0.25901764
0.67571257 0.70021921 0.24412839
0.90609754 0.65889821 0.18999985
0.98672625 0.33187495 0.00000000
0.99337202 0.00000000 0.00000000
0.99760193 0.00000000 0.00000000
0.00000000 0.89492674 0.00000000
0.00000000 0.89480830 0.00000000
0.00000000 0.89462726 0.00000000
0.00000000 0.89405218 0.00000000
0.00000000 0.89217825 0.00000000
0.86615120 0.88583190 0.00000000
0.98456539 0.86116943 0.00000000
0.99327962 0.65400452 0.00000000
0.99757358 0.00000000 0.00000000
0.00000000 0.98167508 0.00000000
0.00000000 0.98166386 0.00000000
0.00000000 0.98164671 0.00000000
0.00000000 0.98159237 0.00000000
0.00000000 0.98141651 0.00000000
0.00000000 0.98083482 0.00000000
0.97090904 0.97877108 0.00000000
0.99296656 0.96957830 0.00000000
0.99748123 0.85820989 0.00000000
0.00000000 0.99264309 0.00000000
0.00000000 0.99264272 0.00000000
0.00000000 0.99264216 0.00000000
0.00000000 0.99264040 0.00000000
0.00000000 0.99263473 0.00000000
0.00000000 0.99261652 0.00000000
0.00000000 0.99255755 0.00000000
0.99172862 0.99236183 0.00000000
0.99716835 0.99165196 0.00000000
0.00000000 0.99684854 0.00000000
0.00000000 0.99684842 0.00000000
0.00000000 0.99684825 0.00000000
0.00000000 0.99684770 0.00000000
0.00000000 0.99684594 0.00000000
0.00000000 0.99684028 0.00000000
0.00000000 0.99682210 0.00000000
0.00000000 0.99676323 0.00000000
0.99593131 0.99656785 0.00000000
0.00000000 0.00000000 0.70654266
0.00000000 0.00000000 0.70641823
0.17198553 0.00000000 0.70622822
0.49629419 0.00000000 0.70562616
0.75737702 0.00000000 0.70367994
0.91783088 0.00000000 0.69726072
0.98743508 0.00000000 0.67456897
0.99341015 0.00000000 0.56671592
0.99761377 0.00000000 0.00000000
0.00000000 0.00000000 0.70506373
0.00000000 0.00000000 0.70493801
0.12046007 0.00000000 0.70474602
0.48074649 0.00000000 0.70413767
0.75439779 0.00000000 0.70217098
0.91731486 0.00000000 0.69568282
0.98740341 0.00000000 0.67272919
0.99340832 0.00000000 0.56316987
0.99761320 0.00000000 0.00000000
0.00000000 0.00000000 0.70277794
0.00000000 0.00000000 0.70265019
0.01104714 0.00000000 0.70245511
0.45440544 0.00000000 0.70183695
0.74971525 0.00000000 0.69983831
0.91651904 0.00000000 0.69324253
0.98735465 0.00000000 0.66987930
0.99340554 0.00000000 0.55762258
0.99761233 0.00000000 0.00000000
0.00000000 0.24082498 0.69530731
0.00000000 0.23515149 0.69517278
0.00000000 0.22626319 0.69496735
0.35110985 0.19599925 0.69431631
0.73370618 0.05408656 0.69221069
0.91393329 0.00000000 0.68525390
0.98719686 0.00000000 0.66050987
0.99339672 0.00000000 0.53889358
0.99760959 0.00000000 0.00000000
0.00000000 0.68446930 0.66845242
0.00000000 0.68365563 0.66829142
0.00000000 0.68240588 0.66804551
0.00000000 0.67838690 0.66726589
0.66474108 0.66474108 0.66474108
0.90484796 0.61081488 0.65636278
0.98665239 0.03501376 0.62607810
0.99336833 0.00000000 0.46216915
0.99760079 0.00000000 0.00000000
0.00000000 0.88961590 0.52847978
0.00000000 0.88948851 0.52811379
0.00000000 0.88929378 0.52755413
0.00000000 0.88867509 0.52577469
0.00000000 0.88665777 0.51995770
0.86402302 0.87981093 0.50002609
0.98446249 0.85297212 0.41866863
0.99327584 0.60420613 0.00000000
0.99757243 0.00000000 0.00000000
0.00000000 0.98117908 0.00000000
0.00000000 0.98116737 0.00000000
0.00000000 0.98114948 0.00000000
0.00000000 0.98109278 0.00000000
0.00000000 0.98090931 0.00000000
0.00000000 0.98030255 0.00000000
0.97064160 0.97815065 0.00000000
0.99296244 0.96856617 0.00000000
0.99748006 0.84972514 0.00000000
0.00000000 0.99262720 0.00000000
0.00000000 0.99262683 0.00000000
0.00000000 0.99262627 0.00000000
0.00000000 0.99262450 0.00000000
0.00000000 0.99261881 0.00000000
0.00000000 0.99260052 0.00000000
0.00000000 0.99254128 0.00000000
0.99172281 0.99234466 0.00000000
0.99716707 0.99163103 0.00000000
0.00000000 0.99684360 0.00000000
0.00000000 0.99684348 0.00000000
0.00000000 0.99684331 0.00000000
0.00000000 0.99684276 0.00000000
0.00000000 0.99684099 0.00000000
0.00000000 0.99683533 0.00000000
0.00000000 0.99681712 0.00000000
0.00000000 0.99675816 0.00000000
0.99592949 0.99656251 0.00000000
0.00000000 0.00000000 0.88358282
0.00000000 0.00000000 0.88355824
0.00000000 0.00000000 0.88352072
0.37362738 0.00000000 0.88340205
0.73700412 0.00000000 0.88302060
0.91444939 0.00000000 0.88178570
0.98722827 0.00000000 0.87769306
0.99339845 0.00000000 0.86299839
0.99761013 0.00000000 0.78929707
0.00000000 0.00000000 0.88329147
0.00000000 0.00000000 0.88326680
0.00000000 0.00000000 0.88322914
0.34977624 0.00000000 0.88311002
0.73351453 0.00000000 0.88272713
0.91390356 0.00000000 0.88148752
0.98719506 0.00000000 0.87737903
0.99339662 0.00000000 0.86262374
0.99760956 0.00000000 0.78851953
0.00000000 0.00000000 0.88284494
0.00000000 0.00000000 0.88282012
0.00000000 0.00000000 0.88278224
0.31007623 0.00000000 0.88266243
0.72801087 0.00000000 0.88227732
0.91306154 0.00000000 0.88103050
0.98714392 0.00000000 0.87689763
0.99339383 0.00000000 0.86204914
0.99760869 0.00000000 0.78732338
0.00000000 0.00000000 0.88141687
0.00000000 0.00000000 0.88139159
0.00000000 0.00000000 0.88135301
0.13088980 0.00000000 0.88123099
0.70901142 0.00000000 0.88083874
0.91032372 0.00000000 0.87956867
0.98697856 0.00000000 0.87535731
0.99338498 0.00000000 0.86020827
0.99760594 0.00000000 0.78346120
0.00000000 0.49363522 0.87665888
0.00000000 0.49116037 0.87663204
0.00000000 0.48732401 0.87659108
0.00000000 0.47468669 0.87646151
0.62331084 0.42811020 0.87604497
0.90067983 0.21443691 0.87469577
0.98640865 0.00000000 0.87021695
0.99335650 0.00000000 0.85403852
0.99759713 0.00000000 0.77016766
0.00000000 0.86958757 0.85924741
0.00000000 0.86942340 0.85921441
0.00000000 0.86917237 0.85916407
0.00000000 0.86837419 0.85900479
0.00000000 0.86576493 0.85849253
0.85683112 0.85683112 0.85683112
0.98412382 0.82053224 0.85129152
0.99326370 0.18117896 0.83095297
0.99756875 0.00000000 0.71469881
0.00000000 0.97944135 0.76266821
0.00000000 0.97942795 0.76258645
0.00000000 0.97940748 0.76246163
0.00000000 0.97934261 0.76206642
0.00000000 0.97913273 0.76079173
0.00000000 0.97843885 0.75661852
0.96976285 0.97597997 0.74225027
0.99294919 0.96501709 0.68215277
0.99747628 0.81598787 0.00000000
0.00000000 0.99257583 0.00000000
0.00000000 0.99257546 0.00000000
0.00000000 0.99257489 0.00000000
0.00000000 0.99257309 0.00000000
0.00000000 0.99256732 0.00000000
0.00000000 0.99254876 0.00000000
0.00000000 0.99248866 0.00000000
0.99170412 0.99228907 0.00000000
0.99716295 0.99156317 0.00000000
0.00000000 0.99682771 0.00000000
0.00000000 0.99682760 0.00000000
0.00000000 0.99682742 0.00000000
0.00000000 0.99682687 0.00000000
0.00000000 0.99682510 0.00000000
0.00000000 0.99681941 0.00000000
0.00000000 0.99680112 0.00000000
0.00000000 0.99674190 0.00000000
0.99592368 0.99654533 0.00000000
0.00000000 0.00000000 0.97732761
0.00000000 0.00000000 0.97732486
0.00000000 0.00000000 0.97732066
0.00000000 0.00000000 0.97730739
0.63935649 0.00000000 0.97726479
0.90219723 0.00000000 0.97712753
0.98649691 0.00000000 0.97667986
0.99336073 0.00000000 0.97516101
0.99759844 0.00000000 0.96929912
0.00000000 0.00000000 0.97729503
0.00000000 0.00000000 0.97729227
0.00000000 0.00000000 0.97728806
0.00000000 0.00000000 0.97727476
0.63252543 0.00000000 0.97723207
0.90153708 0.00000000 0.97709454
0.98645844 0.00000000 0.97664596
0.99335888 0.00000000 0.97512404
0.99759786 0.00000000 0.96925018
0.00000000 0.00000000 0.97724520
0.00000000 0.00000000 0.97724243
0.00000000 0.00000000 0.97723821
0.00000000 0.00000000 0.97722487
0.62152160 0.00000000 0.97718205
0.90051767 0.00000000 0.97704409
0.98639925 0.00000000 0.97659412
0.99335605 0.00000000 0.97506750
0.99759699 0.00000000 0.96917534
0.00000000 0.00000000 0.97708673
0.00000000 0.00000000 0.97708394
0.00000000 0.00000000 0.97707968
0.00000000 0.00000000 0.97706620
0.58109006 0.00000000 0.97702296
0.89719406 0.00000000 0.97688365
0.98620806 0.00000000 0.97642928
0.99334712 0.00000000 0.97488769
0.99759424 0.00000000 0.96893730
0.00000000 0.00000000 0.97656847
0.00000000 0.00000000 0.97656559
0.00000000 0.00000000 0.97656119
0.00000000 0.00000000 0.97654729
0.32754140 0.00000000 0.97650268
0.88537407 0.00000000 0.97635895
0.98555147 0.00000000 0.97589016
0.99331833 0.00000000 0.97429964
0.99758540 0.00000000 0.96815846
0.00000000 0.73720622 0.97479464
0.00000000 0.73664683 0.97479146
0.00000000 0.73578901 0.97478660
0.00000000 0.73304175 0.97477124
0.00000000 0.72384344 0.97472192
0.82907165 0.68947820 0.97456306
0.98294217 0.45699738 0.97404489
0.99322453 0.00000000 0.97228655
0.99755692 0.00000000 0.96548780
0.00000000 0.97201958 0.96774530
0.00000000 0.97199904 0.96774089
0.00000000 0.97196767 0.96773417
0.00000000 0.97186826 0.96771293
0.00000000 0.97154659 0.96764473
0.00000000 0.97048299 0.96742499
0.96670790 0.96670790 0.96670790
0.99290644 0.94958048 0.96427000
0.99746414 0.40484055 0.95475729
0.00000000 0.99240613 0.91793590
0.00000000 0.99240574 0.91792105
0.00000000 0.99240514 0.91789840
0.00000000 0.99240326 0.91782675
0.00000000 0.99239721 0.91759660
0.00000000 0.99237775 0.91685317
0.00000000 0.99231471 0.91440755
0.99164358 0.99210496 0.90585600
0.99714971 0.99133670 0.86821017
0.00000000 0.99677636 0.00000000
0.00000000 0.99677624 0.00000000
0.00000000 0.99677606 0.00000000
0.00000000 0.99677550 0.00000000
0.00000000 0.99677370 0.00000000
0.00000000 0.99676793 0.00000000
0.00000000 0.99674938 0.00000000
0.00000000 0.99668930 0.00000000
0.99590500 0.99648976 0.00000000
0.00000000 0.00000000 0.99221676
0.00000000 0.00000000 0.99221669
0.00000000 0.00000000 0.99221658
0.00000000 0.00000000 0.99221622
0.00000000 0.00000000 0.99221509
0.83887537 0.00000000 0.99221145
0.98333754 0.00000000 0.99219975
0.99323713 0.00000000 0.99216204
0.99756072 0.00000000 0.99203847
0.00000000 0.00000000 0.99221589
0.00000000 0.00000000 0.99221582
0.00000000 0.00000000 0.99221571
0.00000000 0.00000000 0.99221535
0.00000000 0.00000000 0.99221422
0.83744528 0.00000000 0.99221058
0.98327842 0.00000000 0.99219888
0.99323522 0.00000000 0.99216115
0.99756014 0.00000000 0.99203756
0.00000000 0.00000000 0.99221457
0.00000000 0.00000000 0.99221449
0.00000000 0.00000000 0.99221438
0.00000000 0.00000000 0.99221403
0.00000000 0.00000000 0.99221289
0.83522273 0.00000000 0.99220925
0.98318753 0.00000000 0.99219755
0.99323230 0.00000000 0.99215981
0.99755926 0.00000000 0.99203616
0.00000000 0.00000000 0.99221037
0.00000000 0.00000000 0.99221030
0.00000000 0.00000000 0.99221018
0.00000000 0.00000000 0.99220983
0.00000000 0.00000000 0.99220869
0.82785333 0.00000000 0.99220504
0.98289463 0.00000000 0.99219333
0.99322305 0.00000000 0.99215555
0.99755647 0.00000000 0.99203175
0.00000000 0.00000000 0.99219689
0.00000000 0.00000000 0.99219681
0.00000000 0.00000000 0.99219670
0.00000000 0.00000000 0.99219635
0.00000000 0.00000000 0.99219520
0.79995008 0.00000000 0.99219154
0.98189558 0.00000000 0.99217979
0.99319325 0.00000000 0.99214186
0.99754754 0.00000000 0.99201758
0.00000000 0.00000000 0.99215335
0.00000000 0.00000000 0.99215328
0.00000000 0.00000000 0.99215317
0.00000000 0.00000000 0.99215281
0.00000000 0.00000000 0.99215165
0.59973889 0.00000000 0.99214794
0.97798987 0.00000000 0.99213604
0.99309610 0.00000000 0.99209765
0.99751876 0.00000000 0.99197182
0.00000000 0.90272922 0.99201023
0.00000000 0.90262334 0.99201015
0.00000000 0.90246151 0.99201003
0.00000000 0.90194763 0.99200966
0.00000000 0.90027461 0.99200845
0.00000000 0.89462614 0.99200460
0.95383679 0.87294043 0.99199221
0.99276592 0.71091146 0.99195225
0.99742498 0.00000000 0.99182115
0.00000000 0.99180146 0.99150919
0.00000000 0.99180100 0.99150910
0.00000000 0.99180029 0.99150897
0.00000000 0.99179806 0.99150853
0.00000000 0.99179090 0.99150715
0.00000000 0.99176788 0.99150272
0.00000000 0.99169310 0.99148849
0.99144249 0.99144249 0.99144249
0.99710696 0.99049733 0.99129106
0.00000000 0.99660670 0.98727370
0.00000000 0.99660658 0.98727275
0.00000000 0.99660639 0.98727130
0.00000000 0.99660580 0.98726673
0.00000000 0.99660392 0.98725204
0.00000000 0.99659787 0.98720464
0.00000000 0.99657842 0.98704939
0.00000000 0.99651539 0.98651601
0.99584449 0.99630571 0.98439760
0.00000000 0.00000000 0.99641726
0.00000000 0.00000000 0.99641724
0.00000000 0.00000000 0.99641720
0.00000000 0.00000000 0.99641709
0.00000000 0.00000000 0.99641674
0.00000000 0.00000000 0.99641560
0.95840479 0.00000000 0.99641196
0.99280996 0.00000000 0.99640027
0.99743713 0.00000000 0.99636257
0.00000000 0.00000000 0.99641699
0.00000000 0.00000000 0.99641697
0.00000000 0.00000000 0.99641693
0.00000000 0.00000000 0.99641682
0.00000000 0.00000000 0.99641647
0.00000000 0.00000000 0.99641533
0.95819372 0.00000000 0.99641169
0.99280780 0.00000000 0.99640000
0.99743654 0.00000000 0.99636229
0.00000000 0.00000000 0.99641657
0.00000000 0.00000000 0.99641655
0.00000000 0.00000000 0.99641652
0.00000000 0.00000000 0.99641641
0.00000000 0.00000000 0.99641605
0.00000000 0.00000000 0.99641492
0.95786915 0.00000000 0.99641127
0.99280451 0.00000000 0.99639958
0.99743563 0.00000000 0.99636187
0.00000000 0.00000000 0.99641527
0.00000000 0.00000000 0.99641524
0.00000000 0.00000000 0.99641521
0.00000000 0.00000000 0.99641510
0.00000000 0.00000000 0.99641474
0.00000000 0.00000000 0.99641361
0.95682227 0.00000000 0.99640996
0.99279410 0.00000000 0.99639827
0.99743274 0.00000000 0.99636054
0.00000000 0.00000000 0.99641107
0.00000000 0.00000000 0.99641105
0.00000000 0.00000000 0.99641101
0.00000000 0.00000000 0.99641090
0.00000000 0.00000000 0.99641055
0.00000000 0.00000000 0.99640941
0.95323730 0.00000000 0.99640576
0.99276052 0.00000000 0.99639405
0.99742350 0.00000000 0.99635628
0.00000000 0.00000000 0.99639759
0.00000000 0.00000000 0.99639757
0.00000000 0.00000000 0.99639753
0.00000000 0.00000000 0.99639742
0.00000000 0.00000000 0.99639707
0.00000000 0.00000000 0.99639593
0.93884175 0.00000000 0.99639227
0.99265079 0.00000000 0.99638051
0.99739371 0.00000000 0.99634260
0.00000000 0.00000000 0.99635407
0.00000000 0.00000000 0.99635405
0.00000000 0.00000000 0.99635401
0.00000000 0.00000000 0.99635390
0.00000000 0.00000000 0.99635354
0.00000000 0.00000000 0.99635238
0.81290548 0.00000000 0.99634868
0.99227489 0.00000000 0.99633678
0.99729658 0.00000000 0.99629840
0.00000000 0.98352598 0.99621099
0.00000000 0.98351660 0.99621097
0.00000000 0.98350227 0.99621093
0.00000000 0.98345686 0.99621081
0.00000000 0.98330985 0.99621044
0.00000000 0.98282317 0.99620923
0.00000000 0.98109243 0.99620538
0.99071040 0.97336267 0.99619300
0.99696649 0.88656879 0.99615305
0.00000000 0.99600220 0.99571012
0.00000000 0.99600206 0.99571010
0.00000000 0.99600184 0.99571005
0.00000000 0.99600114 0.99570992
0.00000000 0.99599891 0.99570949
0.00000000 0.99599176 0.99570811
0.00000000 0.99596874 0.99570368
0.00000000 0.99589398 0.99568945
0.99564347 0.99564347 0.99564347
