PQ_to_HLG.cube
TITLE "PQ_to_HLG"
LUT_3D_SIZE 5
# Crated by Francesco Bucciantini
0.000000 0.000000 0.000000
0.204786 0.000000 0.000000
0.604772 0.000000 0.000000
1.004387 0.000000 0.000000
1.382956 0.000000 0.000000
0.000000 0.204786 0.000000
0.204786 0.204786 0.000000
0.604772 0.204786 0.000000
1.004387 0.204786 0.000000
1.382956 0.204786 0.000000
0.000000 0.604772 0.000000
0.204786 0.604772 0.000000
0.604772 0.604772 0.000000
1.004387 0.604772 0.000000
1.382956 0.604772 0.000000
0.000000 1.004387 0.000000
0.204786 1.004387 0.000000
0.604772 1.004387 0.000000
1.004387 1.004387 0.000000
1.382956 1.004387 0.000000
0.000000 1.382956 0.000000
0.204786 1.382956 0.000000
0.604772 1.382956 0.000000
1.004387 1.382956 0.000000
1.382956 1.382956 0.000000
0.000000 0.000000 0.204786
0.204786 0.000000 0.204786
0.604772 0.000000 0.204786
1.004387 0.000000 0.204786
1.382956 0.000000 0.204786
0.000000 0.204786 0.204786
0.204786 0.204786 0.204786
0.604772 0.204786 0.204786
1.004387 0.204786 0.204786
1.382956 0.204786 0.204786
0.000000 0.604772 0.204786
0.204786 0.604772 0.204786
0.604772 0.604772 0.204786
1.004387 0.604772 0.204786
1.382956 0.604772 0.204786
0.000000 1.004387 0.204786
0.204786 1.004387 0.204786
0.604772 1.004387 0.204786
1.004387 1.004387 0.204786
1.382956 1.004387 0.204786
0.000000 1.382956 0.204786
0.204786 1.382956 0.204786
0.604772 1.382956 0.204786
1.004387 1.382956 0.204786
1.382956 1.382956 0.204786
0.000000 0.000000 0.604772
0.204786 0.000000 0.604772
0.604772 0.000000 0.604772
1.004387 0.000000 0.604772
1.382956 0.000000 0.604772
0.000000 0.204786 0.604772
0.204786 0.204786 0.604772
0.604772 0.204786 0.604772
1.004387 0.204786 0.604772
1.382956 0.204786 0.604772
0.000000 0.604772 0.604772
0.204786 0.604772 0.604772
0.604772 0.604772 0.604772
1.004387 0.604772 0.604772
1.382956 0.604772 0.604772
0.000000 1.004387 0.604772
0.204786 1.004387 0.604772
0.604772 1.004387 0.604772
1.004387 1.004387 0.604772
1.382956 1.004387 0.604772
0.000000 1.382956 0.604772
0.204786 1.382956 0.604772
0.604772 1.382956 0.604772
1.004387 1.382956 0.604772
1.382956 1.382956 0.604772
0.000000 0.000000 1.004387
0.204786 0.000000 1.004387
0.604772 0.000000 1.004387
1.004387 0.000000 1.004387
1.382956 0.000000 1.004387
0.000000 0.204786 1.004387
0.204786 0.204786 1.004387
0.604772 0.204786 1.004387
1.004387 0.204786 1.004387
1.382956 0.204786 1.004387
0.000000 0.604772 1.004387
0.204786 0.604772 1.004387
0.604772 0.604772 1.004387
1.004387 0.604772 1.004387
1.382956 0.604772 1.004387
0.000000 1.004387 1.004387
0.204786 1.004387 1.004387
0.604772 1.004387 1.004387
1.004387 1.004387 1.004387
1.382956 1.004387 1.004387
0.000000 1.382956 1.004387
0.204786 1.382956 1.004387
0.604772 1.382956 1.004387
1.004387 1.382956 1.004387
1.382956 1.382956 1.004387
0.000000 0.000000 1.382956
0.204786 0.000000 1.382956
0.604772 0.000000 1.382956
1.004387 0.000000 1.382956
1.382956 0.000000 1.382956
0.000000 0.204786 1.382956
0.204786 0.204786 1.382956
0.604772 0.204786 1.382956
1.004387 0.204786 1.382956
1.382956 0.204786 1.382956
0.000000 0.604772 1.382956
0.204786 0.604772 1.382956
0.604772 0.604772 1.382956
1.004387 0.604772 1.382956
1.382956 0.604772 1.382956
0.000000 1.004387 1.382956
0.204786 1.004387 1.382956
0.604772 1.004387 1.382956
1.004387 1.004387 1.382956
1.382956 1.004387 1.382956
0.000000 1.382956 1.382956
0.204786 1.382956 1.382956
0.604772 1.382956 1.382956
1.004387 1.382956 1.382956
1.382956 1.382956 1.382956
