PQ_to_HLG.cube
TITLE "PQ_to_HLG"
LUT_3D_SIZE 9
# Crated by Francesco Bucciantini
0.000000 0.000000 0.000000
0.106934 0.000000 0.000000
0.204786 0.000000 0.000000
0.365394 0.000000 0.000000
0.604772 0.000000 0.000000
0.813946 0.000000 0.000000
1.004387 0.000000 0.000000
1.191559 0.000000 0.000000
1.382956 0.000000 0.000000
0.000000 0.106934 0.000000
0.106934 0.106934 0.000000
0.204786 0.106934 0.000000
0.365394 0.106934 0.000000
0.604772 0.106934 0.000000
0.813946 0.106934 0.000000
1.004387 0.106934 0.000000
1.191559 0.106934 0.000000
1.382956 0.106934 0.000000
0.000000 0.204786 0.000000
0.106934 0.204786 0.000000
0.204786 0.204786 0.000000
0.365394 0.204786 0.000000
0.604772 0.204786 0.000000
0.813946 0.204786 0.000000
1.004387 0.204786 0.000000
1.191559 0.204786 0.000000
1.382956 0.204786 0.000000
0.000000 0.365394 0.000000
0.106934 0.365394 0.000000
0.204786 0.365394 0.000000
0.365394 0.365394 0.000000
0.604772 0.365394 0.000000
0.813946 0.365394 0.000000
1.004387 0.365394 0.000000
1.191559 0.365394 0.000000
1.382956 0.365394 0.000000
0.000000 0.604772 0.000000
0.106934 0.604772 0.000000
0.204786 0.604772 0.000000
0.365394 0.604772 0.000000
0.604772 0.604772 0.000000
0.813946 0.604772 0.000000
1.004387 0.604772 0.000000
1.191559 0.604772 0.000000
1.382956 0.604772 0.000000
0.000000 0.813946 0.000000
0.106934 0.813946 0.000000
0.204786 0.813946 0.000000
0.365394 0.813946 0.000000
0.604772 0.813946 0.000000
0.813946 0.813946 0.000000
1.004387 0.813946 0.000000
1.191559 0.813946 0.000000
1.382956 0.813946 0.000000
0.000000 1.004387 0.000000
0.106934 1.004387 0.000000
0.204786 1.004387 0.000000
0.365394 1.004387 0.000000
0.604772 1.004387 0.000000
0.813946 1.004387 0.000000
1.004387 1.004387 0.000000
1.191559 1.004387 0.000000
1.382956 1.004387 0.000000
0.000000 1.191559 0.000000
0.106934 1.191559 0.000000
0.204786 1.191559 0.000000
0.365394 1.191559 0.000000
0.604772 1.191559 0.000000
0.813946 1.191559 0.000000
1.004387 1.191559 0.000000
1.191559 1.191559 0.000000
1.382956 1.191559 0.000000
0.000000 1.382956 0.000000
0.106934 1.382956 0.000000
0.204786 1.382956 0.000000
0.365394 1.382956 0.000000
0.604772 1.382956 0.000000
0.813946 1.382956 0.000000
1.004387 1.382956 0.000000
1.191559 1.382956 0.000000
1.382956 1.382956 0.000000
0.000000 0.000000 0.106934
0.106934 0.000000 0.106934
0.204786 0.000000 0.106934
0.365394 0.000000 0.106934
0.604772 0.000000 0.106934
0.813946 0.000000 0.106934
1.004387 0.000000 0.106934
1.191559 0.000000 0.106934
1.382956 0.000000 0.106934
0.000000 0.106934 0.106934
0.106934 0.106934 0.106934
0.204786 0.106934 0.106934
0.365394 0.106934 0.106934
0.604772 0.106934 0.106934
0.813946 0.106934 0.106934
1.004387 0.106934 0.106934
1.191559 0.106934 0.106934
1.382956 0.106934 0.106934
0.000000 0.204786 0.106934
0.106934 0.204786 0.106934
0.204786 0.204786 0.106934
0.365394 0.204786 0.106934
0.604772 0.204786 0.106934
0.813946 0.204786 0.106934
1.004387 0.204786 0.106934
1.191559 0.204786 0.106934
1.382956 0.204786 0.106934
0.000000 0.365394 0.106934
0.106934 0.365394 0.106934
0.204786 0.365394 0.106934
0.365394 0.365394 0.106934
0.604772 0.365394 0.106934
0.813946 0.365394 0.106934
1.004387 0.365394 0.106934
1.191559 0.365394 0.106934
1.382956 0.365394 0.106934
0.000000 0.604772 0.106934
0.106934 0.604772 0.106934
0.204786 0.604772 0.106934
0.365394 0.604772 0.106934
0.604772 0.604772 0.106934
0.813946 0.604772 0.106934
1.004387 0.604772 0.106934
1.191559 0.604772 0.106934
1.382956 0.604772 0.106934
0.000000 0.813946 0.106934
0.106934 0.813946 0.106934
0.204786 0.813946 0.106934
0.365394 0.813946 0.106934
0.604772 0.813946 0.106934
0.813946 0.813946 0.106934
1.004387 0.813946 0.106934
1.191559 0.813946 0.106934
1.382956 0.813946 0.106934
0.000000 1.004387 0.106934
0.106934 1.004387 0.106934
0.204786 1.004387 0.106934
0.365394 1.004387 0.106934
0.604772 1.004387 0.106934
0.813946 1.004387 0.106934
1.004387 1.004387 0.106934
1.191559 1.004387 0.106934
1.382956 1.004387 0.106934
0.000000 1.191559 0.106934
0.106934 1.191559 0.106934
0.204786 1.191559 0.106934
0.365394 1.191559 0.106934
0.604772 1.191559 0.106934
0.813946 1.191559 0.106934
1.004387 1.191559 0.106934
1.191559 1.191559 0.106934
1.382956 1.191559 0.106934
0.000000 1.382956 0.106934
0.106934 1.382956 0.106934
0.204786 1.382956 0.106934
0.365394 1.382956 0.106934
0.604772 1.382956 0.106934
0.813946 1.382956 0.106934
1.004387 1.382956 0.106934
1.191559 1.382956 0.106934
1.382956 1.382956 0.106934
0.000000 0.000000 0.204786
0.106934 0.000000 0.204786
0.204786 0.000000 0.204786
0.365394 0.000000 0.204786
0.604772 0.000000 0.204786
0.813946 0.000000 0.204786
1.004387 0.000000 0.204786
1.191559 0.000000 0.204786
1.382956 0.000000 0.204786
0.000000 0.106934 0.204786
0.106934 0.106934 0.204786
0.204786 0.106934 0.204786
0.365394 0.106934 0.204786
0.604772 0.106934 0.204786
0.813946 0.106934 0.204786
1.004387 0.106934 0.204786
1.191559 0.106934 0.204786
1.382956 0.106934 0.204786
0.000000 0.204786 0.204786
0.106934 0.204786 0.204786
0.204786 0.204786 0.204786
0.365394 0.204786 0.204786
0.604772 0.204786 0.204786
0.813946 0.204786 0.204786
1.004387 0.204786 0.204786
1.191559 0.204786 0.204786
1.382956 0.204786 0.204786
0.000000 0.365394 0.204786
0.106934 0.365394 0.204786
0.204786 0.365394 0.204786
0.365394 0.365394 0.204786
0.604772 0.365394 0.204786
0.813946 0.365394 0.204786
1.004387 0.365394 0.204786
1.191559 0.365394 0.204786
1.382956 0.365394 0.204786
0.000000 0.604772 0.204786
0.106934 0.604772 0.204786
0.204786 0.604772 0.204786
0.365394 0.604772 0.204786
0.604772 0.604772 0.204786
0.813946 0.604772 0.204786
1.004387 0.604772 0.204786
1.191559 0.604772 0.204786
1.382956 0.604772 0.204786
0.000000 0.813946 0.204786
0.106934 0.813946 0.204786
0.204786 0.813946 0.204786
0.365394 0.813946 0.204786
0.604772 0.813946 0.204786
0.813946 0.813946 0.204786
1.004387 0.813946 0.204786
1.191559 0.813946 0.204786
1.382956 0.813946 0.204786
0.000000 1.004387 0.204786
0.106934 1.004387 0.204786
0.204786 1.004387 0.204786
0.365394 1.004387 0.204786
0.604772 1.004387 0.204786
0.813946 1.004387 0.204786
1.004387 1.004387 0.204786
1.191559 1.004387 0.204786
1.382956 1.004387 0.204786
0.000000 1.191559 0.204786
0.106934 1.191559 0.204786
0.204786 1.191559 0.204786
0.365394 1.191559 0.204786
0.604772 1.191559 0.204786
0.813946 1.191559 0.204786
1.004387 1.191559 0.204786
1.191559 1.191559 0.204786
1.382956 1.191559 0.204786
0.000000 1.382956 0.204786
0.106934 1.382956 0.204786
0.204786 1.382956 0.204786
0.365394 1.382956 0.204786
0.604772 1.382956 0.204786
0.813946 1.382956 0.204786
1.004387 1.382956 0.204786
1.191559 1.382956 0.204786
1.382956 1.382956 0.204786
0.000000 0.000000 0.365394
0.106934 0.000000 0.365394
0.204786 0.000000 0.365394
0.365394 0.000000 0.365394
0.604772 0.000000 0.365394
0.813946 0.000000 0.365394
1.004387 0.000000 0.365394
1.191559 0.000000 0.365394
1.382956 0.000000 0.365394
0.000000 0.106934 0.365394
0.106934 0.106934 0.365394
0.204786 0.106934 0.365394
0.365394 0.106934 0.365394
0.604772 0.106934 0.365394
0.813946 0.106934 0.365394
1.004387 0.106934 0.365394
1.191559 0.106934 0.365394
1.382956 0.106934 0.365394
0.000000 0.204786 0.365394
0.106934 0.204786 0.365394
0.204786 0.204786 0.365394
0.365394 0.204786 0.365394
0.604772 0.204786 0.365394
0.813946 0.204786 0.365394
1.004387 0.204786 0.365394
1.191559 0.204786 0.365394
1.382956 0.204786 0.365394
0.000000 0.365394 0.365394
0.106934 0.365394 0.365394
0.204786 0.365394 0.365394
0.365394 0.365394 0.365394
0.604772 0.365394 0.365394
0.813946 0.365394 0.365394
1.004387 0.365394 0.365394
1.191559 0.365394 0.365394
1.382956 0.365394 0.365394
0.000000 0.604772 0.365394
0.106934 0.604772 0.365394
0.204786 0.604772 0.365394
0.365394 0.604772 0.365394
0.604772 0.604772 0.365394
0.813946 0.604772 0.365394
1.004387 0.604772 0.365394
1.191559 0.604772 0.365394
1.382956 0.604772 0.365394
0.000000 0.813946 0.365394
0.106934 0.813946 0.365394
0.204786 0.813946 0.365394
0.365394 0.813946 0.365394
0.604772 0.813946 0.365394
0.813946 0.813946 0.365394
1.004387 0.813946 0.365394
1.191559 0.813946 0.365394
1.382956 0.813946 0.365394
0.000000 1.004387 0.365394
0.106934 1.004387 0.365394
0.204786 1.004387 0.365394
0.365394 1.004387 0.365394
0.604772 1.004387 0.365394
0.813946 1.004387 0.365394
1.004387 1.004387 0.365394
1.191559 1.004387 0.365394
1.382956 1.004387 0.365394
0.000000 1.191559 0.365394
0.106934 1.191559 0.365394
0.204786 1.191559 0.365394
0.365394 1.191559 0.365394
0.604772 1.191559 0.365394
0.813946 1.191559 0.365394
1.004387 1.191559 0.365394
1.191559 1.191559 0.365394
1.382956 1.191559 0.365394
0.000000 1.382956 0.365394
0.106934 1.382956 0.365394
0.204786 1.382956 0.365394
0.365394 1.382956 0.365394
0.604772 1.382956 0.365394
0.813946 1.382956 0.365394
1.004387 1.382956 0.365394
1.191559 1.382956 0.365394
1.382956 1.382956 0.365394
0.000000 0.000000 0.604772
0.106934 0.000000 0.604772
0.204786 0.000000 0.604772
0.365394 0.000000 0.604772
0.604772 0.000000 0.604772
0.813946 0.000000 0.604772
1.004387 0.000000 0.604772
1.191559 0.000000 0.604772
1.382956 0.000000 0.604772
0.000000 0.106934 0.604772
0.106934 0.106934 0.604772
0.204786 0.106934 0.604772
0.365394 0.106934 0.604772
0.604772 0.106934 0.604772
0.813946 0.106934 0.604772
1.004387 0.106934 0.604772
1.191559 0.106934 0.604772
1.382956 0.106934 0.604772
0.000000 0.204786 0.604772
0.106934 0.204786 0.604772
0.204786 0.204786 0.604772
0.365394 0.204786 0.604772
0.604772 0.204786 0.604772
0.813946 0.204786 0.604772
1.004387 0.204786 0.604772
1.191559 0.204786 0.604772
1.382956 0.204786 0.604772
0.000000 0.365394 0.604772
0.106934 0.365394 0.604772
0.204786 0.365394 0.604772
0.365394 0.365394 0.604772
0.604772 0.365394 0.604772
0.813946 0.365394 0.604772
1.004387 0.365394 0.604772
1.191559 0.365394 0.604772
1.382956 0.365394 0.604772
0.000000 0.604772 0.604772
0.106934 0.604772 0.604772
0.204786 0.604772 0.604772
0.365394 0.604772 0.604772
0.604772 0.604772 0.604772
0.813946 0.604772 0.604772
1.004387 0.604772 0.604772
1.191559 0.604772 0.604772
1.382956 0.604772 0.604772
0.000000 0.813946 0.604772
0.106934 0.813946 0.604772
0.204786 0.813946 0.604772
0.365394 0.813946 0.604772
0.604772 0.813946 0.604772
0.813946 0.813946 0.604772
1.004387 0.813946 0.604772
1.191559 0.813946 0.604772
1.382956 0.813946 0.604772
0.000000 1.004387 0.604772
0.106934 1.004387 0.604772
0.204786 1.004387 0.604772
0.365394 1.004387 0.604772
0.604772 1.004387 0.604772
0.813946 1.004387 0.604772
1.004387 1.004387 0.604772
1.191559 1.004387 0.604772
1.382956 1.004387 0.604772
0.000000 1.191559 0.604772
0.106934 1.191559 0.604772
0.204786 1.191559 0.604772
0.365394 1.191559 0.604772
0.604772 1.191559 0.604772
0.813946 1.191559 0.604772
1.004387 1.191559 0.604772
1.191559 1.191559 0.604772
1.382956 1.191559 0.604772
0.000000 1.382956 0.604772
0.106934 1.382956 0.604772
0.204786 1.382956 0.604772
0.365394 1.382956 0.604772
0.604772 1.382956 0.604772
0.813946 1.382956 0.604772
1.004387 1.382956 0.604772
1.191559 1.382956 0.604772
1.382956 1.382956 0.604772
0.000000 0.000000 0.813946
0.106934 0.000000 0.813946
0.204786 0.000000 0.813946
0.365394 0.000000 0.813946
0.604772 0.000000 0.813946
0.813946 0.000000 0.813946
1.004387 0.000000 0.813946
1.191559 0.000000 0.813946
1.382956 0.000000 0.813946
0.000000 0.106934 0.813946
0.106934 0.106934 0.813946
0.204786 0.106934 0.813946
0.365394 0.106934 0.813946
0.604772 0.106934 0.813946
0.813946 0.106934 0.813946
1.004387 0.106934 0.813946
1.191559 0.106934 0.813946
1.382956 0.106934 0.813946
0.000000 0.204786 0.813946
0.106934 0.204786 0.813946
0.204786 0.204786 0.813946
0.365394 0.204786 0.813946
0.604772 0.204786 0.813946
0.813946 0.204786 0.813946
1.004387 0.204786 0.813946
1.191559 0.204786 0.813946
1.382956 0.204786 0.813946
0.000000 0.365394 0.813946
0.106934 0.365394 0.813946
0.204786 0.365394 0.813946
0.365394 0.365394 0.813946
0.604772 0.365394 0.813946
0.813946 0.365394 0.813946
1.004387 0.365394 0.813946
1.191559 0.365394 0.813946
1.382956 0.365394 0.813946
0.000000 0.604772 0.813946
0.106934 0.604772 0.813946
0.204786 0.604772 0.813946
0.365394 0.604772 0.813946
0.604772 0.604772 0.813946
0.813946 0.604772 0.813946
1.004387 0.604772 0.813946
1.191559 0.604772 0.813946
1.382956 0.604772 0.813946
0.000000 0.813946 0.813946
0.106934 0.813946 0.813946
0.204786 0.813946 0.813946
0.365394 0.813946 0.813946
0.604772 0.813946 0.813946
0.813946 0.813946 0.813946
1.004387 0.813946 0.813946
1.191559 0.813946 0.813946
1.382956 0.813946 0.813946
0.000000 1.004387 0.813946
0.106934 1.004387 0.813946
0.204786 1.004387 0.813946
0.365394 1.004387 0.813946
0.604772 1.004387 0.813946
0.813946 1.004387 0.813946
1.004387 1.004387 0.813946
1.191559 1.004387 0.813946
1.382956 1.004387 0.813946
0.000000 1.191559 0.813946
0.106934 1.191559 0.813946
0.204786 1.191559 0.813946
0.365394 1.191559 0.813946
0.604772 1.191559 0.813946
0.813946 1.191559 0.813946
1.004387 1.191559 0.813946
1.191559 1.191559 0.813946
1.382956 1.191559 0.813946
0.000000 1.382956 0.813946
0.106934 1.382956 0.813946
0.204786 1.382956 0.813946
0.365394 1.382956 0.813946
0.604772 1.382956 0.813946
0.813946 1.382956 0.813946
1.004387 1.382956 0.813946
1.191559 1.382956 0.813946
1.382956 1.382956 0.813946
0.000000 0.000000 1.004387
0.106934 0.000000 1.004387
0.204786 0.000000 1.004387
0.365394 0.000000 1.004387
0.604772 0.000000 1.004387
0.813946 0.000000 1.004387
1.004387 0.000000 1.004387
1.191559 0.000000 1.004387
1.382956 0.000000 1.004387
0.000000 0.106934 1.004387
0.106934 0.106934 1.004387
0.204786 0.106934 1.004387
0.365394 0.106934 1.004387
0.604772 0.106934 1.004387
0.813946 0.106934 1.004387
1.004387 0.106934 1.004387
1.191559 0.106934 1.004387
1.382956 0.106934 1.004387
0.000000 0.204786 1.004387
0.106934 0.204786 1.004387
0.204786 0.204786 1.004387
0.365394 0.204786 1.004387
0.604772 0.204786 1.004387
0.813946 0.204786 1.004387
1.004387 0.204786 1.004387
1.191559 0.204786 1.004387
1.382956 0.204786 1.004387
0.000000 0.365394 1.004387
0.106934 0.365394 1.004387
0.204786 0.365394 1.004387
0.365394 0.365394 1.004387
0.604772 0.365394 1.004387
0.813946 0.365394 1.004387
1.004387 0.365394 1.004387
1.191559 0.365394 1.004387
1.382956 0.365394 1.004387
0.000000 0.604772 1.004387
0.106934 0.604772 1.004387
0.204786 0.604772 1.004387
0.365394 0.604772 1.004387
0.604772 0.604772 1.004387
0.813946 0.604772 1.004387
1.004387 0.604772 1.004387
1.191559 0.604772 1.004387
1.382956 0.604772 1.004387
0.000000 0.813946 1.004387
0.106934 0.813946 1.004387
0.204786 0.813946 1.004387
0.365394 0.813946 1.004387
0.604772 0.813946 1.004387
0.813946 0.813946 1.004387
1.004387 0.813946 1.004387
1.191559 0.813946 1.004387
1.382956 0.813946 1.004387
0.000000 1.004387 1.004387
0.106934 1.004387 1.004387
0.204786 1.004387 1.004387
0.365394 1.004387 1.004387
0.604772 1.004387 1.004387
0.813946 1.004387 1.004387
1.004387 1.004387 1.004387
1.191559 1.004387 1.004387
1.382956 1.004387 1.004387
0.000000 1.191559 1.004387
0.106934 1.191559 1.004387
0.204786 1.191559 1.004387
0.365394 1.191559 1.004387
0.604772 1.191559 1.004387
0.813946 1.191559 1.004387
1.004387 1.191559 1.004387
1.191559 1.191559 1.004387
1.382956 1.191559 1.004387
0.000000 1.382956 1.004387
0.106934 1.382956 1.004387
0.204786 1.382956 1.004387
0.365394 1.382956 1.004387
0.604772 1.382956 1.004387
0.813946 1.382956 1.004387
1.004387 1.382956 1.004387
1.191559 1.382956 1.004387
1.382956 1.382956 1.004387
0.000000 0.000000 1.191559
0.106934 0.000000 1.191559
0.204786 0.000000 1.191559
0.365394 0.000000 1.191559
0.604772 0.000000 1.191559
0.813946 0.000000 1.191559
1.004387 0.000000 1.191559
1.191559 0.000000 1.191559
1.382956 0.000000 1.191559
0.000000 0.106934 1.191559
0.106934 0.106934 1.191559
0.204786 0.106934 1.191559
0.365394 0.106934 1.191559
0.604772 0.106934 1.191559
0.813946 0.106934 1.191559
1.004387 0.106934 1.191559
1.191559 0.106934 1.191559
1.382956 0.106934 1.191559
0.000000 0.204786 1.191559
0.106934 0.204786 1.191559
0.204786 0.204786 1.191559
0.365394 0.204786 1.191559
0.604772 0.204786 1.191559
0.813946 0.204786 1.191559
1.004387 0.204786 1.191559
1.191559 0.204786 1.191559
1.382956 0.204786 1.191559
0.000000 0.365394 1.191559
0.106934 0.365394 1.191559
0.204786 0.365394 1.191559
0.365394 0.365394 1.191559
0.604772 0.365394 1.191559
0.813946 0.365394 1.191559
1.004387 0.365394 1.191559
1.191559 0.365394 1.191559
1.382956 0.365394 1.191559
0.000000 0.604772 1.191559
0.106934 0.604772 1.191559
0.204786 0.604772 1.191559
0.365394 0.604772 1.191559
0.604772 0.604772 1.191559
0.813946 0.604772 1.191559
1.004387 0.604772 1.191559
1.191559 0.604772 1.191559
1.382956 0.604772 1.191559
0.000000 0.813946 1.191559
0.106934 0.813946 1.191559
0.204786 0.813946 1.191559
0.365394 0.813946 1.191559
0.604772 0.813946 1.191559
0.813946 0.813946 1.191559
1.004387 0.813946 1.191559
1.191559 0.813946 1.191559
1.382956 0.813946 1.191559
0.000000 1.004387 1.191559
0.106934 1.004387 1.191559
0.204786 1.004387 1.191559
0.365394 1.004387 1.191559
0.604772 1.004387 1.191559
0.813946 1.004387 1.191559
1.004387 1.004387 1.191559
1.191559 1.004387 1.191559
1.382956 1.004387 1.191559
0.000000 1.191559 1.191559
0.106934 1.191559 1.191559
0.204786 1.191559 1.191559
0.365394 1.191559 1.191559
0.604772 1.191559 1.191559
0.813946 1.191559 1.191559
1.004387 1.191559 1.191559
1.191559 1.191559 1.191559
1.382956 1.191559 1.191559
0.000000 1.382956 1.191559
0.106934 1.382956 1.191559
0.204786 1.382956 1.191559
0.365394 1.382956 1.191559
0.604772 1.382956 1.191559
0.813946 1.382956 1.191559
1.004387 1.382956 1.191559
1.191559 1.382956 1.191559
1.382956 1.382956 1.191559
0.000000 0.000000 1.382956
0.106934 0.000000 1.382956
0.204786 0.000000 1.382956
0.365394 0.000000 1.382956
0.604772 0.000000 1.382956
0.813946 0.000000 1.382956
1.004387 0.000000 1.382956
1.191559 0.000000 1.382956
1.382956 0.000000 1.382956
0.000000 0.106934 1.382956
0.106934 0.106934 1.382956
0.204786 0.106934 1.382956
0.365394 0.106934 1.382956
0.604772 0.106934 1.382956
0.813946 0.106934 1.382956
1.004387 0.106934 1.382956
1.191559 0.106934 1.382956
1.382956 0.106934 1.382956
0.000000 0.204786 1.382956
0.106934 0.204786 1.382956
0.204786 0.204786 1.382956
0.365394 0.204786 1.382956
0.604772 0.204786 1.382956
0.813946 0.204786 1.382956
1.004387 0.204786 1.382956
1.191559 0.204786 1.382956
1.382956 0.204786 1.382956
0.000000 0.365394 1.382956
0.106934 0.365394 1.382956
0.204786 0.365394 1.382956
0.365394 0.365394 1.382956
0.604772 0.365394 1.382956
0.813946 0.365394 1.382956
1.004387 0.365394 1.382956
1.191559 0.365394 1.382956
1.382956 0.365394 1.382956
0.000000 0.604772 1.382956
0.106934 0.604772 1.382956
0.204786 0.604772 1.382956
0.365394 0.604772 1.382956
0.604772 0.604772 1.382956
0.813946 0.604772 1.382956
1.004387 0.604772 1.382956
1.191559 0.604772 1.382956
1.382956 0.604772 1.382956
0.000000 0.813946 1.382956
0.106934 0.813946 1.382956
0.204786 0.813946 1.382956
0.365394 0.813946 1.382956
0.604772 0.813946 1.382956
0.813946 0.813946 1.382956
1.004387 0.813946 1.382956
1.191559 0.813946 1.382956
1.382956 0.813946 1.382956
0.000000 1.004387 1.382956
0.106934 1.004387 1.382956
0.204786 1.004387 1.382956
0.365394 1.004387 1.382956
0.604772 1.004387 1.382956
0.813946 1.004387 1.382956
1.004387 1.004387 1.382956
1.191559 1.004387 1.382956
1.382956 1.004387 1.382956
0.000000 1.191559 1.382956
0.106934 1.191559 1.382956
0.204786 1.191559 1.382956
0.365394 1.191559 1.382956
0.604772 1.191559 1.382956
0.813946 1.191559 1.382956
1.004387 1.191559 1.382956
1.191559 1.191559 1.382956
1.382956 1.191559 1.382956
0.000000 1.382956 1.382956
0.106934 1.382956 1.382956
0.204786 1.382956 1.382956
0.365394 1.382956 1.382956
0.604772 1.382956 1.382956
0.813946 1.382956 1.382956
1.004387 1.382956 1.382956
1.191559 1.382956 1.382956
1.382956 1.382956 1.382956
