PQ_to_HLG.cube
TITLE "PQ_to_HLG"
LUT_3D_SIZE 33
# Crated by Francesco Bucciantini
0.000000 0.000000 0.000000
0.052612 0.000000 0.000000
0.072542 0.000000 0.000000
0.089296 0.000000 0.000000
0.106934 0.000000 0.000000
0.126969 0.000000 0.000000
0.149723 0.000000 0.000000
0.175537 0.000000 0.000000
0.204786 0.000000 0.000000
0.237892 0.000000 0.000000
0.275327 0.000000 0.000000
0.317626 0.000000 0.000000
0.365394 0.000000 0.000000
0.419320 0.000000 0.000000
0.480187 0.000000 0.000000
0.545088 0.000000 0.000000
0.604772 0.000000 0.000000
0.660484 0.000000 0.000000
0.713432 0.000000 0.000000
0.764404 0.000000 0.000000
0.813946 0.000000 0.000000
0.862451 0.000000 0.000000
0.910214 0.000000 0.000000
0.957464 0.000000 0.000000
1.004387 0.000000 0.000000
1.051135 0.000000 0.000000
1.097838 0.000000 0.000000
1.144612 0.000000 0.000000
1.191559 0.000000 0.000000
1.238777 0.000000 0.000000
1.286356 0.000000 0.000000
1.334386 0.000000 0.000000
1.382956 0.000000 0.000000
0.000000 0.052612 0.000000
0.052612 0.052612 0.000000
0.072542 0.052612 0.000000
0.089296 0.052612 0.000000
0.106934 0.052612 0.000000
0.126969 0.052612 0.000000
0.149723 0.052612 0.000000
0.175537 0.052612 0.000000
0.204786 0.052612 0.000000
0.237892 0.052612 0.000000
0.275327 0.052612 0.000000
0.317626 0.052612 0.000000
0.365394 0.052612 0.000000
0.419320 0.052612 0.000000
0.480187 0.052612 0.000000
0.545088 0.052612 0.000000
0.604772 0.052612 0.000000
0.660484 0.052612 0.000000
0.713432 0.052612 0.000000
0.764404 0.052612 0.000000
0.813946 0.052612 0.000000
0.862451 0.052612 0.000000
0.910214 0.052612 0.000000
0.957464 0.052612 0.000000
1.004387 0.052612 0.000000
1.051135 0.052612 0.000000
1.097838 0.052612 0.000000
1.144612 0.052612 0.000000
1.191559 0.052612 0.000000
1.238777 0.052612 0.000000
1.286356 0.052612 0.000000
1.334386 0.052612 0.000000
1.382956 0.052612 0.000000
0.000000 0.072542 0.000000
0.052612 0.072542 0.000000
0.072542 0.072542 0.000000
0.089296 0.072542 0.000000
0.106934 0.072542 0.000000
0.126969 0.072542 0.000000
0.149723 0.072542 0.000000
0.175537 0.072542 0.000000
0.204786 0.072542 0.000000
0.237892 0.072542 0.000000
0.275327 0.072542 0.000000
0.317626 0.072542 0.000000
0.365394 0.072542 0.000000
0.419320 0.072542 0.000000
0.480187 0.072542 0.000000
0.545088 0.072542 0.000000
0.604772 0.072542 0.000000
0.660484 0.072542 0.000000
0.713432 0.072542 0.000000
0.764404 0.072542 0.000000
0.813946 0.072542 0.000000
0.862451 0.072542 0.000000
0.910214 0.072542 0.000000
0.957464 0.072542 0.000000
1.004387 0.072542 0.000000
1.051135 0.072542 0.000000
1.097838 0.072542 0.000000
1.144612 0.072542 0.000000
1.191559 0.072542 0.000000
1.238777 0.072542 0.000000
1.286356 0.072542 0.000000
1.334386 0.072542 0.000000
1.382956 0.072542 0.000000
0.000000 0.089296 0.000000
0.052612 0.089296 0.000000
0.072542 0.089296 0.000000
0.089296 0.089296 0.000000
0.106934 0.089296 0.000000
0.126969 0.089296 0.000000
0.149723 0.089296 0.000000
0.175537 0.089296 0.000000
0.204786 0.089296 0.000000
0.237892 0.089296 0.000000
0.275327 0.089296 0.000000
0.317626 0.089296 0.000000
0.365394 0.089296 0.000000
0.419320 0.089296 0.000000
0.480187 0.089296 0.000000
0.545088 0.089296 0.000000
0.604772 0.089296 0.000000
0.660484 0.089296 0.000000
0.713432 0.089296 0.000000
0.764404 0.089296 0.000000
0.813946 0.089296 0.000000
0.862451 0.089296 0.000000
0.910214 0.089296 0.000000
0.957464 0.089296 0.000000
1.004387 0.089296 0.000000
1.051135 0.089296 0.000000
1.097838 0.089296 0.000000
1.144612 0.089296 0.000000
1.191559 0.089296 0.000000
1.238777 0.089296 0.000000
1.286356 0.089296 0.000000
1.334386 0.089296 0.000000
1.382956 0.089296 0.000000
0.000000 0.106934 0.000000
0.052612 0.106934 0.000000
0.072542 0.106934 0.000000
0.089296 0.106934 0.000000
0.106934 0.106934 0.000000
0.126969 0.106934 0.000000
0.149723 0.106934 0.000000
0.175537 0.106934 0.000000
0.204786 0.106934 0.000000
0.237892 0.106934 0.000000
0.275327 0.106934 0.000000
0.317626 0.106934 0.000000
0.365394 0.106934 0.000000
0.419320 0.106934 0.000000
0.480187 0.106934 0.000000
0.545088 0.106934 0.000000
0.604772 0.106934 0.000000
0.660484 0.106934 0.000000
0.713432 0.106934 0.000000
0.764404 0.106934 0.000000
0.813946 0.106934 0.000000
0.862451 0.106934 0.000000
0.910214 0.106934 0.000000
0.957464 0.106934 0.000000
1.004387 0.106934 0.000000
1.051135 0.106934 0.000000
1.097838 0.106934 0.000000
1.144612 0.106934 0.000000
1.191559 0.106934 0.000000
1.238777 0.106934 0.000000
1.286356 0.106934 0.000000
1.334386 0.106934 0.000000
1.382956 0.106934 0.000000
0.000000 0.126969 0.000000
0.052612 0.126969 0.000000
0.072542 0.126969 0.000000
0.089296 0.126969 0.000000
0.106934 0.126969 0.000000
0.126969 0.126969 0.000000
0.149723 0.126969 0.000000
0.175537 0.126969 0.000000
0.204786 0.126969 0.000000
0.237892 0.126969 0.000000
0.275327 0.126969 0.000000
0.317626 0.126969 0.000000
0.365394 0.126969 0.000000
0.419320 0.126969 0.000000
0.480187 0.126969 0.000000
0.545088 0.126969 0.000000
0.604772 0.126969 0.000000
0.660484 0.126969 0.000000
0.713432 0.126969 0.000000
0.764404 0.126969 0.000000
0.813946 0.126969 0.000000
0.862451 0.126969 0.000000
0.910214 0.126969 0.000000
0.957464 0.126969 0.000000
1.004387 0.126969 0.000000
1.051135 0.126969 0.000000
1.097838 0.126969 0.000000
1.144612 0.126969 0.000000
1.191559 0.126969 0.000000
1.238777 0.126969 0.000000
1.286356 0.126969 0.000000
1.334386 0.126969 0.000000
1.382956 0.126969 0.000000
0.000000 0.149723 0.000000
0.052612 0.149723 0.000000
0.072542 0.149723 0.000000
0.089296 0.149723 0.000000
0.106934 0.149723 0.000000
0.126969 0.149723 0.000000
0.149723 0.149723 0.000000
0.175537 0.149723 0.000000
0.204786 0.149723 0.000000
0.237892 0.149723 0.000000
0.275327 0.149723 0.000000
0.317626 0.149723 0.000000
0.365394 0.149723 0.000000
0.419320 0.149723 0.000000
0.480187 0.149723 0.000000
0.545088 0.149723 0.000000
0.604772 0.149723 0.000000
0.660484 0.149723 0.000000
0.713432 0.149723 0.000000
0.764404 0.149723 0.000000
0.813946 0.149723 0.000000
0.862451 0.149723 0.000000
0.910214 0.149723 0.000000
0.957464 0.149723 0.000000
1.004387 0.149723 0.000000
1.051135 0.149723 0.000000
1.097838 0.149723 0.000000
1.144612 0.149723 0.000000
1.191559 0.149723 0.000000
1.238777 0.149723 0.000000
1.286356 0.149723 0.000000
1.334386 0.149723 0.000000
1.382956 0.149723 0.000000
0.000000 0.175537 0.000000
0.052612 0.175537 0.000000
0.072542 0.175537 0.000000
0.089296 0.175537 0.000000
0.106934 0.175537 0.000000
0.126969 0.175537 0.000000
0.149723 0.175537 0.000000
0.175537 0.175537 0.000000
0.204786 0.175537 0.000000
0.237892 0.175537 0.000000
0.275327 0.175537 0.000000
0.317626 0.175537 0.000000
0.365394 0.175537 0.000000
0.419320 0.175537 0.000000
0.480187 0.175537 0.000000
0.545088 0.175537 0.000000
0.604772 0.175537 0.000000
0.660484 0.175537 0.000000
0.713432 0.175537 0.000000
0.764404 0.175537 0.000000
0.813946 0.175537 0.000000
0.862451 0.175537 0.000000
0.910214 0.175537 0.000000
0.957464 0.175537 0.000000
1.004387 0.175537 0.000000
1.051135 0.175537 0.000000
1.097838 0.175537 0.000000
1.144612 0.175537 0.000000
1.191559 0.175537 0.000000
1.238777 0.175537 0.000000
1.286356 0.175537 0.000000
1.334386 0.175537 0.000000
1.382956 0.175537 0.000000
0.000000 0.204786 0.000000
0.052612 0.204786 0.000000
0.072542 0.204786 0.000000
0.089296 0.204786 0.000000
0.106934 0.204786 0.000000
0.126969 0.204786 0.000000
0.149723 0.204786 0.000000
0.175537 0.204786 0.000000
0.204786 0.204786 0.000000
0.237892 0.204786 0.000000
0.275327 0.204786 0.000000
0.317626 0.204786 0.000000
0.365394 0.204786 0.000000
0.419320 0.204786 0.000000
0.480187 0.204786 0.000000
0.545088 0.204786 0.000000
0.604772 0.204786 0.000000
0.660484 0.204786 0.000000
0.713432 0.204786 0.000000
0.764404 0.204786 0.000000
0.813946 0.204786 0.000000
0.862451 0.204786 0.000000
0.910214 0.204786 0.000000
0.957464 0.204786 0.000000
1.004387 0.204786 0.000000
1.051135 0.204786 0.000000
1.097838 0.204786 0.000000
1.144612 0.204786 0.000000
1.191559 0.204786 0.000000
1.238777 0.204786 0.000000
1.286356 0.204786 0.000000
1.334386 0.204786 0.000000
1.382956 0.204786 0.000000
0.000000 0.237892 0.000000
0.052612 0.237892 0.000000
0.072542 0.237892 0.000000
0.089296 0.237892 0.000000
0.106934 0.237892 0.000000
0.126969 0.237892 0.000000
0.149723 0.237892 0.000000
0.175537 0.237892 0.000000
0.204786 0.237892 0.000000
0.237892 0.237892 0.000000
0.275327 0.237892 0.000000
0.317626 0.237892 0.000000
0.365394 0.237892 0.000000
0.419320 0.237892 0.000000
0.480187 0.237892 0.000000
0.545088 0.237892 0.000000
0.604772 0.237892 0.000000
0.660484 0.237892 0.000000
0.713432 0.237892 0.000000
0.764404 0.237892 0.000000
0.813946 0.237892 0.000000
0.862451 0.237892 0.000000
0.910214 0.237892 0.000000
0.957464 0.237892 0.000000
1.004387 0.237892 0.000000
1.051135 0.237892 0.000000
1.097838 0.237892 0.000000
1.144612 0.237892 0.000000
1.191559 0.237892 0.000000
1.238777 0.237892 0.000000
1.286356 0.237892 0.000000
1.334386 0.237892 0.000000
1.382956 0.237892 0.000000
0.000000 0.275327 0.000000
0.052612 0.275327 0.000000
0.072542 0.275327 0.000000
0.089296 0.275327 0.000000
0.106934 0.275327 0.000000
0.126969 0.275327 0.000000
0.149723 0.275327 0.000000
0.175537 0.275327 0.000000
0.204786 0.275327 0.000000
0.237892 0.275327 0.000000
0.275327 0.275327 0.000000
0.317626 0.275327 0.000000
0.365394 0.275327 0.000000
0.419320 0.275327 0.000000
0.480187 0.275327 0.000000
0.545088 0.275327 0.000000
0.604772 0.275327 0.000000
0.660484 0.275327 0.000000
0.713432 0.275327 0.000000
0.764404 0.275327 0.000000
0.813946 0.275327 0.000000
0.862451 0.275327 0.000000
0.910214 0.275327 0.000000
0.957464 0.275327 0.000000
1.004387 0.275327 0.000000
1.051135 0.275327 0.000000
1.097838 0.275327 0.000000
1.144612 0.275327 0.000000
1.191559 0.275327 0.000000
1.238777 0.275327 0.000000
1.286356 0.275327 0.000000
1.334386 0.275327 0.000000
1.382956 0.275327 0.000000
0.000000 0.317626 0.000000
0.052612 0.317626 0.000000
0.072542 0.317626 0.000000
0.089296 0.317626 0.000000
0.106934 0.317626 0.000000
0.126969 0.317626 0.000000
0.149723 0.317626 0.000000
0.175537 0.317626 0.000000
0.204786 0.317626 0.000000
0.237892 0.317626 0.000000
0.275327 0.317626 0.000000
0.317626 0.317626 0.000000
0.365394 0.317626 0.000000
0.419320 0.317626 0.000000
0.480187 0.317626 0.000000
0.545088 0.317626 0.000000
0.604772 0.317626 0.000000
0.660484 0.317626 0.000000
0.713432 0.317626 0.000000
0.764404 0.317626 0.000000
0.813946 0.317626 0.000000
0.862451 0.317626 0.000000
0.910214 0.317626 0.000000
0.957464 0.317626 0.000000
1.004387 0.317626 0.000000
1.051135 0.317626 0.000000
1.097838 0.317626 0.000000
1.144612 0.317626 0.000000
1.191559 0.317626 0.000000
1.238777 0.317626 0.000000
1.286356 0.317626 0.000000
1.334386 0.317626 0.000000
1.382956 0.317626 0.000000
0.000000 0.365394 0.000000
0.052612 0.365394 0.000000
0.072542 0.365394 0.000000
0.089296 0.365394 0.000000
0.106934 0.365394 0.000000
0.126969 0.365394 0.000000
0.149723 0.365394 0.000000
0.175537 0.365394 0.000000
0.204786 0.365394 0.000000
0.237892 0.365394 0.000000
0.275327 0.365394 0.000000
0.317626 0.365394 0.000000
0.365394 0.365394 0.000000
0.419320 0.365394 0.000000
0.480187 0.365394 0.000000
0.545088 0.365394 0.000000
0.604772 0.365394 0.000000
0.660484 0.365394 0.000000
0.713432 0.365394 0.000000
0.764404 0.365394 0.000000
0.813946 0.365394 0.000000
0.862451 0.365394 0.000000
0.910214 0.365394 0.000000
0.957464 0.365394 0.000000
1.004387 0.365394 0.000000
1.051135 0.365394 0.000000
1.097838 0.365394 0.000000
1.144612 0.365394 0.000000
1.191559 0.365394 0.000000
1.238777 0.365394 0.000000
1.286356 0.365394 0.000000
1.334386 0.365394 0.000000
1.382956 0.365394 0.000000
0.000000 0.419320 0.000000
0.052612 0.419320 0.000000
0.072542 0.419320 0.000000
0.089296 0.419320 0.000000
0.106934 0.419320 0.000000
0.126969 0.419320 0.000000
0.149723 0.419320 0.000000
0.175537 0.419320 0.000000
0.204786 0.419320 0.000000
0.237892 0.419320 0.000000
0.275327 0.419320 0.000000
0.317626 0.419320 0.000000
0.365394 0.419320 0.000000
0.419320 0.419320 0.000000
0.480187 0.419320 0.000000
0.545088 0.419320 0.000000
0.604772 0.419320 0.000000
0.660484 0.419320 0.000000
0.713432 0.419320 0.000000
0.764404 0.419320 0.000000
0.813946 0.419320 0.000000
0.862451 0.419320 0.000000
0.910214 0.419320 0.000000
0.957464 0.419320 0.000000
1.004387 0.419320 0.000000
1.051135 0.419320 0.000000
1.097838 0.419320 0.000000
1.144612 0.419320 0.000000
1.191559 0.419320 0.000000
1.238777 0.419320 0.000000
1.286356 0.419320 0.000000
1.334386 0.419320 0.000000
1.382956 0.419320 0.000000
0.000000 0.480187 0.000000
0.052612 0.480187 0.000000
0.072542 0.480187 0.000000
0.089296 0.480187 0.000000
0.106934 0.480187 0.000000
0.126969 0.480187 0.000000
0.149723 0.480187 0.000000
0.175537 0.480187 0.000000
0.204786 0.480187 0.000000
0.237892 0.480187 0.000000
0.275327 0.480187 0.000000
0.317626 0.480187 0.000000
0.365394 0.480187 0.000000
0.419320 0.480187 0.000000
0.480187 0.480187 0.000000
0.545088 0.480187 0.000000
0.604772 0.480187 0.000000
0.660484 0.480187 0.000000
0.713432 0.480187 0.000000
0.764404 0.480187 0.000000
0.813946 0.480187 0.000000
0.862451 0.480187 0.000000
0.910214 0.480187 0.000000
0.957464 0.480187 0.000000
1.004387 0.480187 0.000000
1.051135 0.480187 0.000000
1.097838 0.480187 0.000000
1.144612 0.480187 0.000000
1.191559 0.480187 0.000000
1.238777 0.480187 0.000000
1.286356 0.480187 0.000000
1.334386 0.480187 0.000000
1.382956 0.480187 0.000000
0.000000 0.545088 0.000000
0.052612 0.545088 0.000000
0.072542 0.545088 0.000000
0.089296 0.545088 0.000000
0.106934 0.545088 0.000000
0.126969 0.545088 0.000000
0.149723 0.545088 0.000000
0.175537 0.545088 0.000000
0.204786 0.545088 0.000000
0.237892 0.545088 0.000000
0.275327 0.545088 0.000000
0.317626 0.545088 0.000000
0.365394 0.545088 0.000000
0.419320 0.545088 0.000000
0.480187 0.545088 0.000000
0.545088 0.545088 0.000000
0.604772 0.545088 0.000000
0.660484 0.545088 0.000000
0.713432 0.545088 0.000000
0.764404 0.545088 0.000000
0.813946 0.545088 0.000000
0.862451 0.545088 0.000000
0.910214 0.545088 0.000000
0.957464 0.545088 0.000000
1.004387 0.545088 0.000000
1.051135 0.545088 0.000000
1.097838 0.545088 0.000000
1.144612 0.545088 0.000000
1.191559 0.545088 0.000000
1.238777 0.545088 0.000000
1.286356 0.545088 0.000000
1.334386 0.545088 0.000000
1.382956 0.545088 0.000000
0.000000 0.604772 0.000000
0.052612 0.604772 0.000000
0.072542 0.604772 0.000000
0.089296 0.604772 0.000000
0.106934 0.604772 0.000000
0.126969 0.604772 0.000000
0.149723 0.604772 0.000000
0.175537 0.604772 0.000000
0.204786 0.604772 0.000000
0.237892 0.604772 0.000000
0.275327 0.604772 0.000000
0.317626 0.604772 0.000000
0.365394 0.604772 0.000000
0.419320 0.604772 0.000000
0.480187 0.604772 0.000000
0.545088 0.604772 0.000000
0.604772 0.604772 0.000000
0.660484 0.604772 0.000000
0.713432 0.604772 0.000000
0.764404 0.604772 0.000000
0.813946 0.604772 0.000000
0.862451 0.604772 0.000000
0.910214 0.604772 0.000000
0.957464 0.604772 0.000000
1.004387 0.604772 0.000000
1.051135 0.604772 0.000000
1.097838 0.604772 0.000000
1.144612 0.604772 0.000000
1.191559 0.604772 0.000000
1.238777 0.604772 0.000000
1.286356 0.604772 0.000000
1.334386 0.604772 0.000000
1.382956 0.604772 0.000000
0.000000 0.660484 0.000000
0.052612 0.660484 0.000000
0.072542 0.660484 0.000000
0.089296 0.660484 0.000000
0.106934 0.660484 0.000000
0.126969 0.660484 0.000000
0.149723 0.660484 0.000000
0.175537 0.660484 0.000000
0.204786 0.660484 0.000000
0.237892 0.660484 0.000000
0.275327 0.660484 0.000000
0.317626 0.660484 0.000000
0.365394 0.660484 0.000000
0.419320 0.660484 0.000000
0.480187 0.660484 0.000000
0.545088 0.660484 0.000000
0.604772 0.660484 0.000000
0.660484 0.660484 0.000000
0.713432 0.660484 0.000000
0.764404 0.660484 0.000000
0.813946 0.660484 0.000000
0.862451 0.660484 0.000000
0.910214 0.660484 0.000000
0.957464 0.660484 0.000000
1.004387 0.660484 0.000000
1.051135 0.660484 0.000000
1.097838 0.660484 0.000000
1.144612 0.660484 0.000000
1.191559 0.660484 0.000000
1.238777 0.660484 0.000000
1.286356 0.660484 0.000000
1.334386 0.660484 0.000000
1.382956 0.660484 0.000000
0.000000 0.713432 0.000000
0.052612 0.713432 0.000000
0.072542 0.713432 0.000000
0.089296 0.713432 0.000000
0.106934 0.713432 0.000000
0.126969 0.713432 0.000000
0.149723 0.713432 0.000000
0.175537 0.713432 0.000000
0.204786 0.713432 0.000000
0.237892 0.713432 0.000000
0.275327 0.713432 0.000000
0.317626 0.713432 0.000000
0.365394 0.713432 0.000000
0.419320 0.713432 0.000000
0.480187 0.713432 0.000000
0.545088 0.713432 0.000000
0.604772 0.713432 0.000000
0.660484 0.713432 0.000000
0.713432 0.713432 0.000000
0.764404 0.713432 0.000000
0.813946 0.713432 0.000000
0.862451 0.713432 0.000000
0.910214 0.713432 0.000000
0.957464 0.713432 0.000000
1.004387 0.713432 0.000000
1.051135 0.713432 0.000000
1.097838 0.713432 0.000000
1.144612 0.713432 0.000000
1.191559 0.713432 0.000000
1.238777 0.713432 0.000000
1.286356 0.713432 0.000000
1.334386 0.713432 0.000000
1.382956 0.713432 0.000000
0.000000 0.764404 0.000000
0.052612 0.764404 0.000000
0.072542 0.764404 0.000000
0.089296 0.764404 0.000000
0.106934 0.764404 0.000000
0.126969 0.764404 0.000000
0.149723 0.764404 0.000000
0.175537 0.764404 0.000000
0.204786 0.764404 0.000000
0.237892 0.764404 0.000000
0.275327 0.764404 0.000000
0.317626 0.764404 0.000000
0.365394 0.764404 0.000000
0.419320 0.764404 0.000000
0.480187 0.764404 0.000000
0.545088 0.764404 0.000000
0.604772 0.764404 0.000000
0.660484 0.764404 0.000000
0.713432 0.764404 0.000000
0.764404 0.764404 0.000000
0.813946 0.764404 0.000000
0.862451 0.764404 0.000000
0.910214 0.764404 0.000000
0.957464 0.764404 0.000000
1.004387 0.764404 0.000000
1.051135 0.764404 0.000000
1.097838 0.764404 0.000000
1.144612 0.764404 0.000000
1.191559 0.764404 0.000000
1.238777 0.764404 0.000000
1.286356 0.764404 0.000000
1.334386 0.764404 0.000000
1.382956 0.764404 0.000000
0.000000 0.813946 0.000000
0.052612 0.813946 0.000000
0.072542 0.813946 0.000000
0.089296 0.813946 0.000000
0.106934 0.813946 0.000000
0.126969 0.813946 0.000000
0.149723 0.813946 0.000000
0.175537 0.813946 0.000000
0.204786 0.813946 0.000000
0.237892 0.813946 0.000000
0.275327 0.813946 0.000000
0.317626 0.813946 0.000000
0.365394 0.813946 0.000000
0.419320 0.813946 0.000000
0.480187 0.813946 0.000000
0.545088 0.813946 0.000000
0.604772 0.813946 0.000000
0.660484 0.813946 0.000000
0.713432 0.813946 0.000000
0.764404 0.813946 0.000000
0.813946 0.813946 0.000000
0.862451 0.813946 0.000000
0.910214 0.813946 0.000000
0.957464 0.813946 0.000000
1.004387 0.813946 0.000000
1.051135 0.813946 0.000000
1.097838 0.813946 0.000000
1.144612 0.813946 0.000000
1.191559 0.813946 0.000000
1.238777 0.813946 0.000000
1.286356 0.813946 0.000000
1.334386 0.813946 0.000000
1.382956 0.813946 0.000000
0.000000 0.862451 0.000000
0.052612 0.862451 0.000000
0.072542 0.862451 0.000000
0.089296 0.862451 0.000000
0.106934 0.862451 0.000000
0.126969 0.862451 0.000000
0.149723 0.862451 0.000000
0.175537 0.862451 0.000000
0.204786 0.862451 0.000000
0.237892 0.862451 0.000000
0.275327 0.862451 0.000000
0.317626 0.862451 0.000000
0.365394 0.862451 0.000000
0.419320 0.862451 0.000000
0.480187 0.862451 0.000000
0.545088 0.862451 0.000000
0.604772 0.862451 0.000000
0.660484 0.862451 0.000000
0.713432 0.862451 0.000000
0.764404 0.862451 0.000000
0.813946 0.862451 0.000000
0.862451 0.862451 0.000000
0.910214 0.862451 0.000000
0.957464 0.862451 0.000000
1.004387 0.862451 0.000000
1.051135 0.862451 0.000000
1.097838 0.862451 0.000000
1.144612 0.862451 0.000000
1.191559 0.862451 0.000000
1.238777 0.862451 0.000000
1.286356 0.862451 0.000000
1.334386 0.862451 0.000000
1.382956 0.862451 0.000000
0.000000 0.910214 0.000000
0.052612 0.910214 0.000000
0.072542 0.910214 0.000000
0.089296 0.910214 0.000000
0.106934 0.910214 0.000000
0.126969 0.910214 0.000000
0.149723 0.910214 0.000000
0.175537 0.910214 0.000000
0.204786 0.910214 0.000000
0.237892 0.910214 0.000000
0.275327 0.910214 0.000000
0.317626 0.910214 0.000000
0.365394 0.910214 0.000000
0.419320 0.910214 0.000000
0.480187 0.910214 0.000000
0.545088 0.910214 0.000000
0.604772 0.910214 0.000000
0.660484 0.910214 0.000000
0.713432 0.910214 0.000000
0.764404 0.910214 0.000000
0.813946 0.910214 0.000000
0.862451 0.910214 0.000000
0.910214 0.910214 0.000000
0.957464 0.910214 0.000000
1.004387 0.910214 0.000000
1.051135 0.910214 0.000000
1.097838 0.910214 0.000000
1.144612 0.910214 0.000000
1.191559 0.910214 0.000000
1.238777 0.910214 0.000000
1.286356 0.910214 0.000000
1.334386 0.910214 0.000000
1.382956 0.910214 0.000000
0.000000 0.957464 0.000000
0.052612 0.957464 0.000000
0.072542 0.957464 0.000000
0.089296 0.957464 0.000000
0.106934 0.957464 0.000000
0.126969 0.957464 0.000000
0.149723 0.957464 0.000000
0.175537 0.957464 0.000000
0.204786 0.957464 0.000000
0.237892 0.957464 0.000000
0.275327 0.957464 0.000000
0.317626 0.957464 0.000000
0.365394 0.957464 0.000000
0.419320 0.957464 0.000000
0.480187 0.957464 0.000000
0.545088 0.957464 0.000000
0.604772 0.957464 0.000000
0.660484 0.957464 0.000000
0.713432 0.957464 0.000000
0.764404 0.957464 0.000000
0.813946 0.957464 0.000000
0.862451 0.957464 0.000000
0.910214 0.957464 0.000000
0.957464 0.957464 0.000000
1.004387 0.957464 0.000000
1.051135 0.957464 0.000000
1.097838 0.957464 0.000000
1.144612 0.957464 0.000000
1.191559 0.957464 0.000000
1.238777 0.957464 0.000000
1.286356 0.957464 0.000000
1.334386 0.957464 0.000000
1.382956 0.957464 0.000000
0.000000 1.004387 0.000000
0.052612 1.004387 0.000000
0.072542 1.004387 0.000000
0.089296 1.004387 0.000000
0.106934 1.004387 0.000000
0.126969 1.004387 0.000000
0.149723 1.004387 0.000000
0.175537 1.004387 0.000000
0.204786 1.004387 0.000000
0.237892 1.004387 0.000000
0.275327 1.004387 0.000000
0.317626 1.004387 0.000000
0.365394 1.004387 0.000000
0.419320 1.004387 0.000000
0.480187 1.004387 0.000000
0.545088 1.004387 0.000000
0.604772 1.004387 0.000000
0.660484 1.004387 0.000000
0.713432 1.004387 0.000000
0.764404 1.004387 0.000000
0.813946 1.004387 0.000000
0.862451 1.004387 0.000000
0.910214 1.004387 0.000000
0.957464 1.004387 0.000000
1.004387 1.004387 0.000000
1.051135 1.004387 0.000000
1.097838 1.004387 0.000000
1.144612 1.004387 0.000000
1.191559 1.004387 0.000000
1.238777 1.004387 0.000000
1.286356 1.004387 0.000000
1.334386 1.004387 0.000000
1.382956 1.004387 0.000000
0.000000 1.051135 0.000000
0.052612 1.051135 0.000000
0.072542 1.051135 0.000000
0.089296 1.051135 0.000000
0.106934 1.051135 0.000000
0.126969 1.051135 0.000000
0.149723 1.051135 0.000000
0.175537 1.051135 0.000000
0.204786 1.051135 0.000000
0.237892 1.051135 0.000000
0.275327 1.051135 0.000000
0.317626 1.051135 0.000000
0.365394 1.051135 0.000000
0.419320 1.051135 0.000000
0.480187 1.051135 0.000000
0.545088 1.051135 0.000000
0.604772 1.051135 0.000000
0.660484 1.051135 0.000000
0.713432 1.051135 0.000000
0.764404 1.051135 0.000000
0.813946 1.051135 0.000000
0.862451 1.051135 0.000000
0.910214 1.051135 0.000000
0.957464 1.051135 0.000000
1.004387 1.051135 0.000000
1.051135 1.051135 0.000000
1.097838 1.051135 0.000000
1.144612 1.051135 0.000000
1.191559 1.051135 0.000000
1.238777 1.051135 0.000000
1.286356 1.051135 0.000000
1.334386 1.051135 0.000000
1.382956 1.051135 0.000000
0.000000 1.097838 0.000000
0.052612 1.097838 0.000000
0.072542 1.097838 0.000000
0.089296 1.097838 0.000000
0.106934 1.097838 0.000000
0.126969 1.097838 0.000000
0.149723 1.097838 0.000000
0.175537 1.097838 0.000000
0.204786 1.097838 0.000000
0.237892 1.097838 0.000000
0.275327 1.097838 0.000000
0.317626 1.097838 0.000000
0.365394 1.097838 0.000000
0.419320 1.097838 0.000000
0.480187 1.097838 0.000000
0.545088 1.097838 0.000000
0.604772 1.097838 0.000000
0.660484 1.097838 0.000000
0.713432 1.097838 0.000000
0.764404 1.097838 0.000000
0.813946 1.097838 0.000000
0.862451 1.097838 0.000000
0.910214 1.097838 0.000000
0.957464 1.097838 0.000000
1.004387 1.097838 0.000000
1.051135 1.097838 0.000000
1.097838 1.097838 0.000000
1.144612 1.097838 0.000000
