Slog3_to_BT601_PAL.cube
TITLE "Slog3_to_BT601_PAL"
LUT_3D_SIZE 9
# Slog3 to BT601 PAL SDR by Francesco Bucciantini
0.00000000 0.00000000 0.00000000
0.09823203 0.00000000 0.00000000
0.25656904 0.00000000 0.00000000
0.50244192 0.00000000 0.00000000
0.73602069 0.00000000 0.00000000
0.89766445 0.00000000 0.00000000
0.98067116 0.00000000 0.00000000
0.99238550 0.00000000 0.00000000
0.99644735 0.00000000 0.00000000
0.00000000 0.05739314 0.00000000
0.03252905 0.04070554 0.00000000
0.22598186 0.01428884 0.00000000
0.48917594 0.00000000 0.00000000
0.73291201 0.00000000 0.00000000
0.89704045 0.00000000 0.00000000
0.98060441 0.00000000 0.00000000
0.99238335 0.00000000 0.00000000
0.99644665 0.00000000 0.00000000
0.00000000 0.20524421 0.00000000
0.00000000 0.19626993 0.00000000
0.16866352 0.18133945 0.00000000
0.46615646 0.12688761 0.00000000
0.72783936 0.00000000 0.00000000
0.89604124 0.00000000 0.00000000
0.98049801 0.00000000 0.00000000
0.99237995 0.00000000 0.00000000
0.99644555 0.00000000 0.00000000
0.00000000 0.43067087 0.00000000
0.00000000 0.42617220 0.00000000
0.00000000 0.41895285 0.00000000
0.37726052 0.39560485 0.00000000
0.71069569 0.31326341 0.00000000
0.89283209 0.00000000 0.00000000
0.98016038 0.00000000 0.00000000
0.99236932 0.00000000 0.00000000
0.99644211 0.00000000 0.00000000
0.00000000 0.68349318 0.00000000
0.00000000 0.68236923 0.00000000
0.00000000 0.68057255 0.00000000
0.00000000 0.67482717 0.00000000
0.63988817 0.65561638 0.00000000
0.88195718 0.57592184 0.00000000
0.97906217 0.00000000 0.00000000
0.99233635 0.00000000 0.00000000
0.99643149 0.00000000 0.00000000
0.00000000 0.86411244 0.00000000
0.00000000 0.86387231 0.00000000
0.00000000 0.86349081 0.00000000
0.00000000 0.86229013 0.00000000
0.00000000 0.85848082 0.00000000
0.83498559 0.84560447 0.00000000
0.97506727 0.79027392 0.00000000
0.99223276 0.00000000 0.00000000
0.99639853 0.00000000 0.00000000
0.00000000 0.96770135 0.00000000
0.00000000 0.96766742 0.00000000
0.00000000 0.96761360 0.00000000
0.00000000 0.96744503 0.00000000
0.00000000 0.96691813 0.00000000
0.00000000 0.96522329 0.00000000
0.95407885 0.95925018 0.00000000
0.99189324 0.93019155 0.00000000
0.99629497 0.00000000 0.00000000
0.00000000 0.99136744 0.00000000
0.00000000 0.99136673 0.00000000
0.00000000 0.99136559 0.00000000
0.00000000 0.99136206 0.00000000
0.00000000 0.99135114 0.00000000
0.00000000 0.99131726 0.00000000
0.00000000 0.99121076 0.00000000
0.99058439 0.99086109 0.00000000
0.99595556 0.98882265 0.00000000
0.00000000 0.99542979 0.00000000
0.00000000 0.99542956 0.00000000
0.00000000 0.99542919 0.00000000
0.00000000 0.99542805 0.00000000
0.00000000 0.99542451 0.00000000
0.00000000 0.99541360 0.00000000
0.00000000 0.99537973 0.00000000
0.00000000 0.99527328 0.00000000
0.99464723 0.99492375 0.00000000
0.00000000 0.00000000 0.04226547
0.09064072 0.00000000 0.03996217
0.25293908 0.00000000 0.03631600
0.50083964 0.00000000 0.02494469
0.73563777 0.00000000 0.00000000
0.89758710 0.00000000 0.00000000
0.98066288 0.00000000 0.00000000
0.99238523 0.00000000 0.00000000
0.99644726 0.00000000 0.00000000
0.00000000 0.04095229 0.02656799
0.02426469 0.02426469 0.02426469
0.22192439 0.00000000 0.02061852
0.48746034 0.00000000 0.00924721
0.73252009 0.00000000 0.00000000
0.89696241 0.00000000 0.00000000
0.98059608 0.00000000 0.00000000
0.99238309 0.00000000 0.00000000
0.99644657 0.00000000 0.00000000
0.00000000 0.19640506 0.00171866
0.00000000 0.18708974 0.00000000
0.16349848 0.17153459 0.00000000
0.46422914 0.11394169 0.00000000
0.72743245 0.00000000 0.00000000
0.89596209 0.00000000 0.00000000
0.98048960 0.00000000 0.00000000
0.99237969 0.00000000 0.00000000
0.99644547 0.00000000 0.00000000
0.00000000 0.42623906 0.00000000
0.00000000 0.42169351 0.00000000
0.00000000 0.41439699 0.00000000
0.37472847 0.39078195 0.00000000
0.71023516 0.30722008 0.00000000
0.89274933 0.00000000 0.00000000
0.98015175 0.00000000 0.00000000
0.99236906 0.00000000 0.00000000
0.99644203 0.00000000 0.00000000
0.00000000 0.68238591 0.00000000
0.00000000 0.68125357 0.00000000
0.00000000 0.67944338 0.00000000
0.00000000 0.67365401 0.00000000
0.63915184 0.65428704 0.00000000
0.88186156 0.57377451 0.00000000
0.97905283 0.00000000 0.00000000
0.99233608 0.00000000 0.00000000
0.99643140 0.00000000 0.00000000
0.00000000 0.86387587 0.00000000
0.00000000 0.86363508 0.00000000
0.00000000 0.86325253 0.00000000
0.00000000 0.86204853 0.00000000
0.00000000 0.85822850 0.00000000
0.83482267 0.84531397 0.00000000
0.97505532 0.78978097 0.00000000
0.99223248 0.00000000 0.00000000
0.99639844 0.00000000 0.00000000
0.00000000 0.96766792 0.00000000
0.00000000 0.96763394 0.00000000
0.00000000 0.96758005 0.00000000
0.00000000 0.96741125 0.00000000
0.00000000 0.96688365 0.00000000
0.00000000 0.96518653 0.00000000
0.95405254 0.95920521 0.00000000
0.99189294 0.93010125 0.00000000
0.99629488 0.00000000 0.00000000
0.00000000 0.99136674 0.00000000
0.00000000 0.99136602 0.00000000
0.00000000 0.99136489 0.00000000
0.00000000 0.99136135 0.00000000
0.00000000 0.99135043 0.00000000
0.00000000 0.99131655 0.00000000
0.00000000 0.99121003 0.00000000
0.99058395 0.99086028 0.00000000
0.99595546 0.98881824 0.00000000
0.00000000 0.99542956 0.00000000
0.00000000 0.99542933 0.00000000
0.00000000 0.99542896 0.00000000
0.00000000 0.99542782 0.00000000
0.00000000 0.99542428 0.00000000
0.00000000 0.99541337 0.00000000
0.00000000 0.99537950 0.00000000
0.00000000 0.99527304 0.00000000
0.99464709 0.99492348 0.00000000
0.00000000 0.00000000 0.18367926
0.07759709 0.00000000 0.18234465
0.24709737 0.00000000 0.18021599
0.49827581 0.00000000 0.17344626
0.73502935 0.00000000 0.15114764
0.89746448 0.00000000 0.05969059
0.98064975 0.00000000 0.00000000
0.99238481 0.00000000 0.00000000
0.99644713 0.00000000 0.00000000
0.00000000 0.01492619 0.17442521
0.01118208 0.00000000 0.17303489
0.21537000 0.00000000 0.17081605
0.48471352 0.00000000 0.16374844
0.73189734 0.00000000 0.14033167
0.89683870 0.00000000 0.04399311
0.98058288 0.00000000 0.00000000
0.99238266 0.00000000 0.00000000
0.99644643 0.00000000 0.00000000
0.00000000 0.18171114 0.15893841
0.00000000 0.17177258 0.15744474
0.15505826 0.15505826 0.15505826
0.46113997 0.09121273 0.14743323
0.72678581 0.00000000 0.12187019
0.89583662 0.00000000 0.01914378
0.98047629 0.00000000 0.00000000
0.99237926 0.00000000 0.00000000
0.99644533 0.00000000 0.00000000
0.00000000 0.41912848 0.10106169
0.00000000 0.41450581 0.09901851
0.00000000 0.40708225 0.09573038
0.37068602 0.38302629 0.08501061
0.70950306 0.29742219 0.04974514
0.89261812 0.00000000 0.00000000
0.98013809 0.00000000 0.00000000
0.99236863 0.00000000 0.00000000
0.99644189 0.00000000 0.00000000
0.00000000 0.68061615 0.00000000
0.00000000 0.67947031 0.00000000
0.00000000 0.67763837 0.00000000
0.00000000 0.67177816 0.00000000
0.63797930 0.65215941 0.00000000
0.88170996 0.57032121 0.00000000
0.97903802 0.00000000 0.00000000
0.99233566 0.00000000 0.00000000
0.99643126 0.00000000 0.00000000
0.00000000 0.86350004 0.00000000
0.00000000 0.86325820 0.00000000
0.00000000 0.86287398 0.00000000
0.00000000 0.86166469 0.00000000
0.00000000 0.85782760 0.00000000
0.83456421 0.84485226 0.00000000
0.97503639 0.78899630 0.00000000
0.99223204 0.00000000 0.00000000
0.99639830 0.00000000 0.00000000
0.00000000 0.96761490 0.00000000
0.00000000 0.96758085 0.00000000
0.00000000 0.96752685 0.00000000
0.00000000 0.96735769 0.00000000
0.00000000 0.96682898 0.00000000
0.00000000 0.96512825 0.00000000
0.95401087 0.95913390 0.00000000
0.99189245 0.92995799 0.00000000
0.99629473 0.00000000 0.00000000
0.00000000 0.99136562 0.00000000
0.00000000 0.99136491 0.00000000
0.00000000 0.99136377 0.00000000
0.00000000 0.99136024 0.00000000
0.00000000 0.99134931 0.00000000
0.00000000 0.99131542 0.00000000
0.00000000 0.99120886 0.00000000
0.99058325 0.99085900 0.00000000
0.99595530 0.98881124 0.00000000
0.00000000 0.99542920 0.00000000
0.00000000 0.99542897 0.00000000
0.00000000 0.99542860 0.00000000
0.00000000 0.99542746 0.00000000
0.00000000 0.99542392 0.00000000
0.00000000 0.99541300 0.00000000
0.00000000 0.99537913 0.00000000
0.00000000 0.99527266 0.00000000
0.99464686 0.99492307 0.00000000
0.00000000 0.00000000 0.39901118
0.03679631 0.00000000 0.39834460
0.22805287 0.00000000 0.39728715
0.49005595 0.00000000 0.39397146
0.73311393 0.00000000 0.38357254
0.89708071 0.00000000 0.34963670
0.98060871 0.00000000 0.21659509
0.99238349 0.00000000 0.00000000
0.99644670 0.00000000 0.00000000
0.00000000 0.00000000 0.39444646
0.00000000 0.00000000 0.39377232
0.19376529 0.00000000 0.39270284
0.47589313 0.00000000 0.38934903
0.72993650 0.00000000 0.37882675
0.89645150 0.00000000 0.34444298
0.98054162 0.00000000 0.20854275
0.99238134 0.00000000 0.00000000
0.99644600 0.00000000 0.00000000
0.00000000 0.12829242 0.38711302
0.00000000 0.11525085 0.38642641
0.12621623 0.09235079 0.38533707
0.45119131 0.01012092 0.38192033
0.72474925 0.00000000 0.37119404
0.89544390 0.00000000 0.33606578
0.98043469 0.00000000 0.19524098
0.99237794 0.00000000 0.00000000
0.99644490 0.00000000 0.00000000
0.00000000 0.39614557 0.36332218
0.00000000 0.39125645 0.36259207
0.00000000 0.38339271 0.36143340
0.35779675 0.35779675 0.35779675
0.70719526 0.26476966 0.34635472
0.89220742 0.00000000 0.30857540
0.98009538 0.00000000 0.14803556
0.99236731 0.00000000 0.00000000
0.99644146 0.00000000 0.00000000
0.00000000 0.67495901 0.27821545
0.00000000 0.67376921 0.27727872
0.00000000 0.67186648 0.27578999
0.00000000 0.66577546 0.27109999
0.63426689 0.64533392 0.25616011
0.88123528 0.55910188 0.20434020
0.97899175 0.00000000 0.00000000
0.99233432 0.00000000 0.00000000
0.99643083 0.00000000 0.00000000
0.00000000 0.86231736 0.00000000
0.00000000 0.86207220 0.00000000
0.00000000 0.86168269 0.00000000
0.00000000 0.86045667 0.00000000
0.00000000 0.85656563 0.00000000
0.83375379 0.84339770 0.00000000
0.97497722 0.78651452 0.00000000
0.99223067 0.00000000 0.00000000
0.99639787 0.00000000 0.00000000
0.00000000 0.96744884 0.00000000
0.00000000 0.96741456 0.00000000
0.00000000 0.96736020 0.00000000
0.00000000 0.96718993 0.00000000
0.00000000 0.96665772 0.00000000
0.00000000 0.96494568 0.00000000
0.95388058 0.95891049 0.00000000
0.99189094 0.92950867 0.00000000
0.99629429 0.00000000 0.00000000
0.00000000 0.99136214 0.00000000
0.00000000 0.99136142 0.00000000
0.00000000 0.99136029 0.00000000
0.00000000 0.99135675 0.00000000
0.00000000 0.99134581 0.00000000
0.00000000 0.99131189 0.00000000
0.00000000 0.99120523 0.00000000
0.99058108 0.99085499 0.00000000
0.99595481 0.98878928 0.00000000
0.00000000 0.99542807 0.00000000
0.00000000 0.99542784 0.00000000
0.00000000 0.99542747 0.00000000
0.00000000 0.99542633 0.00000000
0.00000000 0.99542279 0.00000000
0.00000000 0.99541187 0.00000000
0.00000000 0.99537799 0.00000000
0.00000000 0.99527148 0.00000000
0.99464616 0.99492177 0.00000000
0.00000000 0.00000000 0.65844694
0.00000000 0.00000000 0.65826471
0.15829284 0.00000000 0.65797580
0.46231484 0.00000000 0.65707133
0.72703094 0.00000000 0.65424930
0.89588414 0.00000000 0.64521617
0.98048133 0.00000000 0.61368152
0.99237942 0.00000000 0.45038045
0.99644538 0.00000000 0.00000000
0.00000000 0.00000000 0.65720077
0.00000000 0.00000000 0.65701708
0.10972229 0.00000000 0.65672585
0.44596143 0.00000000 0.65581411
0.72370622 0.00000000 0.65296918
0.89524419 0.00000000 0.64386065
0.98041357 0.00000000 0.61203678
0.99237727 0.00000000 0.44640359
0.99644468 0.00000000 0.00000000
0.00000000 0.00000000 0.65520754
0.00000000 0.00000000 0.65502150
0.00707561 0.00000000 0.65472654
0.41786803 0.00000000 0.65380307
0.71827310 0.00000000 0.65092121
0.89421930 0.00000000 0.64169110
0.98030556 0.00000000 0.60939977
0.99237386 0.00000000 0.43995183
0.99644358 0.00000000 0.00000000
0.00000000 0.31530147 0.64882389
0.00000000 0.30920409 0.64863016
0.00000000 0.29931758 0.64832300
0.31492840 0.26635980 0.64736121
0.69983546 0.12810787 0.64435869
0.89092642 0.00000000 0.63473065
0.97996283 0.00000000 0.60090144
0.99236322 0.00000000 0.41911389
0.99644014 0.00000000 0.00000000
0.00000000 0.65606754 0.62736563
0.00000000 0.65472205 0.62714433
0.00000000 0.65256828 0.62679341
0.00000000 0.64565632 0.62569416
0.62225800 0.62225800 0.62225800
0.87975337 0.51941457 0.61119274
0.97884812 0.00000000 0.57170460
0.99233019 0.00000000 0.34725594
0.99642951 0.00000000 0.00000000
0.00000000 0.85856677 0.53611890
0.00000000 0.85831091 0.53574615
0.00000000 0.85790436 0.53515456
0.00000000 0.85662442 0.53329742
0.00000000 0.85255931 0.52745242
0.83121260 0.83876829 0.50820058
0.97479358 0.77851472 0.43319586
0.99222642 0.00000000 0.00000000
0.99639653 0.00000000 0.00000000
0.00000000 0.96692989 0.00000000
0.00000000 0.96689491 0.00000000
0.00000000 0.96683944 0.00000000
0.00000000 0.96666567 0.00000000
0.00000000 0.96612252 0.00000000
0.00000000 0.96437503 0.00000000
0.95347590 0.95821182 0.00000000
0.99188627 0.92809870 0.00000000
0.99629291 0.00000000 0.00000000
0.00000000 0.99135138 0.00000000
0.00000000 0.99135066 0.00000000
0.00000000 0.99134953 0.00000000
0.00000000 0.99134598 0.00000000
0.00000000 0.99133501 0.00000000
0.00000000 0.99130098 0.00000000
0.00000000 0.99119399 0.00000000
0.99057437 0.99084261 0.00000000
0.99595330 0.98872015 0.00000000
0.00000000 0.99542459 0.00000000
0.00000000 0.99542436 0.00000000
0.00000000 0.99542399 0.00000000
0.00000000 0.99542284 0.00000000
0.00000000 0.99541931 0.00000000
0.00000000 0.99540837 0.00000000
0.00000000 0.99537446 0.00000000
0.00000000 0.99526785 0.00000000
0.99464398 0.99491776 0.00000000
0.00000000 0.00000000 0.84750265
0.00000000 0.00000000 0.84746282
0.00000000 0.00000000 0.84739973
0.35319737 0.00000000 0.84720271
0.70638182 0.00000000 0.84659262
0.89206370 0.00000000 0.84468626
0.98008046 0.00000000 0.83855593
0.99236684 0.00000000 0.81684262
0.99644131 0.00000000 0.69881408
0.00000000 0.00000000 0.84723086
0.00000000 0.00000000 0.84719092
0.00000000 0.00000000 0.84712765
0.33091999 0.00000000 0.84693005
0.70252114 0.00000000 0.84631818
0.89138885 0.00000000 0.84440620
0.98001057 0.00000000 0.83825735
0.99236469 0.00000000 0.81647265
0.99644061 0.00000000 0.69786197
0.00000000 0.00000000 0.84679900
0.00000000 0.00000000 0.84675887
0.00000000 0.00000000 0.84669530
0.29244345 0.00000000 0.84649679
0.69618960 0.00000000 0.84588208
0.89030773 0.00000000 0.84396116
0.97989917 0.00000000 0.83778282
0.99236127 0.00000000 0.81588432
0.99643951 0.00000000 0.69634188
0.00000000 0.00000000 0.84543923
0.00000000 0.00000000 0.84539852
0.00000000 0.00000000 0.84533403
0.12087881 0.00000000 0.84513262
0.67448422 0.00000000 0.84450892
0.88683134 0.00000000 0.84255966
0.97954570 0.00000000 0.83628789
0.99235058 0.00000000 0.81402830
0.99643606 0.00000000 0.69149672
0.00000000 0.57813974 0.84111944
0.00000000 0.57598731 0.84107684
0.00000000 0.57252553 0.84100935
0.00000000 0.56127611 0.84079858
0.57868187 0.52144992 0.84014579
0.87500244 0.31770316 0.83810491
0.97839619 0.00000000 0.83153041
0.99231744 0.00000000 0.80809478
0.99642542 0.00000000 0.67547280
0.00000000 0.84590729 0.82644941
0.00000000 0.84561337 0.82639999
0.00000000 0.84514621 0.82632172
0.00000000 0.84367425 0.82607723
0.00000000 0.83898749 0.82531971
0.82294826 0.82294826 0.82294826
0.97421576 0.74990893 0.81527634
0.99221330 0.00000000 0.78749802
0.99639241 0.00000000 0.61207855
0.00000000 0.96526167 0.76196519
0.00000000 0.96522441 0.76187796
0.00000000 0.96516534 0.76173975
0.00000000 0.96498027 0.76130774
0.00000000 0.96440170 0.75996630
0.00000000 0.96253946 0.75573821
0.95219934 0.95596044 0.74174865
0.99187185 0.92350402 0.68640510
0.99628867 0.00000000 0.00000000
0.00000000 0.99131801 0.00000000
0.00000000 0.99131729 0.00000000
0.00000000 0.99131614 0.00000000
0.00000000 0.99131255 0.00000000
0.00000000 0.99130148 0.00000000
0.00000000 0.99126713 0.00000000
0.00000000 0.99115912 0.00000000
0.99055360 0.99080415 0.00000000
0.99594863 0.98849340 0.00000000
0.00000000 0.99541384 0.00000000
0.00000000 0.99541360 0.00000000
0.00000000 0.99541324 0.00000000
0.00000000 0.99541209 0.00000000
0.00000000 0.99540854 0.00000000
0.00000000 0.99539757 0.00000000
0.00000000 0.99536356 0.00000000
0.00000000 0.99525661 0.00000000
0.99463728 0.99490539 0.00000000
0.00000000 0.00000000 0.96015128
0.00000000 0.00000000 0.96014516
0.00000000 0.00000000 0.96013547
0.00000000 0.00000000 0.96010524
0.61483054 0.00000000 0.96001182
0.87887633 0.00000000 0.95972205
0.97876372 0.00000000 0.95881166
0.99232778 0.00000000 0.95583507
0.99642874 0.00000000 0.94474592
0.00000000 0.00000000 0.96010956
0.00000000 0.00000000 0.96010343
0.00000000 0.00000000 0.96009373
0.00000000 0.00000000 0.96006345
0.60780827 0.00000000 0.95996991
0.87807373 0.00000000 0.95967975
0.97868687 0.00000000 0.95876814
0.99232560 0.00000000 0.95578752
0.99642804 0.00000000 0.94468255
0.00000000 0.00000000 0.96004338
0.00000000 0.00000000 0.96003724
0.00000000 0.00000000 0.96002752
0.00000000 0.00000000 0.95999718
0.59606056 0.00000000 0.95990344
0.87678651 0.00000000 0.95961267
0.97856439 0.00000000 0.95869913
0.99232215 0.00000000 0.95571210
0.99642693 0.00000000 0.94458204
0.00000000 0.00000000 0.95983612
0.00000000 0.00000000 0.95982994
0.00000000 0.00000000 0.95982015
0.00000000 0.00000000 0.95978961
0.55332578 0.00000000 0.95969525
0.87263520 0.00000000 0.95940256
0.97817580 0.00000000 0.95848297
0.99231135 0.00000000 0.95547586
0.99642347 0.00000000 0.94426704
0.00000000 0.00000000 0.95918842
0.00000000 0.00000000 0.95918211
0.00000000 0.00000000 0.95917213
0.00000000 0.00000000 0.95914096
0.30713063 0.00000000 0.95904466
0.85836490 0.00000000 0.95874595
0.97691241 0.00000000 0.95780737
0.99227784 0.00000000 0.95473729
0.99641279 0.00000000 0.94328112
0.00000000 0.79184582 0.95710608
0.00000000 0.79135224 0.95709936
0.00000000 0.79056656 0.95708872
0.00000000 0.78808134 0.95705551
0.00000000 0.78006824 0.95695293
0.79244834 0.75138662 0.95663469
0.97231861 0.58168478 0.95563444
0.99217253 0.00000000 0.95235962
0.99637966 0.00000000 0.94009483
0.00000000 0.95939443 0.94977244
0.00000000 0.95934899 0.94976422
0.00000000 0.95927693 0.94975120
0.00000000 0.95905116 0.94971059
0.00000000 0.95834498 0.94958511
0.00000000 0.95606797 0.94919568
0.94797041 0.94797041 0.94797041
0.99182701 0.90650875 0.94394466
0.99627555 0.00000000 0.92865835
0.00000000 0.99121313 0.91376569
0.00000000 0.99121239 0.91374881
0.00000000 0.99121120 0.91372208
0.00000000 0.99120751 0.91363865
0.00000000 0.99119612 0.91338070
0.00000000 0.99116074 0.91257856
0.00000000 0.99104945 0.91003867
0.99048879 0.99068294 0.90151463
0.99593421 0.98765643 0.86623893
0.00000000 0.99538048 0.00000000
0.00000000 0.99538024 0.00000000
0.00000000 0.99537987 0.00000000
0.00000000 0.99537871 0.00000000
0.00000000 0.99537513 0.00000000
0.00000000 0.99536406 0.00000000
0.00000000 0.99532973 0.00000000
0.00000000 0.99522176 0.00000000
0.99461651 0.99486695 0.00000000
0.00000000 0.00000000 0.99091156
0.00000000 0.00000000 0.99091144
0.00000000 0.00000000 0.99091127
0.00000000 0.00000000 0.99091071
0.00000000 0.00000000 0.99090901
0.81711455 0.00000000 0.99090374
0.97382515 0.00000000 0.99088746
0.99220462 0.00000000 0.99083680
0.99638968 0.00000000 0.99067595
0.00000000 0.00000000 0.99091079
0.00000000 0.00000000 0.99091068
0.00000000 0.00000000 0.99091050
0.00000000 0.00000000 0.99090995
0.00000000 0.00000000 0.99090824
0.81554438 0.00000000 0.99090298
0.97372237 0.00000000 0.99088669
0.99220236 0.00000000 0.99083602
0.99638898 0.00000000 0.99067513
0.00000000 0.00000000 0.99090958
0.00000000 0.00000000 0.99090947
0.00000000 0.00000000 0.99090929
0.00000000 0.00000000 0.99090874
0.00000000 0.00000000 0.99090703
0.81301037 0.00000000 0.99090177
0.97355856 0.00000000 0.99088548
0.99219879 0.00000000 0.99083478
0.99638786 0.00000000 0.99067384
0.00000000 0.00000000 0.99090581
0.00000000 0.00000000 0.99090570
0.00000000 0.00000000 0.99090552
0.00000000 0.00000000 0.99090497
0.00000000 0.00000000 0.99090326
0.80470194 0.00000000 0.99089798
0.97303886 0.00000000 0.99088168
0.99218761 0.00000000 0.99083093
0.99638436 0.00000000 0.99066981
0.00000000 0.00000000 0.99089415
0.00000000 0.00000000 0.99089404
0.00000000 0.00000000 0.99089386
0.00000000 0.00000000 0.99089331
0.00000000 0.00000000 0.99089159
0.77438030 0.00000000 0.99088630
0.97134883 0.00000000 0.99086994
0.99215293 0.00000000 0.99081903
0.99637356 0.00000000 0.99065737
0.00000000 0.00000000 0.99085797
0.00000000 0.00000000 0.99085786
0.00000000 0.00000000 0.99085768
0.00000000 0.00000000 0.99085711
0.00000000 0.00000000 0.99085538
0.57009775 0.00000000 0.99085004
0.96518751 0.00000000 0.99083351
0.99204385 0.00000000 0.99078208
0.99634007 0.00000000 0.99061871
0.00000000 0.93107829 0.99074407
0.00000000 0.93098819 0.99074395
0.00000000 0.93084525 0.99074377
0.00000000 0.93039689 0.99074319
0.00000000 0.92898973 0.99074140
0.00000000 0.92440209 0.99073588
0.93145729 0.90740659 0.99071883
0.99168513 0.79457361 0.99066572
0.99623479 0.00000000 0.99049687
0.00000000 0.99086912 0.99036838
0.00000000 0.99086830 0.99036825
0.00000000 0.99086700 0.99036804
0.00000000 0.99086294 0.99036740
0.00000000 0.99085040 0.99036541
0.00000000 0.99081145 0.99035929
0.00000000 0.99068864 0.99034035
0.99028132 0.99028132 0.99028132
0.99588939 0.98345458 0.99009298
0.00000000 0.99527564 0.98544050
0.00000000 0.99527540 0.98543910
0.00000000 0.99527501 0.98543689
0.00000000 0.99527382 0.98542998
0.00000000 0.99527013 0.98540865
0.00000000 0.99525874 0.98534246
0.00000000 0.99522338 0.98513437
0.00000000 0.99511213 0.98445360
0.99455174 0.99474580 0.98194292
0.00000000 0.00000000 0.99497418
0.00000000 0.00000000 0.99497414
0.00000000 0.00000000 0.99497408
0.00000000 0.00000000 0.99497390
0.00000000 0.00000000 0.99497335
0.00000000 0.00000000 0.99497165
0.94479898 0.00000000 0.99496638
0.99179602 0.00000000 0.99495011
0.99626655 0.00000000 0.99489947
0.00000000 0.00000000 0.99497393
0.00000000 0.00000000 0.99497389
0.00000000 0.00000000 0.99497384
0.00000000 0.00000000 0.99497366
0.00000000 0.00000000 0.99497310
0.00000000 0.00000000 0.99497140
0.94453054 0.00000000 0.99496614
0.99179350 0.00000000 0.99494986
0.99626582 0.00000000 0.99489921
0.00000000 0.00000000 0.99497354
0.00000000 0.00000000 0.99497350
0.00000000 0.00000000 0.99497344
0.00000000 0.00000000 0.99497326
0.00000000 0.00000000 0.99497271
0.00000000 0.00000000 0.99497101
0.94410214 0.00000000 0.99496574
0.99178949 0.00000000 0.99494947
0.99626466 0.00000000 0.99489881
0.00000000 0.00000000 0.99497232
0.00000000 0.00000000 0.99497228
0.00000000 0.00000000 0.99497222
0.00000000 0.00000000 0.99497204
0.00000000 0.00000000 0.99497149
0.00000000 0.00000000 0.99496978
0.94273819 0.00000000 0.99496452
0.99177697 0.00000000 0.99494824
0.99626104 0.00000000 0.99489757
0.00000000 0.00000000 0.99496854
0.00000000 0.00000000 0.99496851
0.00000000 0.00000000 0.99496845
0.00000000 0.00000000 0.99496827
0.00000000 0.00000000 0.99496772
0.00000000 0.00000000 0.99496601
0.93825007 0.00000000 0.99496074
0.99173808 0.00000000 0.99494444
0.99624987 0.00000000 0.99489372
0.00000000 0.00000000 0.99495689
0.00000000 0.00000000 0.99495686
0.00000000 0.00000000 0.99495680
0.00000000 0.00000000 0.99495662
0.00000000 0.00000000 0.99495606
0.00000000 0.00000000 0.99495435
0.92110071 0.00000000 0.99494906
0.99161548 0.00000000 0.99493271
0.99621520 0.00000000 0.99488182
0.00000000 0.00000000 0.99492073
0.00000000 0.00000000 0.99492069
0.00000000 0.00000000 0.99492063
0.00000000 0.00000000 0.99492045
0.00000000 0.00000000 0.99491989
0.00000000 0.00000000 0.99491816
0.78635559 0.00000000 0.99491282
0.99120888 0.00000000 0.99489630
0.99610615 0.00000000 0.99484489
0.00000000 0.98895303 0.99480688
0.00000000 0.98894883 0.99480684
0.00000000 0.98894217 0.99480678
0.00000000 0.98892124 0.99480659
0.00000000 0.98885531 0.99480601
0.00000000 0.98863841 0.99480423
0.00000000 0.98783136 0.99479871
0.98900870 0.98371433 0.99478166
0.99574756 0.93264952 0.99472858
0.00000000 0.99493177 0.99443137
0.00000000 0.99493151 0.99443133
0.00000000 0.99493108 0.99443126
0.00000000 0.99492977 0.99443105
0.00000000 0.99492571 0.99443041
0.00000000 0.99491318 0.99442843
0.00000000 0.99487424 0.99442231
0.00000000 0.99475149 0.99440338
0.99434438 0.99434438 0.99434438
