Slog3_Super8_to_BT709cube.cube
TITLE "Slog3_Super8_to_BT709.cube"
LUT_3D_SIZE 9
# Slog3 with Sony S3 Gamut input to Linear BT709 SDR tweaked for Super 8 capture with blue-shift fix by Francesco Bucciantini
0.00000000 0.00000000 0.00000000
0.08161641 0.00000000 0.00000000
0.23756487 0.00000000 0.00000000
0.47779473 0.00000000 0.00000000
0.70325800 0.00000000 0.00000000
0.85117884 0.00000000 0.00000000
0.93886227 0.00000000 0.00000000
0.98067209 0.00000000 0.00000000
0.99118993 0.00000000 0.00000000
0.00000000 0.05800330 0.00000000
0.03038843 0.04115444 0.00000000
0.21264610 0.01448247 0.00000000
0.46646935 0.00000000 0.00000000
0.70083425 0.00000000 0.00000000
0.85068772 0.00000000 0.00000000
0.93877620 0.00000000 0.00000000
0.98066162 0.00000000 0.00000000
0.99118934 0.00000000 0.00000000
0.00000000 0.21078664 0.00000000
0.00000000 0.20192833 0.00000000
0.16726750 0.18721467 0.00000000
0.44698026 0.13389743 0.00000000
0.69689403 0.00000000 0.00000000
0.84990320 0.00000000 0.00000000
0.93863948 0.00000000 0.00000000
0.98064501 0.00000000 0.00000000
0.99118841 0.00000000 0.00000000
0.00000000 0.44174046 0.00000000
0.00000000 0.43731253 0.00000000
0.00000000 0.43021025 0.00000000
0.37646448 0.40727290 0.00000000
0.68371433 0.32688078 0.00000000
0.84739902 0.00000000 0.00000000
0.93820952 0.00000000 0.00000000
0.98059302 0.00000000 0.00000000
0.99118550 0.00000000 0.00000000
0.00000000 0.67984753 0.00000000
0.00000000 0.67888335 0.00000000
0.00000000 0.67734180 0.00000000
0.00000000 0.67241001 0.00000000
0.63159921 0.65589503 0.00000000
0.83908029 0.58703681 0.00000000
0.93684859 0.00000000 0.00000000
0.98043092 0.00000000 0.00000000
0.99117652 0.00000000 0.00000000
0.00000000 0.83655562 0.00000000
0.00000000 0.83635755 0.00000000
0.00000000 0.83604293 0.00000000
0.00000000 0.83505324 0.00000000
0.00000000 0.83191815 0.00000000
0.80570996 0.82137110 0.00000000
0.93228529 0.77671729 0.00000000
0.97991325 0.00000000 0.00000000
0.99114871 0.00000000 0.00000000
0.00000000 0.93087471 0.00000000
0.00000000 0.93083910 0.00000000
0.00000000 0.93078267 0.00000000
0.00000000 0.93060610 0.00000000
0.00000000 0.93005644 0.00000000
0.00000000 0.92830978 0.00000000
0.91340500 0.92237499 0.00000000
0.97812947 0.89639044 0.00000000
0.99106157 0.00000000 0.00000000
0.00000000 0.97756224 0.00000000
0.00000000 0.97755759 0.00000000
0.00000000 0.97755021 0.00000000
0.00000000 0.97752719 0.00000000
0.00000000 0.97745591 0.00000000
0.00000000 0.97723338 0.00000000
0.00000000 0.97652011 0.00000000
0.97009390 0.97403051 0.00000000
0.99077882 0.96215472 0.00000000
0.00000000 0.99069383 0.00000000
0.00000000 0.99069361 0.00000000
0.00000000 0.99069325 0.00000000
0.00000000 0.99069215 0.00000000
0.00000000 0.99068875 0.00000000
0.00000000 0.99067825 0.00000000
0.00000000 0.99064569 0.00000000
0.00000000 0.99054339 0.00000000
0.98968527 0.99020837 0.00000000
0.00000000 0.00000000 0.03671732
0.07596084 0.00000000 0.03252330
0.23502893 0.00000000 0.02588411
0.47662639 0.00000000 0.00517843
0.70300324 0.00000000 0.00000000
0.85112691 0.00000000 0.00000000
0.93885315 0.00000000 0.00000000
0.98067098 0.00000000 0.00000000
0.99118986 0.00000000 0.00000000
0.00000000 0.04308880 0.01822578
0.02498086 0.02623994 0.01403176
0.20985776 0.00000000 0.00739256
0.46522573 0.00000000 0.00000000
0.70057424 0.00000000 0.00000000
0.85063543 0.00000000 0.00000000
0.93876705 0.00000000 0.00000000
0.98066051 0.00000000 0.00000000
0.99118927 0.00000000 0.00000000
0.00000000 0.20296149 0.00000000
0.00000000 0.19381215 0.00000000
0.16387997 0.17856833 0.00000000
0.44559862 0.12264761 0.00000000
0.69662534 0.00000000 0.00000000
0.84985031 0.00000000 0.00000000
0.93863030 0.00000000 0.00000000
0.98064390 0.00000000 0.00000000
0.99118834 0.00000000 0.00000000
0.00000000 0.43782316 0.00000000
0.00000000 0.43335534 0.00000000
0.00000000 0.42618750 0.00000000
0.37480616 0.40302422 0.00000000
0.68341509 0.32161945 0.00000000
0.84734424 0.00000000 0.00000000
0.93820022 0.00000000 0.00000000
0.98059190 0.00000000 0.00000000
0.99118544 0.00000000 0.00000000
0.00000000 0.67899442 0.00000000
0.00000000 0.67802367 0.00000000
0.00000000 0.67647152 0.00000000
0.00000000 0.67150520 0.00000000
0.63115478 0.65486747 0.00000000
0.83901888 0.58536549 0.00000000
0.93683892 0.00000000 0.00000000
0.98042978 0.00000000 0.00000000
0.99117646 0.00000000 0.00000000
0.00000000 0.83638032 0.00000000
0.00000000 0.83618178 0.00000000
0.00000000 0.83586643 0.00000000
0.00000000 0.83487441 0.00000000
0.00000000 0.83173183 0.00000000
0.80561684 0.82115808 0.00000000
0.93227430 0.77636345 0.00000000
0.97991205 0.00000000 0.00000000
0.99114864 0.00000000 0.00000000
0.00000000 0.93084319 0.00000000
0.00000000 0.93080755 0.00000000
0.00000000 0.93075107 0.00000000
0.00000000 0.93057436 0.00000000
0.00000000 0.93002423 0.00000000
0.00000000 0.92827606 0.00000000
0.91338755 0.92233586 0.00000000
0.97812805 0.89632219 0.00000000
0.99106150 0.00000000 0.00000000
0.00000000 0.97755812 0.00000000
0.00000000 0.97755346 0.00000000
0.00000000 0.97754609 0.00000000
0.00000000 0.97752305 0.00000000
0.00000000 0.97745175 0.00000000
0.00000000 0.97722915 0.00000000
0.00000000 0.97651561 0.00000000
0.97009135 0.97402509 0.00000000
0.99077875 0.96214404 0.00000000
0.00000000 0.99069363 0.00000000
0.00000000 0.99069341 0.00000000
0.00000000 0.99069306 0.00000000
0.00000000 0.99069195 0.00000000
0.00000000 0.99068855 0.00000000
0.00000000 0.99067805 0.00000000
0.00000000 0.99064549 0.00000000
0.00000000 0.99054318 0.00000000
0.98968514 0.99020814 0.00000000
0.00000000 0.00000000 0.14518387
0.06740058 0.00000000 0.14226466
0.23096569 0.00000000 0.13755318
0.47476132 0.00000000 0.12206356
0.70259882 0.00000000 0.06365020
0.85104462 0.00000000 0.00000000
0.93883871 0.00000000 0.00000000
0.98066922 0.00000000 0.00000000
0.99118976 0.00000000 0.00000000
0.00000000 0.01947895 0.13197189
0.01642059 0.00263009 0.12884427
0.20537978 0.00000000 0.12378304
0.46323967 0.00000000 0.10701185
0.70016148 0.00000000 0.04515865
0.85055256 0.00000000 0.00000000
0.93875257 0.00000000 0.00000000
0.98065875 0.00000000 0.00000000
0.99118918 0.00000000 0.00000000
0.00000000 0.19004084 0.10892866
0.00000000 0.18037024 0.10536444
0.15840562 0.16416493 0.09956154
0.44339056 0.10325448 0.07972664
0.69619876 0.00000000 0.01588628
0.84976652 0.00000000 0.00000000
0.93861577 0.00000000 0.00000000
0.98064213 0.00000000 0.00000000
0.99118824 0.00000000 0.00000000
0.00000000 0.43154958 0.01997365
0.00000000 0.42701648 0.01577963
0.00000000 0.41974129 0.00914044
0.37216642 0.39620719 0.00000000
0.68293992 0.31312223 0.00000000
0.84725743 0.00000000 0.00000000
0.93818550 0.00000000 0.00000000
0.98059013 0.00000000 0.00000000
0.99118534 0.00000000 0.00000000
0.00000000 0.67763202 0.00000000
0.00000000 0.67665068 0.00000000
0.00000000 0.67508150 0.00000000
0.00000000 0.67005967 0.00000000
0.63044834 0.65322441 0.00000000
0.83892157 0.58268168 0.00000000
0.93682360 0.00000000 0.00000000
0.98042797 0.00000000 0.00000000
0.99117636 0.00000000 0.00000000
0.00000000 0.83610197 0.00000000
0.00000000 0.83590270 0.00000000
0.00000000 0.83558618 0.00000000
0.00000000 0.83459046 0.00000000
0.00000000 0.83143596 0.00000000
0.80546922 0.82081971 0.00000000
0.93225688 0.77580062 0.00000000
0.97991015 0.00000000 0.00000000
0.99114854 0.00000000 0.00000000
0.00000000 0.93079324 0.00000000
0.00000000 0.93075756 0.00000000
0.00000000 0.93070100 0.00000000
0.00000000 0.93052405 0.00000000
0.00000000 0.92997318 0.00000000
0.00000000 0.92822262 0.00000000
0.91335991 0.92227385 0.00000000
0.97812580 0.89621397 0.00000000
0.99106140 0.00000000 0.00000000
0.00000000 0.97755159 0.00000000
0.00000000 0.97754693 0.00000000
0.00000000 0.97753955 0.00000000
0.00000000 0.97751651 0.00000000
0.00000000 0.97744516 0.00000000
0.00000000 0.97722244 0.00000000
0.00000000 0.97650850 0.00000000
0.97008733 0.97401649 0.00000000
0.99077864 0.96212713 0.00000000
0.00000000 0.99069332 0.00000000
0.00000000 0.99069310 0.00000000
0.00000000 0.99069274 0.00000000
0.00000000 0.99069164 0.00000000
0.00000000 0.99068824 0.00000000
0.00000000 0.99067774 0.00000000
0.00000000 0.99064517 0.00000000
0.00000000 0.99054286 0.00000000
0.98968494 0.99020779 0.00000000
0.00000000 0.00000000 0.32445246
0.04070364 0.00000000 0.32297064
0.21788210 0.00000000 0.32061182
0.46881846 0.00000000 0.31314907
0.70132866 0.00000000 0.28902566
0.85078737 0.00000000 0.19937946
0.93879363 0.00000000 0.00000000
0.98066374 0.00000000 0.00000000
0.99118946 0.00000000 0.00000000
0.00000000 0.00000000 0.31787062
0.00000000 0.00000000 0.31636005
0.19086722 0.00000000 0.31395496
0.45690470 0.00000000 0.30634186
0.69886500 0.00000000 0.28168686
0.85029350 0.00000000 0.18916569
0.93870738 0.00000000 0.00000000
0.98065325 0.00000000 0.00000000
0.99118887 0.00000000 0.00000000
0.00000000 0.14426391 0.30718373
0.00000000 0.13220422 0.30562424
0.14033974 0.11136236 0.30314040
0.43638302 0.03099824 0.29527083
0.69485865 0.00000000 0.26970237
0.84950455 0.00000000 0.17202580
0.93857038 0.00000000 0.00000000
0.98063663 0.00000000 0.00000000
0.99118794 0.00000000 0.00000000
0.00000000 0.41137513 0.27140431
0.00000000 0.40661983 0.26965783
0.00000000 0.39897832 0.26687227
0.36381530 0.37417055 0.25801365
0.68144628 0.28513165 0.22883742
0.84698602 0.00000000 0.10719580
0.93813954 0.00000000 0.00000000
0.98058460 0.00000000 0.00000000
0.99118503 0.00000000 0.00000000
0.00000000 0.67328636 0.11608535
0.00000000 0.67227074 0.11266818
0.00000000 0.67064633 0.10711651
0.00000000 0.66544437 0.08849594
0.62822197 0.64796651 0.02457606
0.83861726 0.57399691 0.00000000
0.93677577 0.00000000 0.00000000
0.98042235 0.00000000 0.00000000
0.99117605 0.00000000 0.00000000
0.00000000 0.83522724 0.00000000
0.00000000 0.83502566 0.00000000
0.00000000 0.83470544 0.00000000
0.00000000 0.83369804 0.00000000
0.00000000 0.83050586 0.00000000
0.80500719 0.81975526 0.00000000
0.93220251 0.77402388 0.00000000
0.97990422 0.00000000 0.00000000
0.99114823 0.00000000 0.00000000
0.00000000 0.93063704 0.00000000
0.00000000 0.93060120 0.00000000
0.00000000 0.93054441 0.00000000
0.00000000 0.93036672 0.00000000
0.00000000 0.92981353 0.00000000
0.00000000 0.92805547 0.00000000
0.91327360 0.92207984 0.00000000
0.97811878 0.89587503 0.00000000
0.99106108 0.00000000 0.00000000
0.00000000 0.97753122 0.00000000
0.00000000 0.97752655 0.00000000
0.00000000 0.97751916 0.00000000
0.00000000 0.97749607 0.00000000
0.00000000 0.97742460 0.00000000
0.00000000 0.97720148 0.00000000
0.00000000 0.97648627 0.00000000
0.97007476 0.97398966 0.00000000
0.99077830 0.96207431 0.00000000
0.00000000 0.99069234 0.00000000
0.00000000 0.99069212 0.00000000
0.00000000 0.99069177 0.00000000
0.00000000 0.99069066 0.00000000
0.00000000 0.99068726 0.00000000
0.00000000 0.99067676 0.00000000
0.00000000 0.99064418 0.00000000
0.00000000 0.99054184 0.00000000
0.98968430 0.99020667 0.00000000
0.00000000 0.00000000 0.57818483
0.00000000 0.00000000 0.57768877
0.17261232 0.00000000 0.57690024
0.44918315 0.00000000 0.57441490
0.69732529 0.00000000 0.56649228
0.84998824 0.00000000 0.53923732
0.93865426 0.00000000 0.41111906
0.98064680 0.00000000 0.00000000
0.99118851 0.00000000 0.00000000
0.00000000 0.00000000 0.57598564
0.00000000 0.00000000 0.57548247
0.13919584 0.00000000 0.57468258
0.43595646 0.00000000 0.57216116
0.69477732 0.00000000 0.56412066
0.84948871 0.00000000 0.53642513
0.93856764 0.00000000 0.40589396
0.98063630 0.00000000 0.00000000
0.99118792 0.00000000 0.00000000
0.00000000 0.00000000 0.57243917
0.00000000 0.00000000 0.57192435
0.06979082 0.00000000 0.57110590
0.41402691 0.00000000 0.56852549
0.69063117 0.00000000 0.56029205
0.84869066 0.00000000 0.53187330
0.93843008 0.00000000 0.39748472
0.98061964 0.00000000 0.00000000
0.99118699 0.00000000 0.00000000
0.00000000 0.34195522 0.56083223
0.00000000 0.33625691 0.56027793
0.00000000 0.32704523 0.55939649
0.33682489 0.29661546 0.55661582
0.67672581 0.17666573 0.54772588
0.84614267 0.00000000 0.51682604
0.93799743 0.00000000 0.37006542
0.98056752 0.00000000 0.00000000
0.99118408 0.00000000 0.00000000
0.00000000 0.65888019 0.51866742
0.00000000 0.65774480 0.51795072
0.00000000 0.65592727 0.51680995
0.00000000 0.65009386 0.51320245
0.62112729 0.63034319 0.50157813
0.83767113 0.54372914 0.46000463
0.93662788 0.00000000 0.26954730
0.98040497 0.00000000 0.00000000
0.99117510 0.00000000 0.00000000
0.00000000 0.83246510 0.28233173
0.00000000 0.83225608 0.28064653
0.00000000 0.83192402 0.27795998
0.00000000 0.83087914 0.26942709
0.00000000 0.82756602 0.24145479
0.80356692 0.81638301 0.12859150
0.93203437 0.76833156 0.00000000
0.97988590 0.00000000 0.00000000
0.99114727 0.00000000 0.00000000
0.00000000 0.93015129 0.00000000
0.00000000 0.93011499 0.00000000
0.00000000 0.93005746 0.00000000
0.00000000 0.92987745 0.00000000
0.00000000 0.92931701 0.00000000
0.00000000 0.92753554 0.00000000
0.91300644 0.92147587 0.00000000
0.97809710 0.89481607 0.00000000
0.99106010 0.00000000 0.00000000
0.00000000 0.97746817 0.00000000
0.00000000 0.97746347 0.00000000
0.00000000 0.97745604 0.00000000
0.00000000 0.97743283 0.00000000
0.00000000 0.97736097 0.00000000
0.00000000 0.97713664 0.00000000
0.00000000 0.97641750 0.00000000
0.97003596 0.97390661 0.00000000
0.99077723 0.96191063 0.00000000
0.00000000 0.99068934 0.00000000
0.00000000 0.99068911 0.00000000
0.00000000 0.99068876 0.00000000
0.00000000 0.99068766 0.00000000
0.00000000 0.99068425 0.00000000
0.00000000 0.99067374 0.00000000
0.00000000 0.99064113 0.00000000
0.00000000 0.99053870 0.00000000
0.98968235 0.99020323 0.00000000
0.00000000 0.00000000 0.76949669
0.00000000 0.00000000 0.76938963
0.00000000 0.00000000 0.76921991
0.37847928 0.00000000 0.76868872
0.68407864 0.00000000 0.76703267
0.84746584 0.00000000 0.76174551
0.93822087 0.00000000 0.74346810
0.98059439 0.00000000 0.65507182
0.99118558 0.00000000 0.00000000
0.00000000 0.00000000 0.76902377
0.00000000 0.00000000 0.76891620
0.00000000 0.00000000 0.76874566
0.36263883 0.00000000 0.76821189
0.68123706 0.00000000 0.76654775
0.84694818 0.00000000 0.76123415
0.93813314 0.00000000 0.74285773
0.98058383 0.00000000 0.65378866
0.99118499 0.00000000 0.00000000
0.00000000 0.00000000 0.76827046
0.00000000 0.00000000 0.76816206
0.00000000 0.00000000 0.76799021
0.33610826 0.00000000 0.76745232
0.67660284 0.00000000 0.76577524
0.84612099 0.00000000 0.76041931
0.93799379 0.00000000 0.74188430
0.98056708 0.00000000 0.65173180
0.99118405 0.00000000 0.00000000
0.00000000 0.00000000 0.76588347
0.00000000 0.00000000 0.76577242
0.00000000 0.00000000 0.76559636
0.23661396 0.00000000 0.76504528
0.66096403 0.00000000 0.76332674
0.84347852 0.00000000 0.75783511
0.93755552 0.00000000 0.73879033
0.98051466 0.00000000 0.64510674
0.99118114 0.00000000 0.00000000
0.00000000 0.60135360 0.75814256
0.00000000 0.59963709 0.75802261
0.00000000 0.59687857 0.75783243
0.00000000 0.58793370 0.75723704
0.59675219 0.55652975 0.75537916
0.83467670 0.39307216 0.74943048
0.93616792 0.00000000 0.72865480
0.98035121 0.00000000 0.62239731
0.99117216 0.00000000 0.00000000
0.00000000 0.82327091 0.72982741
0.00000000 0.82303585 0.72967076
0.00000000 0.82266233 0.72942233
0.00000000 0.82148615 0.72864395
0.00000000 0.81774823 0.72620910
0.79897025 0.80503301 0.71835121
0.93151107 0.74841077 0.69011071
0.97982920 0.00000000 0.51662859
0.99114431 0.00000000 0.00000000
0.00000000 0.92861317 0.53219706
0.00000000 0.92857538 0.53153585
0.00000000 0.92851547 0.53048374
0.00000000 0.92832802 0.52715931
0.00000000 0.92774429 0.51647544
0.00000000 0.92588751 0.47863533
0.91217272 0.91955693 0.30227191
0.97802998 0.89141227 0.00000000
0.99105706 0.00000000 0.00000000
0.00000000 0.97727161 0.00000000
0.00000000 0.97726684 0.00000000
0.00000000 0.97725928 0.00000000
0.00000000 0.97723568 0.00000000
0.00000000 0.97716261 0.00000000
0.00000000 0.97693449 0.00000000
0.00000000 0.97620305 0.00000000
0.96991576 0.97364743 0.00000000
0.99077395 0.96139800 0.00000000
0.00000000 0.99068004 0.00000000
0.00000000 0.99067982 0.00000000
0.00000000 0.99067947 0.00000000
0.00000000 0.99067836 0.00000000
0.00000000 0.99067495 0.00000000
0.00000000 0.99066441 0.00000000
0.00000000 0.99063172 0.00000000
0.00000000 0.99052901 0.00000000
0.98967630 0.99019259 0.00000000
0.00000000 0.00000000 0.89179985
0.00000000 0.00000000 0.89177894
0.00000000 0.00000000 0.89174583
0.00000000 0.00000000 0.89164244
0.63160872 0.00000000 0.89132242
0.83908161 0.00000000 0.89032376
0.93684880 0.00000000 0.88712579
0.98043094 0.00000000 0.87596344
0.99117652 0.00000000 0.82006453
0.00000000 0.00000000 0.89170761
0.00000000 0.00000000 0.89168667
0.00000000 0.00000000 0.89165351
0.00000000 0.00000000 0.89154994
0.62736199 0.00000000 0.89122938
0.83850068 0.00000000 0.89022900
0.93675748 0.00000000 0.88702541
0.98042020 0.00000000 0.87584191
0.99117593 0.00000000 0.81979603
0.00000000 0.00000000 0.89156129
0.00000000 0.00000000 0.89154029
0.00000000 0.00000000 0.89150703
0.00000000 0.00000000 0.89140319
0.62036616 0.00000000 0.89108176
0.83757172 0.00000000 0.89007866
0.93661242 0.00000000 0.88686615
0.98040316 0.00000000 0.87564902
0.99117500 0.00000000 0.81936916
0.00000000 0.00000000 0.89110239
0.00000000 0.00000000 0.89108122
0.00000000 0.00000000 0.89104768
0.00000000 0.00000000 0.89094296
0.59607311 0.00000000 0.89061880
0.83459861 0.00000000 0.88960713
0.93615609 0.00000000 0.88636653
0.98034983 0.00000000 0.87504350
0.99117208 0.00000000 0.81802336
0.00000000 0.00000000 0.88966281
0.00000000 0.00000000 0.88964107
0.00000000 0.00000000 0.88960664
0.00000000 0.00000000 0.88949913
0.48179214 0.00000000 0.88916633
0.82463274 0.00000000 0.88812748
0.93471049 0.00000000 0.88479777
0.98018353 0.00000000 0.87313788
0.99116307 0.00000000 0.81372955
0.00000000 0.78606098 0.88497409
0.00000000 0.78569895 0.88495046
0.00000000 0.78512294 0.88491303
0.00000000 0.78330334 0.88479614
0.00000000 0.77746057 0.88443424
0.78310131 0.75685008 0.88330381
0.92984974 0.64553658 0.87967310
0.97965234 0.00000000 0.86686604
0.99113515 0.00000000 0.79892376
0.00000000 0.92344827 0.86757990
0.00000000 0.92340521 0.86754839
0.00000000 0.92333694 0.86749846
0.00000000 0.92312331 0.86734252
0.00000000 0.92245754 0.86685931
0.00000000 0.92033480 0.86534615
0.90950283 0.91303896 0.86044634
0.97782053 0.87937499 0.84264353
0.99104768 0.00000000 0.72852158
0.00000000 0.97664441 0.73894411
0.00000000 0.97663938 0.73880002
0.00000000 0.97663142 0.73857152
0.00000000 0.97660656 0.73785577
0.00000000 0.97652960 0.73561871
0.00000000 0.97628925 0.72841825
0.00000000 0.97551810 0.70279120
0.96953963 0.97281775 0.55564817
0.99076380 0.95973778 0.00000000
0.00000000 0.99065125 0.00000000
0.00000000 0.99065102 0.00000000
0.00000000 0.99065066 0.00000000
0.00000000 0.99064955 0.00000000
0.00000000 0.99064611 0.00000000
0.00000000 0.99063549 0.00000000
0.00000000 0.99060253 0.00000000
0.00000000 0.99049898 0.00000000
0.98965743 0.99015961 0.00000000
0.00000000 0.00000000 0.95987824
0.00000000 0.00000000 0.95987491
0.00000000 0.00000000 0.95986964
0.00000000 0.00000000 0.95985320
0.00000000 0.00000000 0.95980242
0.80536713 0.00000000 0.95964516
0.93224485 0.00000000 0.95915334
0.97990884 0.00000000 0.95756795
0.99114847 0.00000000 0.95191722
0.00000000 0.00000000 0.95986356
0.00000000 0.00000000 0.95986023
0.00000000 0.00000000 0.95985496
0.00000000 0.00000000 0.95983850
0.00000000 0.00000000 0.95978770
0.80448165 0.00000000 0.95963033
0.93214092 0.00000000 0.95913819
0.97989750 0.00000000 0.95755174
0.99114788 0.00000000 0.95189698
0.00000000 0.00000000 0.95984030
0.00000000 0.00000000 0.95983697
0.00000000 0.00000000 0.95983169
0.00000000 0.00000000 0.95981522
0.00000000 0.00000000 0.95976436
0.80306113 0.00000000 0.95960683
0.93197580 0.00000000 0.95911418
0.97987953 0.00000000 0.95752606
0.99114694 0.00000000 0.95186490
0.00000000 0.00000000 0.95976762
0.00000000 0.00000000 0.95976428
0.00000000 0.00000000 0.95975898
0.00000000 0.00000000 0.95974246
0.00000000 0.00000000 0.95969143
0.79847649 0.00000000 0.95953340
0.93145604 0.00000000 0.95903915
0.97982326 0.00000000 0.95744578
0.99114400 0.00000000 0.95176461
0.00000000 0.00000000 0.95954205
0.00000000 0.00000000 0.95953867
0.00000000 0.00000000 0.95953332
0.00000000 0.00000000 0.95951663
0.00000000 0.00000000 0.95946510
0.78265762 0.00000000 0.95930549
0.92980632 0.00000000 0.95880628
0.97964778 0.00000000 0.95719657
0.99113492 0.00000000 0.95145304
0.00000000 0.00000000 0.95883225
0.00000000 0.00000000 0.95882876
0.00000000 0.00000000 0.95882325
0.00000000 0.00000000 0.95880604
0.00000000 0.00000000 0.95875289
0.70709690 0.00000000 0.95858827
0.92422273 0.00000000 0.95807328
0.97908700 0.00000000 0.95641165
0.99110678 0.00000000 0.95046943
0.00000000 0.90192595 0.95649835
0.00000000 0.90185673 0.95649451
0.00000000 0.90174697 0.95648842
0.00000000 0.90140310 0.95646944
0.00000000 0.90032788 0.95641083
0.00000000 0.89686285 0.95622924
0.90018542 0.88449741 0.95566081
0.97714981 0.81482229 0.95382283
0.99101860 0.00000000 0.94720008
0.00000000 0.97448765 0.94757223
0.00000000 0.97448172 0.94756687
0.00000000 0.97447233 0.94755838
0.00000000 0.97444299 0.94753191
0.00000000 0.97435213 0.94745013
0.00000000 0.97406820 0.94719654
0.00000000 0.97315520 0.94640066
0.96832501 0.96993296 0.94380542
0.99073233 0.95372473 0.93416171
0.00000000 0.99056098 0.87321991
0.00000000 0.99056075 0.87319110
0.00000000 0.99056038 0.87314547
0.00000000 0.99055924 0.87300295
0.00000000 0.99055571 0.87256144
0.00000000 0.99054482 0.87118005
0.00000000 0.99051102 0.86671915
0.00000000 0.99040477 0.85067318
0.98959712 0.99005597 0.75473233
0.00000000 0.00000000 0.98750363
0.00000000 0.00000000 0.98750335
0.00000000 0.00000000 0.98750290
0.00000000 0.00000000 0.98750150
0.00000000 0.00000000 0.98749720
0.00000000 0.00000000 0.98748391
0.91314117 0.00000000 0.98744262
0.97810802 0.00000000 0.98731223
0.99106059 0.00000000 0.98687958
0.00000000 0.00000000 0.98750238
0.00000000 0.00000000 0.98750210
0.00000000 0.00000000 0.98750165
0.00000000 0.00000000 0.98750026
0.00000000 0.00000000 0.98749596
0.00000000 0.00000000 0.98748266
0.91297541 0.00000000 0.98744135
0.97809458 0.00000000 0.98731092
0.99105998 0.00000000 0.98687812
0.00000000 0.00000000 0.98750041
0.00000000 0.00000000 0.98750013
0.00000000 0.00000000 0.98749968
0.00000000 0.00000000 0.98749829
0.00000000 0.00000000 0.98749398
0.00000000 0.00000000 0.98748068
0.91271176 0.00000000 0.98743934
0.97807328 0.00000000 0.98730884
0.99105902 0.00000000 0.98687580
0.00000000 0.00000000 0.98749426
0.00000000 0.00000000 0.98749398
0.00000000 0.00000000 0.98749353
0.00000000 0.00000000 0.98749213
0.00000000 0.00000000 0.98748782
0.00000000 0.00000000 0.98747449
0.91187961 0.00000000 0.98743309
0.97800659 0.00000000 0.98730235
0.99105600 0.00000000 0.98686855
0.00000000 0.00000000 0.98747522
0.00000000 0.00000000 0.98747494
0.00000000 0.00000000 0.98747449
0.00000000 0.00000000 0.98747308
0.00000000 0.00000000 0.98746875
0.00000000 0.00000000 0.98745535
0.90921523 0.00000000 0.98741372
0.97779845 0.00000000 0.98728228
0.99104670 0.00000000 0.98684614
0.00000000 0.00000000 0.98741587
0.00000000 0.00000000 0.98741558
0.00000000 0.00000000 0.98741513
0.00000000 0.00000000 0.98741370
0.00000000 0.00000000 0.98740929
0.00000000 0.00000000 0.98739567
0.89992279 0.00000000 0.98735334
0.97713216 0.00000000 0.98721970
0.99101786 0.00000000 0.98677627
0.00000000 0.00000000 0.98722657
0.00000000 0.00000000 0.98722626
0.00000000 0.00000000 0.98722578
0.00000000 0.00000000 0.98722428
0.00000000 0.00000000 0.98721964
0.00000000 0.00000000 0.98720530
0.85382238 0.00000000 0.98716076
0.97481654 0.00000000 0.98702011
0.99092746 0.00000000 0.98655337
0.00000000 0.96479793 0.98657804
0.00000000 0.96478733 0.98657769
0.00000000 0.96477053 0.98657712
0.00000000 0.96471804 0.98657536
0.00000000 0.96455533 0.98656993
0.00000000 0.96404517 0.98655314
0.00000000 0.96238713 0.98650097
0.96397388 0.95630937 0.98633625
0.99063355 0.91866600 0.98578929
0.00000000 0.99026754 0.98378146
0.00000000 0.99026729 0.98378087
0.00000000 0.99026689 0.98377994
0.00000000 0.99026565 0.98377704
0.00000000 0.99026183 0.98376810
0.00000000 0.99025001 0.98374044
0.00000000 0.99021331 0.98365448
0.00000000 0.99009777 0.98338265
0.98938974 0.98966028 0.98247564
