Slog3_Super8_to_BT709cube.cube
TITLE "Slog3_Super8_to_BT709.cube"
LUT_3D_SIZE 5
# Slog3 with Sony S3 Gamut input to Linear BT709 SDR tweaked for Super 8 capture with blue-shift fix by Francesco Bucciantini
0.00000000 0.00000000 0.00000000
0.23756487 0.00000000 0.00000000
0.70325800 0.00000000 0.00000000
0.93886227 0.00000000 0.00000000
0.99118993 0.00000000 0.00000000
0.00000000 0.21078664 0.00000000
0.16726750 0.18721467 0.00000000
0.69689403 0.00000000 0.00000000
0.93863948 0.00000000 0.00000000
0.99118841 0.00000000 0.00000000
0.00000000 0.67984753 0.00000000
0.00000000 0.67734180 0.00000000
0.63159921 0.65589503 0.00000000
0.93684859 0.00000000 0.00000000
0.99117652 0.00000000 0.00000000
0.00000000 0.93087471 0.00000000
0.00000000 0.93078267 0.00000000
0.00000000 0.93005644 0.00000000
0.91340500 0.92237499 0.00000000
0.99106157 0.00000000 0.00000000
0.00000000 0.99069383 0.00000000
0.00000000 0.99069325 0.00000000
0.00000000 0.99068875 0.00000000
0.00000000 0.99064569 0.00000000
0.98968527 0.99020837 0.00000000
0.00000000 0.00000000 0.14518387
0.23096569 0.00000000 0.13755318
0.70259882 0.00000000 0.06365020
0.93883871 0.00000000 0.00000000
0.99118976 0.00000000 0.00000000
0.00000000 0.19004084 0.10892866
0.15840562 0.16416493 0.09956154
0.69619876 0.00000000 0.01588628
0.93861577 0.00000000 0.00000000
0.99118824 0.00000000 0.00000000
0.00000000 0.67763202 0.00000000
0.00000000 0.67508150 0.00000000
0.63044834 0.65322441 0.00000000
0.93682360 0.00000000 0.00000000
0.99117636 0.00000000 0.00000000
0.00000000 0.93079324 0.00000000
0.00000000 0.93070100 0.00000000
0.00000000 0.92997318 0.00000000
0.91335991 0.92227385 0.00000000
0.99106140 0.00000000 0.00000000
0.00000000 0.99069332 0.00000000
0.00000000 0.99069274 0.00000000
0.00000000 0.99068824 0.00000000
0.00000000 0.99064517 0.00000000
0.98968494 0.99020779 0.00000000
0.00000000 0.00000000 0.57818483
0.17261232 0.00000000 0.57690024
0.69732529 0.00000000 0.56649228
0.93865426 0.00000000 0.41111906
0.99118851 0.00000000 0.00000000
0.00000000 0.00000000 0.57243917
0.06979082 0.00000000 0.57110590
0.69063117 0.00000000 0.56029205
0.93843008 0.00000000 0.39748472
0.99118699 0.00000000 0.00000000
0.00000000 0.65888019 0.51866742
0.00000000 0.65592727 0.51680995
0.62112729 0.63034319 0.50157813
0.93662788 0.00000000 0.26954730
0.99117510 0.00000000 0.00000000
0.00000000 0.93015129 0.00000000
0.00000000 0.93005746 0.00000000
0.00000000 0.92931701 0.00000000
0.91300644 0.92147587 0.00000000
0.99106010 0.00000000 0.00000000
0.00000000 0.99068934 0.00000000
0.00000000 0.99068876 0.00000000
0.00000000 0.99068425 0.00000000
0.00000000 0.99064113 0.00000000
0.98968235 0.99020323 0.00000000
0.00000000 0.00000000 0.89179985
0.00000000 0.00000000 0.89174583
0.63160872 0.00000000 0.89132242
0.93684880 0.00000000 0.88712579
0.99117652 0.00000000 0.82006453
0.00000000 0.00000000 0.89156129
0.00000000 0.00000000 0.89150703
0.62036616 0.00000000 0.89108176
0.93661242 0.00000000 0.88686615
0.99117500 0.00000000 0.81936916
0.00000000 0.00000000 0.88966281
0.00000000 0.00000000 0.88960664
0.48179214 0.00000000 0.88916633
0.93471049 0.00000000 0.88479777
0.99116307 0.00000000 0.81372955
0.00000000 0.92344827 0.86757990
0.00000000 0.92333694 0.86749846
0.00000000 0.92245754 0.86685931
0.90950283 0.91303896 0.86044634
0.99104768 0.00000000 0.72852158
0.00000000 0.99065125 0.00000000
0.00000000 0.99065066 0.00000000
0.00000000 0.99064611 0.00000000
0.00000000 0.99060253 0.00000000
0.98965743 0.99015961 0.00000000
0.00000000 0.00000000 0.98750363
0.00000000 0.00000000 0.98750290
0.00000000 0.00000000 0.98749720
0.91314117 0.00000000 0.98744262
0.99106059 0.00000000 0.98687958
0.00000000 0.00000000 0.98750041
0.00000000 0.00000000 0.98749968
0.00000000 0.00000000 0.98749398
0.91271176 0.00000000 0.98743934
0.99105902 0.00000000 0.98687580
0.00000000 0.00000000 0.98747522
0.00000000 0.00000000 0.98747449
0.00000000 0.00000000 0.98746875
0.90921523 0.00000000 0.98741372
0.99104670 0.00000000 0.98684614
0.00000000 0.00000000 0.98722657
0.00000000 0.00000000 0.98722578
0.00000000 0.00000000 0.98721964
0.85382238 0.00000000 0.98716076
0.99092746 0.00000000 0.98655337
0.00000000 0.99026754 0.98378146
0.00000000 0.99026689 0.98377994
0.00000000 0.99026183 0.98376810
0.00000000 0.99021331 0.98365448
0.98938974 0.98966028 0.98247564
