Slog3_to_BT601_PAL.cube
TITLE "Slog3_to_BT601_PAL"
LUT_3D_SIZE 5
# Slog3 to BT601 PAL SDR by Francesco Bucciantini
0.00000000 0.00000000 0.00000000
0.25656904 0.00000000 0.00000000
0.73602069 0.00000000 0.00000000
0.98067116 0.00000000 0.00000000
0.99644735 0.00000000 0.00000000
0.00000000 0.20524421 0.00000000
0.16866352 0.18133945 0.00000000
0.72783936 0.00000000 0.00000000
0.98049801 0.00000000 0.00000000
0.99644555 0.00000000 0.00000000
0.00000000 0.68349318 0.00000000
0.00000000 0.68057255 0.00000000
0.63988817 0.65561638 0.00000000
0.97906217 0.00000000 0.00000000
0.99643149 0.00000000 0.00000000
0.00000000 0.96770135 0.00000000
0.00000000 0.96761360 0.00000000
0.00000000 0.96691813 0.00000000
0.95407885 0.95925018 0.00000000
0.99629497 0.00000000 0.00000000
0.00000000 0.99542979 0.00000000
0.00000000 0.99542919 0.00000000
0.00000000 0.99542451 0.00000000
0.00000000 0.99537973 0.00000000
0.99464723 0.99492375 0.00000000
0.00000000 0.00000000 0.18367926
0.24709737 0.00000000 0.18021599
0.73502935 0.00000000 0.15114764
0.98064975 0.00000000 0.00000000
0.99644713 0.00000000 0.00000000
0.00000000 0.18171114 0.15893841
0.15505826 0.15505826 0.15505826
0.72678581 0.00000000 0.12187019
0.98047629 0.00000000 0.00000000
0.99644533 0.00000000 0.00000000
0.00000000 0.68061615 0.00000000
0.00000000 0.67763837 0.00000000
0.63797930 0.65215941 0.00000000
0.97903802 0.00000000 0.00000000
0.99643126 0.00000000 0.00000000
0.00000000 0.96761490 0.00000000
0.00000000 0.96752685 0.00000000
0.00000000 0.96682898 0.00000000
0.95401087 0.95913390 0.00000000
0.99629473 0.00000000 0.00000000
0.00000000 0.99542920 0.00000000
0.00000000 0.99542860 0.00000000
0.00000000 0.99542392 0.00000000
0.00000000 0.99537913 0.00000000
0.99464686 0.99492307 0.00000000
0.00000000 0.00000000 0.65844694
0.15829284 0.00000000 0.65797580
0.72703094 0.00000000 0.65424930
0.98048133 0.00000000 0.61368152
0.99644538 0.00000000 0.00000000
0.00000000 0.00000000 0.65520754
0.00707561 0.00000000 0.65472654
0.71827310 0.00000000 0.65092121
0.98030556 0.00000000 0.60939977
0.99644358 0.00000000 0.00000000
0.00000000 0.65606754 0.62736563
0.00000000 0.65256828 0.62679341
0.62225800 0.62225800 0.62225800
0.97884812 0.00000000 0.57170460
0.99642951 0.00000000 0.00000000
0.00000000 0.96692989 0.00000000
0.00000000 0.96683944 0.00000000
0.00000000 0.96612252 0.00000000
0.95347590 0.95821182 0.00000000
0.99629291 0.00000000 0.00000000
0.00000000 0.99542459 0.00000000
0.00000000 0.99542399 0.00000000
0.00000000 0.99541931 0.00000000
0.00000000 0.99537446 0.00000000
0.99464398 0.99491776 0.00000000
0.00000000 0.00000000 0.96015128
0.00000000 0.00000000 0.96013547
0.61483054 0.00000000 0.96001182
0.97876372 0.00000000 0.95881166
0.99642874 0.00000000 0.94474592
0.00000000 0.00000000 0.96004338
0.00000000 0.00000000 0.96002752
0.59606056 0.00000000 0.95990344
0.97856439 0.00000000 0.95869913
0.99642693 0.00000000 0.94458204
0.00000000 0.00000000 0.95918842
0.00000000 0.00000000 0.95917213
0.30713063 0.00000000 0.95904466
0.97691241 0.00000000 0.95780737
0.99641279 0.00000000 0.94328112
0.00000000 0.95939443 0.94977244
0.00000000 0.95927693 0.94975120
0.00000000 0.95834498 0.94958511
0.94797041 0.94797041 0.94797041
0.99627555 0.00000000 0.92865835
0.00000000 0.99538048 0.00000000
0.00000000 0.99537987 0.00000000
0.00000000 0.99537513 0.00000000
0.00000000 0.99532973 0.00000000
0.99461651 0.99486695 0.00000000
0.00000000 0.00000000 0.99497418
0.00000000 0.00000000 0.99497408
0.00000000 0.00000000 0.99497335
0.94479898 0.00000000 0.99496638
0.99626655 0.00000000 0.99489947
0.00000000 0.00000000 0.99497354
0.00000000 0.00000000 0.99497344
0.00000000 0.00000000 0.99497271
0.94410214 0.00000000 0.99496574
0.99626466 0.00000000 0.99489881
0.00000000 0.00000000 0.99496854
0.00000000 0.00000000 0.99496845
0.00000000 0.00000000 0.99496772
0.93825007 0.00000000 0.99496074
0.99624987 0.00000000 0.99489372
0.00000000 0.00000000 0.99492073
0.00000000 0.00000000 0.99492063
0.00000000 0.00000000 0.99491989
0.78635559 0.00000000 0.99491282
0.99610615 0.00000000 0.99484489
0.00000000 0.99493177 0.99443137
0.00000000 0.99493108 0.99443126
0.00000000 0.99492571 0.99443041
0.00000000 0.99487424 0.99442231
0.99434438 0.99434438 0.99434438
