Slog3_Super8_to_BT709cube.cube
TITLE "Slog3_Super8_to_BT709.cube"
LUT_3D_SIZE 33
# Slog3 with Sony S3 Gamut input to Linear BT709 SDR tweaked for Super 8 capture with blue-shift fix by Francesco Bucciantini
0.00000000 0.00000000 0.00000000
0.00000000 0.00000000 0.00000000
0.00459020 0.00000000 0.00000000
0.04297931 0.00000000 0.00000000
0.08161641 0.00000000 0.00000000
0.11592569 0.00000000 0.00000000
0.15114797 0.00000000 0.00000000
0.19218705 0.00000000 0.00000000
0.23756487 0.00000000 0.00000000
0.28810397 0.00000000 0.00000000
0.34467772 0.00000000 0.00000000
0.40823724 0.00000000 0.00000000
0.47779473 0.00000000 0.00000000
0.54266048 0.00000000 0.00000000
0.60157115 0.00000000 0.00000000
0.65497785 0.00000000 0.00000000
0.70325800 0.00000000 0.00000000
0.74673823 0.00000000 0.00000000
0.78571000 0.00000000 0.00000000
0.82044026 0.00000000 0.00000000
0.85117884 0.00000000 0.00000000
0.87816360 0.00000000 0.00000000
0.90162402 0.00000000 0.00000000
0.92178373 0.00000000 0.00000000
0.93886227 0.00000000 0.00000000
0.95307632 0.00000000 0.00000000
0.96464059 0.00000000 0.00000000
0.97376839 0.00000000 0.00000000
0.98067209 0.00000000 0.00000000
0.98556343 0.00000000 0.00000000
0.98865367 0.00000000 0.00000000
0.99017450 0.00000000 0.00000000
0.99118993 0.00000000 0.00000000
0.00000000 0.00000000 0.00000000
0.00000000 0.00000000 0.00000000
0.00000000 0.00000000 0.00000000
0.03023431 0.00000000 0.00000000
0.06862342 0.00000000 0.00000000
0.10531378 0.00000000 0.00000000
0.14241167 0.00000000 0.00000000
0.18497670 0.00000000 0.00000000
0.23154987 0.00000000 0.00000000
0.28304935 0.00000000 0.00000000
0.34040832 0.00000000 0.00000000
0.40461781 0.00000000 0.00000000
0.47502892 0.00000000 0.00000000
0.54076746 0.00000000 0.00000000
0.60027647 0.00000000 0.00000000
0.65409416 0.00000000 0.00000000
0.70265668 0.00000000 0.00000000
0.74633072 0.00000000 0.00000000
0.78543524 0.00000000 0.00000000
0.82025615 0.00000000 0.00000000
0.85105638 0.00000000 0.00000000
0.87808286 0.00000000 0.00000000
0.90157136 0.00000000 0.00000000
0.92174982 0.00000000 0.00000000
0.93884078 0.00000000 0.00000000
0.95306297 0.00000000 0.00000000
0.96463250 0.00000000 0.00000000
0.97376366 0.00000000 0.00000000
0.98066948 0.00000000 0.00000000
0.98556210 0.00000000 0.00000000
0.98865310 0.00000000 0.00000000
0.99017431 0.00000000 0.00000000
0.99118978 0.00000000 0.00000000
0.00000000 0.00000000 0.00000000
0.00000000 0.00000000 0.00000000
0.00000000 0.00000000 0.00000000
0.01748932 0.00000000 0.00000000
0.05587843 0.00000000 0.00000000
0.09398121 0.00000000 0.00000000
0.13327074 0.00000000 0.00000000
0.17753533 0.00000000 0.00000000
0.22539802 0.00000000 0.00000000
0.27791165 0.00000000 0.00000000
0.33608760 0.00000000 0.00000000
0.40096631 0.00000000 0.00000000
0.47222022 0.00000000 0.00000000
0.53885234 0.00000000 0.00000000
0.59897039 0.00000000 0.00000000
0.65320456 0.00000000 0.00000000
0.70205229 0.00000000 0.00000000
0.74592163 0.00000000 0.00000000
0.78515967 0.00000000 0.00000000
0.82007162 0.00000000 0.00000000
0.85093371 0.00000000 0.00000000
0.87800202 0.00000000 0.00000000
0.90151864 0.00000000 0.00000000
0.92171588 0.00000000 0.00000000
0.93881926 0.00000000 0.00000000
0.95304960 0.00000000 0.00000000
0.96462441 0.00000000 0.00000000
0.97375894 0.00000000 0.00000000
0.98066686 0.00000000 0.00000000
0.98556077 0.00000000 0.00000000
0.98865252 0.00000000 0.00000000
0.99017411 0.00000000 0.00000000
0.99118963 0.00000000 0.00000000
0.00000000 0.02454587 0.00000000
0.00000000 0.02033365 0.00000000
0.00000000 0.01612144 0.00000000
0.00474432 0.01190922 0.00000000
0.04313343 0.00769701 0.00000000
0.08177028 0.00348479 0.00000000
0.12366744 0.00000000 0.00000000
0.16984078 0.00000000 0.00000000
0.21910017 0.00000000 0.00000000
0.27268690 0.00000000 0.00000000
0.33171380 0.00000000 0.00000000
0.39728191 0.00000000 0.00000000
0.46936743 0.00000000 0.00000000
0.53691469 0.00000000 0.00000000
0.59765271 0.00000000 0.00000000
0.65230898 0.00000000 0.00000000
0.70144483 0.00000000 0.00000000
0.74551095 0.00000000 0.00000000
0.78488328 0.00000000 0.00000000
0.81988668 0.00000000 0.00000000
0.85081083 0.00000000 0.00000000
0.87792107 0.00000000 0.00000000
0.90146586 0.00000000 0.00000000
0.92168190 0.00000000 0.00000000
0.93879774 0.00000000 0.00000000
0.95303623 0.00000000 0.00000000
0.96461632 0.00000000 0.00000000
0.97375421 0.00000000 0.00000000
0.98066424 0.00000000 0.00000000
0.98555943 0.00000000 0.00000000
0.98865195 0.00000000 0.00000000
0.99017392 0.00000000 0.00000000
0.99118948 0.00000000 0.00000000
0.00000000 0.05800330 0.00000000
0.00000000 0.05379109 0.00000000
0.00000000 0.04957887 0.00000000
0.00000000 0.04536666 0.00000000
0.03038843 0.04115444 0.00000000
0.06877755 0.03694223 0.00000000
0.11352909 0.03167189 0.00000000
0.16186716 0.02427893 0.00000000
0.21264610 0.01448247 0.00000000
0.26737080 0.00150109 0.00000000
0.32728502 0.00000000 0.00000000
0.39356378 0.00000000 0.00000000
0.46646935 0.00000000 0.00000000
0.53495403 0.00000000 0.00000000
0.59632327 0.00000000 0.00000000
0.65140736 0.00000000 0.00000000
0.70083425 0.00000000 0.00000000
0.74509866 0.00000000 0.00000000
0.78460606 0.00000000 0.00000000
0.81970130 0.00000000 0.00000000
0.85068772 0.00000000 0.00000000
0.87784001 0.00000000 0.00000000
0.90141304 0.00000000 0.00000000
0.92164791 0.00000000 0.00000000
0.93877620 0.00000000 0.00000000
0.95302285 0.00000000 0.00000000
0.96460822 0.00000000 0.00000000
0.97374948 0.00000000 0.00000000
0.98066162 0.00000000 0.00000000
0.98555810 0.00000000 0.00000000
0.98865137 0.00000000 0.00000000
0.99017372 0.00000000 0.00000000
0.99118934 0.00000000 0.00000000
0.00000000 0.09137402 0.00000000
0.00000000 0.08737738 0.00000000
0.00000000 0.08327314 0.00000000
0.00000000 0.07882410 0.00000000
0.01764344 0.07461188 0.00000000
0.05603255 0.07039967 0.00000000
0.10276207 0.06512932 0.00000000
0.15358392 0.05773637 0.00000000
0.20602438 0.04793991 0.00000000
0.26195870 0.03495853 0.00000000
0.32279928 0.01775679 0.00000000
0.38981102 0.00000000 0.00000000
0.46352470 0.00000000 0.00000000
0.53296989 0.00000000 0.00000000
0.59498187 0.00000000 0.00000000
0.65049963 0.00000000 0.00000000
0.70022053 0.00000000 0.00000000
0.74468476 0.00000000 0.00000000
0.78432801 0.00000000 0.00000000
0.81951551 0.00000000 0.00000000
0.85056441 0.00000000 0.00000000
0.87775884 0.00000000 0.00000000
0.90136015 0.00000000 0.00000000
0.92161388 0.00000000 0.00000000
0.93875464 0.00000000 0.00000000
0.95300947 0.00000000 0.00000000
0.96460012 0.00000000 0.00000000
0.97374476 0.00000000 0.00000000
0.98065900 0.00000000 0.00000000
0.98555676 0.00000000 0.00000000
0.98865080 0.00000000 0.00000000
0.99017353 0.00000000 0.00000000
0.99118919 0.00000000 0.00000000
0.00000000 0.12655846 0.00000000
0.00000000 0.12332329 0.00000000
0.00000000 0.12002953 0.00000000
0.00000000 0.11667410 0.00000000
0.00169684 0.11325361 0.00000000
0.04008595 0.10976438 0.00000000
0.08821147 0.10529564 0.00000000
0.14272743 0.09881798 0.00000000
0.19748332 0.08981252 0.00000000
0.25504412 0.07682063 0.00000000
0.31710324 0.05961889 0.00000000
0.38506538 0.03682473 0.00000000
0.45977272 0.00661999 0.00000000
0.53045350 0.00000000 0.00000000
0.59328640 0.00000000 0.00000000
0.64935514 0.00000000 0.00000000
0.69944819 0.00000000 0.00000000
0.74416461 0.00000000 0.00000000
0.78397895 0.00000000 0.00000000
0.81928244 0.00000000 0.00000000
0.85040981 0.00000000 0.00000000
0.87765713 0.00000000 0.00000000
0.90129390 0.00000000 0.00000000
0.92157127 0.00000000 0.00000000
0.93872766 0.00000000 0.00000000
0.95299271 0.00000000 0.00000000
0.96458999 0.00000000 0.00000000
0.97373884 0.00000000 0.00000000
0.98065572 0.00000000 0.00000000
0.98555509 0.00000000 0.00000000
0.98865008 0.00000000 0.00000000
0.99017328 0.00000000 0.00000000
0.99118901 0.00000000 0.00000000
0.00000000 0.16681725 0.00000000
0.00000000 0.16417760 0.00000000
0.00000000 0.16150520 0.00000000
0.00000000 0.15879885 0.00000000
0.00000000 0.15605733 0.00000000
0.01771692 0.15327932 0.00000000
0.06574956 0.14974990 0.00000000
0.12640941 0.14469332 0.00000000
0.18496924 0.13778840 0.00000000
0.24505698 0.12824068 0.00000000
0.30894871 0.11477779 0.00000000
0.37831099 0.09515518 0.00000000
0.45437806 0.06534189 0.00000000
0.52685847 0.02531733 0.00000000
0.59087535 0.00000000 0.00000000
0.64773313 0.00000000 0.00000000
0.69835632 0.00000000 0.00000000
0.74343064 0.00000000 0.00000000
0.78348710 0.00000000 0.00000000
0.81895438 0.00000000 0.00000000
0.85019237 0.00000000 0.00000000
0.87751416 0.00000000 0.00000000
0.90120083 0.00000000 0.00000000
0.92151142 0.00000000 0.00000000
0.93868976 0.00000000 0.00000000
0.95296919 0.00000000 0.00000000
0.96457576 0.00000000 0.00000000
0.97373053 0.00000000 0.00000000
0.98065111 0.00000000 0.00000000
0.98555275 0.00000000 0.00000000
0.98864907 0.00000000 0.00000000
0.99017294 0.00000000 0.00000000
0.99118875 0.00000000 0.00000000
0.00000000 0.21078664 0.00000000
0.00000000 0.20860126 0.00000000
0.00000000 0.20639674 0.00000000
0.00000000 0.20417260 0.00000000
0.00000000 0.20192833 0.00000000
0.00000000 0.19966341 0.00000000
0.03610817 0.19679964 0.00000000
0.10225576 0.19272442 0.00000000
0.16726750 0.18721467 0.00000000
0.23125009 0.17970754 0.00000000
0.29782593 0.16936166 0.00000000
0.36917655 0.15485079 0.00000000
0.44698026 0.13389743 0.00000000
0.52197288 0.10194432 0.00000000
0.58761987 0.05009333 0.00000000
0.64555330 0.00000000 0.00000000
0.69689403 0.00000000 0.00000000
0.74245018 0.00000000 0.00000000
0.78283133 0.00000000 0.00000000
0.81851762 0.00000000 0.00000000
0.84990320 0.00000000 0.00000000
0.87732418 0.00000000 0.00000000
0.90107723 0.00000000 0.00000000
0.92143198 0.00000000 0.00000000
0.93863948 0.00000000 0.00000000
0.95293798 0.00000000 0.00000000
0.96455688 0.00000000 0.00000000
0.97371951 0.00000000 0.00000000
0.98064501 0.00000000 0.00000000
0.98554964 0.00000000 0.00000000
0.98864773 0.00000000 0.00000000
0.99017249 0.00000000 0.00000000
0.99118841 0.00000000 0.00000000
0.00000000 0.25934747 0.00000000
0.00000000 0.25752059 0.00000000
0.00000000 0.25568220 0.00000000
0.00000000 0.25383208 0.00000000
0.00000000 0.25197003 0.00000000
0.00000000 0.25009583 0.00000000
0.00000000 0.24773336 0.00000000
0.06420770 0.24438586 0.00000000
0.14131922 0.23988765 0.00000000
0.21178778 0.23381217 0.00000000
0.28247206 0.22554633 0.00000000
0.35672594 0.21417976 0.00000000
0.43674992 0.19829219 0.00000000
0.51527369 0.17548623 0.00000000
0.58319550 0.14111728 0.00000000
0.64260972 0.08316238 0.00000000
0.69492863 0.00000000 0.00000000
0.74113694 0.00000000 0.00000000
0.78195523 0.00000000 0.00000000
0.81793525 0.00000000 0.00000000
0.84951818 0.00000000 0.00000000
0.87707150 0.00000000 0.00000000
0.90091297 0.00000000 0.00000000
0.92132648 0.00000000 0.00000000
0.93857274 0.00000000 0.00000000
0.95289658 0.00000000 0.00000000
0.96453185 0.00000000 0.00000000
0.97370490 0.00000000 0.00000000
0.98063691 0.00000000 0.00000000
0.98554552 0.00000000 0.00000000
0.98864595 0.00000000 0.00000000
0.99017189 0.00000000 0.00000000
0.99118795 0.00000000 0.00000000
0.00000000 0.31338760 0.00000000
0.00000000 0.31185019 0.00000000
0.00000000 0.31030572 0.00000000
0.00000000 0.30875409 0.00000000
0.00000000 0.30719522 0.00000000
0.00000000 0.30562899 0.00000000
0.00000000 0.30365883 0.00000000
0.01216001 0.30087517 0.00000000
0.10045792 0.29714962 0.00000000
0.18343704 0.29214589 0.00000000
0.26088097 0.28539234 0.00000000
0.33955738 0.27621324 0.00000000
0.42276218 0.26360970 0.00000000
0.50597188 0.24603428 0.00000000
0.57712834 0.22090493 0.00000000
0.63860869 0.18332426 0.00000000
0.69227417 0.12123313 0.00000000
0.73937158 0.00302385 0.00000000
0.78078160 0.00000000 0.00000000
0.81715711 0.00000000 0.00000000
0.84900473 0.00000000 0.00000000
0.87673504 0.00000000 0.00000000
0.90069450 0.00000000 0.00000000
0.92118627 0.00000000 0.00000000
0.93848410 0.00000000 0.00000000
0.95284161 0.00000000 0.00000000
0.96449863 0.00000000 0.00000000
0.97368552 0.00000000 0.00000000
0.98062618 0.00000000 0.00000000
0.98554006 0.00000000 0.00000000
0.98864359 0.00000000 0.00000000
0.99017109 0.00000000 0.00000000
0.99118735 0.00000000 0.00000000
0.00000000 0.37384549 0.00000000
0.00000000 0.37254558 0.00000000
0.00000000 0.37124128 0.00000000
0.00000000 0.36993254 0.00000000
0.00000000 0.36861933 0.00000000
0.00000000 0.36730159 0.00000000
0.00000000 0.36564639 0.00000000
0.00000000 0.36331234 0.00000000
0.03247380 0.36019712 0.00000000
0.13940237 0.35602887 0.00000000
0.22956219 0.35043253 0.00000000
0.31545519 0.34288289 0.00000000
0.40348877 0.33262905 0.00000000
0.49282370 0.31856462 0.00000000
0.56870355 0.29898401 0.00000000
0.63312109 0.27106398 0.00000000
0.68866536 0.22952678 0.00000000
0.73698679 0.16179649 0.00000000
0.77920359 0.02055206 0.00000000
0.81611450 0.00000000 0.00000000
0.84831858 0.00000000 0.00000000
0.87628629 0.00000000 0.00000000
0.90040353 0.00000000 0.00000000
0.92099975 0.00000000 0.00000000
0.93836628 0.00000000 0.00000000
0.95276860 0.00000000 0.00000000
0.96445452 0.00000000 0.00000000
0.97365980 0.00000000 0.00000000
0.98061193 0.00000000 0.00000000
0.98553281 0.00000000 0.00000000
0.98864047 0.00000000 0.00000000
0.99017003 0.00000000 0.00000000
0.99118655 0.00000000 0.00000000
0.00000000 0.44174046 0.00000000
0.00000000 0.44063764 0.00000000
0.00000000 0.43953206 0.00000000
0.00000000 0.43842370 0.00000000
0.00000000 0.43731253 0.00000000
0.00000000 0.43619855 0.00000000
0.00000000 0.43480072 0.00000000
0.00000000 0.43283235 0.00000000
0.00000000 0.43021025 0.00000000
0.05939177 0.42671102 0.00000000
0.18135273 0.42202984 0.00000000
0.28059702 0.41574642 0.00000000
0.37646448 0.40727290 0.00000000
0.47374543 0.39577014 0.00000000
0.55679434 0.38000453 0.00000000
0.62549933 0.35808108 0.00000000
0.68371433 0.32688078 0.00000000
0.73374370 0.28063210 0.00000000
0.77707134 0.20588831 0.00000000
0.81471233 0.04377883 0.00000000
0.84739902 0.00000000 0.00000000
0.87568646 0.00000000 0.00000000
0.90001539 0.00000000 0.00000000
0.92075130 0.00000000 0.00000000
0.93820952 0.00000000 0.00000000
0.95267154 0.00000000 0.00000000
0.96439592 0.00000000 0.00000000
0.97362564 0.00000000 0.00000000
0.98059302 0.00000000 0.00000000
0.98552319 0.00000000 0.00000000
0.98863632 0.00000000 0.00000000
0.99016863 0.00000000 0.00000000
0.99118550 0.00000000 0.00000000
0.00000000 0.51035310 0.00000000
0.00000000 0.50959735 0.00000000
0.00000000 0.50883827 0.00000000
0.00000000 0.50807584 0.00000000
0.00000000 0.50731002 0.00000000
0.00000000 0.50654080 0.00000000
0.00000000 0.50557350 0.00000000
0.00000000 0.50420746 0.00000000
0.00000000 0.50238061 0.00000000
0.00000000 0.49992992 0.00000000
0.09471049 0.49662866 0.00000000
0.22726703 0.49215631 0.00000000
0.33746228 0.48605021 0.00000000
0.44492883 0.47762310 0.00000000
0.53951367 0.46581416 0.00000000
0.61472222 0.44889723 0.00000000
0.67683529 0.42433446 0.00000000
0.72929275 0.38932485 0.00000000
0.77417066 0.33756421 0.00000000
0.81281708 0.25443100 0.00000000
0.84616198 0.07455683 0.00000000
0.87488240 0.00000000 0.00000000
0.89949646 0.00000000 0.00000000
0.92041981 0.00000000 0.00000000
0.93800068 0.00000000 0.00000000
0.95254238 0.00000000 0.00000000
0.96431801 0.00000000 0.00000000
0.97358025 0.00000000 0.00000000
0.98056791 0.00000000 0.00000000
0.98551041 0.00000000 0.00000000
0.98863081 0.00000000 0.00000000
0.99016678 0.00000000 0.00000000
0.99118410 0.00000000 0.00000000
0.00000000 0.57255143 0.00000000
0.00000000 0.57203475 0.00000000
0.00000000 0.57151635 0.00000000
0.00000000 0.57099622 0.00000000
0.00000000 0.57047436 0.00000000
0.00000000 0.56995074 0.00000000
0.00000000 0.56929311 0.00000000
0.00000000 0.56836595 0.00000000
0.00000000 0.56712884 0.00000000
0.00000000 0.56547440 0.00000000
0.00000000 0.56325499 0.00000000
0.13329015 0.56026525 0.00000000
0.27804812 0.55621491 0.00000000
0.40113808 0.55068496 0.00000000
0.51341610 0.54305312 0.00000000
0.59907900 0.53235912 0.00000000
0.66710372 0.51704137 0.00000000
0.72310546 0.49436620 0.00000000
0.77018777 0.45900344 0.00000000
0.81023769 0.40130554 0.00000000
0.84448929 0.30833377 0.00000000
0.87380035 0.11232202 0.00000000
0.89880062 0.00000000 0.00000000
0.91997649 0.00000000 0.00000000
0.93772194 0.00000000 0.00000000
0.95237025 0.00000000 0.00000000
0.96421430 0.00000000 0.00000000
0.97351988 0.00000000 0.00000000
0.98053452 0.00000000 0.00000000
0.98549344 0.00000000 0.00000000
0.98862349 0.00000000 0.00000000
0.99016432 0.00000000 0.00000000
0.99118224 0.00000000 0.00000000
0.00000000 0.62889848 0.00000000
0.00000000 0.62854566 0.00000000
0.00000000 0.62819195 0.00000000
0.00000000 0.62783735 0.00000000
0.00000000 0.62748185 0.00000000
0.00000000 0.62712545 0.00000000
0.00000000 0.62667824 0.00000000
0.00000000 0.62604852 0.00000000
0.00000000 0.62520973 0.00000000
0.00000000 0.62409050 0.00000000
0.00000000 0.62259364 0.00000000
0.00000000 0.62058552 0.00000000
0.17471706 0.61788022 0.00000000
0.33461482 0.61421492 0.00000000
0.47133792 0.60921012 0.00000000
0.57544594 0.60230209 0.00000000
0.65296937 0.59262075 0.00000000
0.71434669 0.57875102 0.00000000
0.76464766 0.55821628 0.00000000
0.80669395 0.52619189 0.00000000
0.84221163 0.47155119 0.00000000
0.87233656 0.36854562 0.00000000
0.89786382 0.15221478 0.00000000
0.91938180 0.00000000 0.00000000
0.93734904 0.00000000 0.00000000
0.95214044 0.00000000 0.00000000
0.96407604 0.00000000 0.00000000
0.97343949 0.00000000 0.00000000
0.98049010 0.00000000 0.00000000
0.98547086 0.00000000 0.00000000
0.98861375 0.00000000 0.00000000
0.99016106 0.00000000 0.00000000
0.99117978 0.00000000 0.00000000
0.00000000 0.67984753 0.00000000
0.00000000 0.67960717 0.00000000
0.00000000 0.67936636 0.00000000
0.00000000 0.67912509 0.00000000
0.00000000 0.67888335 0.00000000
0.00000000 0.67864115 0.00000000
0.00000000 0.67833745 0.00000000
0.00000000 0.67791019 0.00000000
0.00000000 0.67734180 0.00000000
0.00000000 0.67658465 0.00000000
0.00000000 0.67557433 0.00000000
0.00000000 0.67422302 0.00000000
0.00000000 0.67241001 0.00000000
0.21996771 0.66996727 0.00000000
0.39794370 0.66665718 0.00000000
0.53733309 0.66213649 0.00000000
0.63159921 0.65589503 0.00000000
0.70161409 0.64714486 0.00000000
0.75679847 0.63460370 0.00000000
0.80176093 0.61602608 0.00000000
0.83908029 0.58703681 0.00000000
0.87034214 0.53755439 0.00000000
0.89659581 0.43608980 0.00000000
0.91858078 0.19541373 0.00000000
0.93684859 0.00000000 0.00000000
0.95183287 0.00000000 0.00000000
0.96389137 0.00000000 0.00000000
0.97333227 0.00000000 0.00000000
0.98043092 0.00000000 0.00000000
0.98544080 0.00000000 0.00000000
0.98860079 0.00000000 0.00000000
0.99015673 0.00000000 0.00000000
0.99117652 0.00000000 0.00000000
0.00000000 0.72577718 0.00000000
0.00000000 0.72561401 0.00000000
0.00000000 0.72545060 0.00000000
0.00000000 0.72528696 0.00000000
0.00000000 0.72512308 0.00000000
0.00000000 0.72495895 0.00000000
0.00000000 0.72475326 0.00000000
0.00000000 0.72446409 0.00000000
0.00000000 0.72407976 0.00000000
0.00000000 0.72356844 0.00000000
0.00000000 0.72288729 0.00000000
0.00000000 0.72197831 0.00000000
0.00000000 0.72076244 0.00000000
0.00000000 0.71913094 0.00000000
0.26994763 0.71693239 0.00000000
0.46803713 0.71395256 0.00000000
0.59710467 0.70988175 0.00000000
0.68234098 0.70425925 0.00000000
0.74537524 0.69637287 0.00000000
0.79476467 0.68506222 0.00000000
0.83471734 0.66829289 0.00000000
0.86759795 0.64209653 0.00000000
0.89486688 0.59732427 0.00000000
0.91749583 0.50539796 0.00000000
0.93617408 0.24285568 0.00000000
0.95141983 0.00000000 0.00000000
0.96364406 0.00000000 0.00000000
0.97318897 0.00000000 0.00000000
0.98035193 0.00000000 0.00000000
0.98540071 0.00000000 0.00000000
0.98858350 0.00000000 0.00000000
0.99015099 0.00000000 0.00000000
0.99117220 0.00000000 0.00000000
0.00000000 0.76701469 0.00000000
0.00000000 0.76690442 0.00000000
0.00000000 0.76679403 0.00000000
0.00000000 0.76668351 0.00000000
0.00000000 0.76657287 0.00000000
0.00000000 0.76646211 0.00000000
0.00000000 0.76632334 0.00000000
0.00000000 0.76612837 0.00000000
0.00000000 0.76586941 0.00000000
0.00000000 0.76552522 0.00000000
0.00000000 0.76506728 0.00000000
0.00000000 0.76445720 0.00000000
0.00000000 0.76364299 0.00000000
0.00000000 0.76255376 0.00000000
0.00000000 0.76109195 0.00000000
0.32557006 0.75912166 0.00000000
0.53434346 0.75645046 0.00000000
0.65118480 0.75279993 0.00000000
0.72805779 0.74775542 0.00000000
0.78456861 0.74067509 0.00000000
0.82852195 0.73051154 0.00000000
0.86377023 0.71542516 0.00000000
0.89248565 0.69182089 0.00000000
0.91601517 0.65139640 0.00000000
0.93525972 0.56820697 0.00000000
0.95086268 0.29544714 0.00000000
0.96331167 0.00000000 0.00000000
0.97299690 0.00000000 0.00000000
0.98024624 0.00000000 0.00000000
0.98534713 0.00000000 0.00000000
0.98856040 0.00000000 0.00000000
0.99014337 0.00000000 0.00000000
0.99116645 0.00000000 0.00000000
0.00000000 0.80385182 0.00000000
0.00000000 0.80377771 0.00000000
0.00000000 0.80370354 0.00000000
0.00000000 0.80362931 0.00000000
0.00000000 0.80355501 0.00000000
0.00000000 0.80348065 0.00000000
0.00000000 0.80338752 0.00000000
0.00000000 0.80325671 0.00000000
0.00000000 0.80308307 0.00000000
0.00000000 0.80285245 0.00000000
0.00000000 0.80254590 0.00000000
0.00000000 0.80213803 0.00000000
0.00000000 0.80159460 0.00000000
0.00000000 0.80086925 0.00000000
0.00000000 0.79989876 0.00000000
0.00000000 0.79859606 0.00000000
0.38780063 0.79683978 0.00000000
0.59439771 0.79445790 0.00000000
0.70000562 0.79120128 0.00000000
0.76908230 0.78669835 0.00000000
0.81947794 0.78037300 0.00000000
0.85832684 0.77128322 0.00000000
0.88915983 0.75777065 0.00000000
0.91397344 0.73658599 0.00000000
0.93401047 0.70020527 0.00000000
0.95010662 0.62506590 0.00000000
0.96286285 0.35412451 0.00000000
0.97273846 0.00000000 0.00000000
0.98010441 0.00000000 0.00000000
0.98527533 0.00000000 0.00000000
0.98852944 0.00000000 0.00000000
0.99013324 0.00000000 0.00000000
0.99115883 0.00000000 0.00000000
0.00000000 0.83655562 0.00000000
0.00000000 0.83650615 0.00000000
0.00000000 0.83645665 0.00000000
0.00000000 0.83640712 0.00000000
0.00000000 0.83635755 0.00000000
0.00000000 0.83630795 0.00000000
0.00000000 0.83624585 0.00000000
0.00000000 0.83615864 0.00000000
0.00000000 0.83604293 0.00000000
0.00000000 0.83588933 0.00000000
0.00000000 0.83568531 0.00000000
0.00000000 0.83541411 0.00000000
0.00000000 0.83505324 0.00000000
0.00000000 0.83457238 0.00000000
0.00000000 0.83393047 0.00000000
0.00000000 0.83307147 0.00000000
0.00000000 0.83191815 0.00000000
0.45732732 0.83036279 0.00000000
0.64873779 0.82825252 0.00000000
0.74393116 0.82536567 0.00000000
0.80570996 0.82137110 0.00000000
0.85036468 0.81575430 0.00000000
0.88442180 0.80767196 0.00000000
0.91111723 0.79563521 0.00000000
0.93228529 0.77671729 0.00000000
0.94907218 0.74411646 0.00000000
0.96225292 0.67645483 0.00000000
0.97238898 0.41989146 0.00000000
0.97991325 0.00000000 0.00000000
0.98517876 0.00000000 0.00000000
0.98848779 0.00000000 0.00000000
0.99011978 0.00000000 0.00000000
0.99114871 0.00000000 0.00000000
0.00000000 0.86537594 0.00000000
0.00000000 0.86534318 0.00000000
0.00000000 0.86531041 0.00000000
0.00000000 0.86527762 0.00000000
0.00000000 0.86524481 0.00000000
0.00000000 0.86521199 0.00000000
0.00000000 0.86517090 0.00000000
0.00000000 0.86511321 0.00000000
0.00000000 0.86503669 0.00000000
0.00000000 0.86493516 0.00000000
0.00000000 0.86480036 0.00000000
0.00000000 0.86462132 0.00000000
0.00000000 0.86438330 0.00000000
0.00000000 0.86406655 0.00000000
0.00000000 0.86364445 0.00000000
0.00000000 0.86308087 0.00000000
0.00000000 0.86232654 0.00000000
0.00000000 0.86131348 0.00000000
0.52464379 0.85994675 0.00000000
0.69779978 0.85809151 0.00000000
0.78327853 0.85555186 0.00000000
0.83821038 0.85203462 0.00000000
0.87747472 0.84708316 0.00000000
0.90703946 0.83994680 0.00000000
0.92986713 0.82929570 0.00000000
0.94764096 0.81250525 0.00000000
0.96141687 0.78344815 0.00000000
0.97191311 0.72277050 0.00000000
