Slog3_to_BT601_PAL.cube
TITLE "Slog3_to_BT601_PAL"
LUT_3D_SIZE 33
# Slog3 to BT601 PAL SDR by Francesco Bucciantini
0.00000000 0.00000000 0.00000000
0.00000000 0.00000000 0.00000000
0.01441279 0.00000000 0.00000000
0.05667843 0.00000000 0.00000000
0.09823203 0.00000000 0.00000000
0.13246807 0.00000000 0.00000000
0.16808910 0.00000000 0.00000000
0.20996724 0.00000000 0.00000000
0.25656904 0.00000000 0.00000000
0.30870396 0.00000000 0.00000000
0.36725111 0.00000000 0.00000000
0.43318056 0.00000000 0.00000000
0.50244192 0.00000000 0.00000000
0.56738669 0.00000000 0.00000000
0.62797058 0.00000000 0.00000000
0.68419511 0.00000000 0.00000000
0.73602069 0.00000000 0.00000000
0.78337820 0.00000000 0.00000000
0.82617716 0.00000000 0.00000000
0.86431165 0.00000000 0.00000000
0.89766445 0.00000000 0.00000000
0.92611018 0.00000000 0.00000000
0.94951751 0.00000000 0.00000000
0.96775077 0.00000000 0.00000000
0.98067116 0.00000000 0.00000000
0.98813761 0.00000000 0.00000000
0.99035412 0.00000000 0.00000000
0.99136987 0.00000000 0.00000000
0.99238550 0.00000000 0.00000000
0.99340105 0.00000000 0.00000000
0.99441653 0.00000000 0.00000000
0.99543196 0.00000000 0.00000000
0.99644735 0.00000000 0.00000000
0.00000000 0.00000000 0.00000000
0.00000000 0.00000000 0.00000000
0.00000000 0.00000000 0.00000000
0.04007467 0.00000000 0.00000000
0.08258404 0.00000000 0.00000000
0.11979858 0.00000000 0.00000000
0.15755419 0.00000000 0.00000000
0.20121088 0.00000000 0.00000000
0.24922918 0.00000000 0.00000000
0.30251525 0.00000000 0.00000000
0.36201121 0.00000000 0.00000000
0.42873064 0.00000000 0.00000000
0.49920927 0.00000000 0.00000000
0.56511080 0.00000000 0.00000000
0.62637456 0.00000000 0.00000000
0.68308210 0.00000000 0.00000000
0.73525026 0.00000000 0.00000000
0.78284999 0.00000000 0.00000000
0.82581947 0.00000000 0.00000000
0.86407328 0.00000000 0.00000000
0.89750896 0.00000000 0.00000000
0.92601173 0.00000000 0.00000000
0.94945784 0.00000000 0.00000000
0.96771707 0.00000000 0.00000000
0.98065451 0.00000000 0.00000000
0.98813183 0.00000000 0.00000000
0.99035317 0.00000000 0.00000000
0.99136916 0.00000000 0.00000000
0.99238496 0.00000000 0.00000000
0.99340064 0.00000000 0.00000000
0.99441622 0.00000000 0.00000000
0.99543173 0.00000000 0.00000000
0.99644718 0.00000000 0.00000000
0.00000000 0.00000000 0.00000000
0.00000000 0.00000000 0.00000000
0.00000000 0.00000000 0.00000000
0.02347092 0.00000000 0.00000000
0.06573656 0.00000000 0.00000000
0.10616190 0.00000000 0.00000000
0.14646199 0.00000000 0.00000000
0.19213064 0.00000000 0.00000000
0.24169518 0.00000000 0.00000000
0.29620770 0.00000000 0.00000000
0.35669749 0.00000000 0.00000000
0.42423437 0.00000000 0.00000000
0.49592186 0.00000000 0.00000000
0.56280567 0.00000000 0.00000000
0.62476289 0.00000000 0.00000000
0.68196073 0.00000000 0.00000000
0.73447536 0.00000000 0.00000000
0.78231941 0.00000000 0.00000000
0.82546052 0.00000000 0.00000000
0.86383425 0.00000000 0.00000000
0.89735314 0.00000000 0.00000000
0.92591310 0.00000000 0.00000000
0.94939808 0.00000000 0.00000000
0.96768333 0.00000000 0.00000000
0.98063783 0.00000000 0.00000000
0.98812605 0.00000000 0.00000000
0.99035223 0.00000000 0.00000000
0.99136844 0.00000000 0.00000000
0.99238443 0.00000000 0.00000000
0.99340024 0.00000000 0.00000000
0.99441592 0.00000000 0.00000000
0.99543150 0.00000000 0.00000000
0.99644700 0.00000000 0.00000000
0.00000000 0.02551524 0.00000000
0.00000000 0.02134334 0.00000000
0.00000000 0.01717144 0.00000000
0.00686717 0.01299953 0.00000000
0.04913280 0.00882763 0.00000000
0.09131565 0.00465573 0.00000000
0.13472045 0.00000000 0.00000000
0.18269031 0.00000000 0.00000000
0.23395183 0.00000000 0.00000000
0.28977464 0.00000000 0.00000000
0.35130693 0.00000000 0.00000000
0.41969038 0.00000000 0.00000000
0.49257801 0.00000000 0.00000000
0.56047063 0.00000000 0.00000000
0.62313532 0.00000000 0.00000000
0.68083088 0.00000000 0.00000000
0.73369596 0.00000000 0.00000000
0.78178644 0.00000000 0.00000000
0.82510031 0.00000000 0.00000000
0.86359456 0.00000000 0.00000000
0.89719697 0.00000000 0.00000000
0.92581430 0.00000000 0.00000000
0.94933823 0.00000000 0.00000000
0.96764954 0.00000000 0.00000000
0.98062113 0.00000000 0.00000000
0.98812025 0.00000000 0.00000000
0.99035129 0.00000000 0.00000000
0.99136773 0.00000000 0.00000000
0.99238389 0.00000000 0.00000000
0.99339983 0.00000000 0.00000000
0.99441561 0.00000000 0.00000000
0.99543127 0.00000000 0.00000000
0.99644683 0.00000000 0.00000000
0.00000000 0.05739314 0.00000000
0.00000000 0.05322124 0.00000000
0.00000000 0.04904934 0.00000000
0.00000000 0.04487744 0.00000000
0.03252905 0.04070554 0.00000000
0.07479469 0.03653364 0.00000000
0.12220949 0.03131374 0.00000000
0.17284649 0.02399154 0.00000000
0.22598186 0.01428884 0.00000000
0.28320876 0.00143170 0.00000000
0.34583633 0.00000000 0.00000000
0.41509721 0.00000000 0.00000000
0.48917594 0.00000000 0.00000000
0.55810497 0.00000000 0.00000000
0.62149155 0.00000000 0.00000000
0.67969245 0.00000000 0.00000000
0.73291201 0.00000000 0.00000000
0.78125106 0.00000000 0.00000000
0.82473882 0.00000000 0.00000000
0.86335420 0.00000000 0.00000000
0.89704045 0.00000000 0.00000000
0.92571532 0.00000000 0.00000000
0.94927829 0.00000000 0.00000000
0.96761570 0.00000000 0.00000000
0.98060441 0.00000000 0.00000000
0.98811445 0.00000000 0.00000000
0.99035034 0.00000000 0.00000000
0.99136702 0.00000000 0.00000000
0.99238335 0.00000000 0.00000000
0.99339943 0.00000000 0.00000000
0.99441531 0.00000000 0.00000000
0.99543104 0.00000000 0.00000000
0.99644665 0.00000000 0.00000000
0.00000000 0.08930933 0.00000000
0.00000000 0.08529706 0.00000000
0.00000000 0.08092724 0.00000000
0.00000000 0.07675534 0.00000000
0.01592530 0.07258344 0.00000000
0.05819093 0.06841154 0.00000000
0.10876743 0.06319164 0.00000000
0.16254644 0.05586945 0.00000000
0.21776552 0.04616674 0.00000000
0.27650205 0.03330960 0.00000000
0.34028224 0.01627250 0.00000000
0.41045332 0.00000000 0.00000000
0.48571384 0.00000000 0.00000000
0.55570799 0.00000000 0.00000000
0.61983131 0.00000000 0.00000000
0.67854533 0.00000000 0.00000000
0.73212346 0.00000000 0.00000000
0.78071326 0.00000000 0.00000000
0.82437606 0.00000000 0.00000000
0.86311317 0.00000000 0.00000000
0.89688358 0.00000000 0.00000000
0.92561616 0.00000000 0.00000000
0.94921826 0.00000000 0.00000000
0.96758182 0.00000000 0.00000000
0.98058766 0.00000000 0.00000000
0.98810863 0.00000000 0.00000000
0.99034940 0.00000000 0.00000000
0.99136631 0.00000000 0.00000000
0.99238282 0.00000000 0.00000000
0.99339902 0.00000000 0.00000000
0.99441500 0.00000000 0.00000000
0.99543080 0.00000000 0.00000000
0.99644648 0.00000000 0.00000000
0.00000000 0.12335909 0.00000000
0.00000000 0.12009779 0.00000000
0.00000000 0.11677606 0.00000000
0.00000000 0.11339062 0.00000000
0.00000000 0.10993790 0.00000000
0.03741624 0.10641400 0.00000000
0.09028222 0.10189802 0.00000000
0.14891547 0.09534581 0.00000000
0.20710315 0.08622333 0.00000000
0.26789861 0.07319539 0.00000000
0.33320969 0.05615829 0.00000000
0.40456898 0.03358228 0.00000000
0.48129453 0.00366663 0.00000000
0.55266361 0.00000000 0.00000000
0.61773038 0.00000000 0.00000000
0.67709762 0.00000000 0.00000000
0.73113028 0.00000000 0.00000000
0.78003690 0.00000000 0.00000000
0.82392036 0.00000000 0.00000000
0.86281065 0.00000000 0.00000000
0.89668682 0.00000000 0.00000000
0.92549183 0.00000000 0.00000000
0.94914302 0.00000000 0.00000000
0.96753937 0.00000000 0.00000000
0.98056668 0.00000000 0.00000000
0.98810134 0.00000000 0.00000000
0.99034822 0.00000000 0.00000000
0.99136542 0.00000000 0.00000000
0.99238215 0.00000000 0.00000000
0.99339852 0.00000000 0.00000000
0.99441462 0.00000000 0.00000000
0.99543052 0.00000000 0.00000000
0.99644626 0.00000000 0.00000000
0.00000000 0.16245188 0.00000000
0.00000000 0.15978360 0.00000000
0.00000000 0.15708126 0.00000000
0.00000000 0.15434361 0.00000000
0.00000000 0.15156931 0.00000000
0.00827462 0.14875696 0.00000000
0.06115758 0.14518221 0.00000000
0.12808702 0.14005720 0.00000000
0.19133276 0.13305171 0.00000000
0.25539728 0.12334993 0.00000000
0.32304348 0.10963559 0.00000000
0.39617026 0.08955675 0.00000000
0.47492423 0.05961625 0.00000000
0.54830562 0.01997476 0.00000000
0.61473795 0.00000000 0.00000000
0.67504317 0.00000000 0.00000000
0.72972468 0.00000000 0.00000000
0.77908163 0.00000000 0.00000000
0.82327771 0.00000000 0.00000000
0.86238451 0.00000000 0.00000000
0.89640988 0.00000000 0.00000000
0.92531696 0.00000000 0.00000000
0.94903724 0.00000000 0.00000000
0.96747969 0.00000000 0.00000000
0.98053719 0.00000000 0.00000000
0.98809109 0.00000000 0.00000000
0.99034656 0.00000000 0.00000000
0.99136417 0.00000000 0.00000000
0.99238120 0.00000000 0.00000000
0.99339780 0.00000000 0.00000000
0.99441408 0.00000000 0.00000000
0.99543011 0.00000000 0.00000000
0.99644596 0.00000000 0.00000000
0.00000000 0.20524421 0.00000000
0.00000000 0.20303116 0.00000000
0.00000000 0.20079812 0.00000000
0.00000000 0.19854455 0.00000000
0.00000000 0.19626993 0.00000000
0.00000000 0.19397369 0.00000000
0.02254178 0.19106927 0.00000000
0.09622739 0.18693418 0.00000000
0.16866352 0.18133945 0.00000000
0.23795070 0.17370859 0.00000000
0.30909237 0.16317573 0.00000000
0.38476528 0.14836578 0.00000000
0.46615646 0.12688761 0.00000000
0.54236648 0.09383979 0.00000000
0.61068846 0.04158481 0.00000000
0.67227717 0.00000000 0.00000000
0.72783936 0.00000000 0.00000000
0.77780390 0.00000000 0.00000000
0.82241991 0.00000000 0.00000000
0.86181658 0.00000000 0.00000000
0.89604124 0.00000000 0.00000000
0.92508437 0.00000000 0.00000000
0.94889663 0.00000000 0.00000000
0.96740040 0.00000000 0.00000000
0.98049801 0.00000000 0.00000000
0.98807745 0.00000000 0.00000000
0.99034437 0.00000000 0.00000000
0.99136251 0.00000000 0.00000000
0.99237995 0.00000000 0.00000000
0.99339686 0.00000000 0.00000000
0.99441337 0.00000000 0.00000000
0.99542957 0.00000000 0.00000000
0.99644555 0.00000000 0.00000000
0.00000000 0.25257659 0.00000000
0.00000000 0.25072432 0.00000000
0.00000000 0.24885999 0.00000000
0.00000000 0.24698335 0.00000000
0.00000000 0.24509420 0.00000000
0.00000000 0.24319228 0.00000000
0.00000000 0.24079424 0.00000000
0.04555301 0.23739512 0.00000000
0.13440672 0.23282518 0.00000000
0.21297254 0.22664832 0.00000000
0.28965468 0.21823576 0.00000000
0.36912611 0.20664929 0.00000000
0.45391631 0.19041441 0.00000000
0.53419035 0.16701149 0.00000000
0.60516801 0.13144573 0.00000000
0.66853279 0.07022047 0.00000000
0.72530018 0.00000000 0.00000000
0.77608951 0.00000000 0.00000000
0.82127219 0.00000000 0.00000000
0.86105829 0.00000000 0.00000000
0.89554978 0.00000000 0.00000000
0.92477466 0.00000000 0.00000000
0.94870954 0.00000000 0.00000000
0.96729494 0.00000000 0.00000000
0.98044590 0.00000000 0.00000000
0.98805929 0.00000000 0.00000000
0.99034145 0.00000000 0.00000000
0.99136032 0.00000000 0.00000000
0.99237830 0.00000000 0.00000000
0.99339561 0.00000000 0.00000000
0.99441243 0.00000000 0.00000000
0.99542886 0.00000000 0.00000000
0.99644502 0.00000000 0.00000000
0.00000000 0.30530491 0.00000000
0.00000000 0.30374481 0.00000000
0.00000000 0.30217728 0.00000000
0.00000000 0.30060223 0.00000000
0.00000000 0.29901956 0.00000000
0.00000000 0.29742915 0.00000000
0.00000000 0.29542818 0.00000000
0.00000000 0.29260024 0.00000000
0.07604539 0.28881401 0.00000000
0.17552254 0.28372614 0.00000000
0.26190305 0.27685403 0.00000000
0.34736218 0.26750396 0.00000000
0.43651393 0.25464562 0.00000000
0.52277311 0.23667114 0.00000000
0.59756513 0.21086514 0.00000000
0.66342596 0.17196213 0.00000000
0.72186129 0.10630172 0.00000000
0.77377951 0.00000000 0.00000000
0.81973155 0.00000000 0.00000000
0.86004324 0.00000000 0.00000000
0.89489329 0.00000000 0.00000000
0.92436156 0.00000000 0.00000000
0.94846026 0.00000000 0.00000000
0.96715453 0.00000000 0.00000000
0.98037652 0.00000000 0.00000000
0.98803506 0.00000000 0.00000000
0.99033759 0.00000000 0.00000000
0.99135740 0.00000000 0.00000000
0.99237610 0.00000000 0.00000000
0.99339396 0.00000000 0.00000000
0.99441118 0.00000000 0.00000000
0.99542792 0.00000000 0.00000000
0.99644430 0.00000000 0.00000000
0.00000000 0.36433912 0.00000000
0.00000000 0.36301921 0.00000000
0.00000000 0.36169468 0.00000000
0.00000000 0.36036549 0.00000000
0.00000000 0.35903157 0.00000000
0.00000000 0.35769289 0.00000000
0.00000000 0.35601114 0.00000000
0.00000000 0.35363919 0.00000000
0.00000000 0.35047249 0.00000000
0.11323484 0.34623380 0.00000000
0.22051620 0.34053990 0.00000000
0.31635038 0.33285305 0.00000000
0.41205836 0.32240189 0.00000000
0.50649836 0.30804453 0.00000000
0.58694274 0.28800779 0.00000000
0.65638849 0.25932152 0.00000000
0.71716822 0.21631249 0.00000000
0.77064911 0.14478138 0.00000000
0.81765446 0.00000000 0.00000000
0.85867992 0.00000000 0.00000000
0.89401400 0.00000000 0.00000000
0.92380940 0.00000000 0.00000000
0.94812754 0.00000000 0.00000000
0.96696727 0.00000000 0.00000000
0.98028400 0.00000000 0.00000000
0.98800270 0.00000000 0.00000000
0.99033246 0.00000000 0.00000000
0.99135354 0.00000000 0.00000000
0.99237319 0.00000000 0.00000000
0.99339176 0.00000000 0.00000000
0.99440952 0.00000000 0.00000000
0.99542667 0.00000000 0.00000000
0.99644336 0.00000000 0.00000000
0.00000000 0.43067087 0.00000000
0.00000000 0.42955059 0.00000000
0.00000000 0.42842740 0.00000000
0.00000000 0.42730128 0.00000000
0.00000000 0.42617220 0.00000000
0.00000000 0.42504015 0.00000000
0.00000000 0.42361950 0.00000000
0.00000000 0.42161870 0.00000000
0.00000000 0.41895285 0.00000000
0.00000000 0.41539427 0.00000000
0.15262054 0.41063188 0.00000000
0.27027367 0.40423614 0.00000000
0.37726052 0.39560485 0.00000000
0.48257334 0.38387564 0.00000000
0.57179076 0.36777476 0.00000000
0.64654825 0.34533139 0.00000000
0.71069569 0.31326341 0.00000000
0.76637367 0.26536797 0.00000000
0.81483750 0.18649626 0.00000000
0.85684047 0.01046199 0.00000000
0.89283209 0.00000000 0.00000000
0.92306922 0.00000000 0.00000000
0.94768238 0.00000000 0.00000000
0.96671702 0.00000000 0.00000000
0.98016038 0.00000000 0.00000000
0.98795932 0.00000000 0.00000000
0.99032566 0.00000000 0.00000000
0.99134841 0.00000000 0.00000000
0.99236932 0.00000000 0.00000000
0.99338885 0.00000000 0.00000000
0.99440732 0.00000000 0.00000000
0.99542502 0.00000000 0.00000000
0.99644211 0.00000000 0.00000000
0.00000000 0.50058783 0.00000000
0.00000000 0.49977287 0.00000000
0.00000000 0.49895447 0.00000000
0.00000000 0.49813260 0.00000000
0.00000000 0.49730724 0.00000000
0.00000000 0.49647837 0.00000000
0.00000000 0.49543628 0.00000000
0.00000000 0.49396503 0.00000000
0.00000000 0.49199823 0.00000000
0.00000000 0.48936117 0.00000000
0.01222383 0.48581127 0.00000000
0.19538294 0.48100647 0.00000000
0.32569595 0.47445450 0.00000000
0.44564381 0.46542688 0.00000000
0.54949774 0.45280443 0.00000000
0.63249731 0.43484424 0.00000000
0.70163565 0.40961812 0.00000000
0.76047088 0.37362568 0.00000000
0.81098619 0.32001563 0.00000000
0.85434328 0.23234143 0.00000000
0.89123575 0.02897936 0.00000000
0.92207320 0.00000000 0.00000000
0.94708489 0.00000000 0.00000000
0.96638165 0.00000000 0.00000000
0.97999475 0.00000000 0.00000000
0.98790099 0.00000000 0.00000000
0.99031662 0.00000000 0.00000000
0.99134161 0.00000000 0.00000000
0.99236420 0.00000000 0.00000000
0.99338498 0.00000000 0.00000000
0.99440441 0.00000000 0.00000000
0.99542282 0.00000000 0.00000000
0.99644046 0.00000000 0.00000000
0.00000000 0.56604901 0.00000000
0.00000000 0.56547561 0.00000000
0.00000000 0.56490037 0.00000000
0.00000000 0.56432327 0.00000000
0.00000000 0.56374432 0.00000000
0.00000000 0.56316350 0.00000000
0.00000000 0.56243411 0.00000000
0.00000000 0.56140597 0.00000000
0.00000000 0.56003447 0.00000000
0.00000000 0.55820089 0.00000000
0.00000000 0.55574223 0.00000000
0.03188061 0.55243210 0.00000000
0.24242639 0.54795119 0.00000000
0.38774028 0.54183970 0.00000000
0.51505505 0.53341699 0.00000000
0.61179629 0.52163689 0.00000000
0.68868030 0.50480603 0.00000000
0.75219673 0.47997560 0.00000000
0.80566170 0.44142485 0.00000000
0.85092454 0.38119858 0.00000000
0.88906563 0.28318774 0.00000000
0.92072598 0.05351688 0.00000000
0.94627952 0.00000000 0.00000000
0.96593056 0.00000000 0.00000000
0.97977204 0.00000000 0.00000000
0.98782219 0.00000000 0.00000000
0.99030461 0.00000000 0.00000000
0.99133257 0.00000000 0.00000000
0.99235740 0.00000000 0.00000000
0.99337986 0.00000000 0.00000000
0.99440055 0.00000000 0.00000000
0.99541991 0.00000000 0.00000000
0.99643826 0.00000000 0.00000000
0.00000000 0.62700291 0.00000000
0.00000000 0.62660098 0.00000000
0.00000000 0.62619806 0.00000000
0.00000000 0.62579416 0.00000000
0.00000000 0.62538926 0.00000000
0.00000000 0.62498337 0.00000000
0.00000000 0.62447410 0.00000000
0.00000000 0.62375707 0.00000000
0.00000000 0.62280210 0.00000000
0.00000000 0.62152810 0.00000000
0.00000000 0.61982469 0.00000000
0.00000000 0.61754024 0.00000000
0.05792798 0.61446406 0.00000000
0.29463732 0.61029880 0.00000000
0.45714715 0.60461594 0.00000000
0.57975856 0.59678056 0.00000000
0.66955730 0.58581577 0.00000000
0.74034301 0.57013858 0.00000000
0.79818460 0.54698970 0.00000000
0.84618962 0.51101334 0.00000000
0.88608927 0.44986432 0.00000000
0.91889097 0.33993751 0.00000000
0.94518778 0.08620321 0.00000000
0.96532082 0.00000000 0.00000000
0.97947118 0.00000000 0.00000000
0.98771508 0.00000000 0.00000000
0.99028863 0.00000000 0.00000000
0.99132056 0.00000000 0.00000000
0.99234836 0.00000000 0.00000000
0.99337306 0.00000000 0.00000000
0.99439543 0.00000000 0.00000000
0.99541605 0.00000000 0.00000000
0.99643535 0.00000000 0.00000000
0.00000000 0.68349318 0.00000000
0.00000000 0.68321298 0.00000000
0.00000000 0.68293226 0.00000000
0.00000000 0.68265101 0.00000000
0.00000000 0.68236923 0.00000000
0.00000000 0.68208691 0.00000000
0.00000000 0.68173293 0.00000000
0.00000000 0.68123497 0.00000000
0.00000000 0.68057255 0.00000000
0.00000000 0.67969024 0.00000000
0.00000000 0.67851304 0.00000000
0.00000000 0.67693881 0.00000000
0.00000000 0.67482717 0.00000000
0.09229190 0.67198293 0.00000000
0.35293805 0.66813033 0.00000000
0.52578705 0.66287157 0.00000000
0.63988817 0.65561638 0.00000000
0.72280239 0.64545510 0.00000000
0.78744680 0.63091098 0.00000000
0.83952467 0.60940489 0.00000000
0.88195718 0.57592184 0.00000000
0.91636783 0.51889247 0.00000000
0.94369645 0.40355961 0.00000000
0.96449121 0.12332861 0.00000000
0.97906217 0.00000000 0.00000000
0.98756834 0.00000000 0.00000000
0.99026735 0.00000000 0.00000000
0.99130459 0.00000000 0.00000000
0.99233635 0.00000000 0.00000000
0.99336402 0.00000000 0.00000000
0.99438862 0.00000000 0.00000000
0.99541092 0.00000000 0.00000000
0.99643149 0.00000000 0.00000000
0.00000000 0.73551006 0.00000000
0.00000000 0.73531616 0.00000000
0.00000000 0.73512197 0.00000000
0.00000000 0.73492751 0.00000000
0.00000000 0.73473276 0.00000000
0.00000000 0.73453772 0.00000000
0.00000000 0.73429330 0.00000000
0.00000000 0.73394967 0.00000000
0.00000000 0.73349298 0.00000000
0.00000000 0.73288540 0.00000000
0.00000000 0.73207605 0.00000000
0.00000000 0.73099603 0.00000000
0.00000000 0.72955145 0.00000000
0.00000000 0.72761321 0.00000000
0.13022029 0.72500158 0.00000000
0.41832134 0.72146237 0.00000000
0.58974747 0.71662834 0.00000000
0.69549749 0.70995352 0.00000000
0.77150601 0.70059467 0.00000000
0.82992298 0.68717928 0.00000000
0.87612231 0.66730332 0.00000000
0.91285321 0.63627832 0.00000000
0.94163808 0.58326033 0.00000000
0.96335250 0.47375467 0.00000000
0.97850156 0.16315263 0.00000000
0.98736530 0.00000000 0.00000000
0.99023895 0.00000000 0.00000000
0.99128331 0.00000000 0.00000000
0.99232038 0.00000000 0.00000000
0.99335202 0.00000000 0.00000000
0.99437959 0.00000000 0.00000000
0.99540412 0.00000000 0.00000000
0.99642636 0.00000000 0.00000000
0.00000000 0.78300569 0.00000000
0.00000000 0.78287278 0.00000000
0.00000000 0.78273971 0.00000000
0.00000000 0.78260650 0.00000000
0.00000000 0.78247313 0.00000000
0.00000000 0.78233962 0.00000000
0.00000000 0.78217235 0.00000000
0.00000000 0.78193731 0.00000000
0.00000000 0.78162515 0.00000000
0.00000000 0.78121022 0.00000000
0.00000000 0.78065815 0.00000000
0.00000000 0.77992263 0.00000000
0.00000000 0.77894094 0.00000000
0.00000000 0.77762753 0.00000000
0.00000000 0.77586466 0.00000000
0.17097681 0.77348824 0.00000000
0.48885103 0.77026579 0.00000000
0.64914731 0.76586079 0.00000000
0.74658366 0.75977176 0.00000000
0.81560884 0.75122187 0.00000000
0.86768120 0.73894238 0.00000000
0.90786844 0.72070239 0.00000000
0.93875663 0.69213268 0.00000000
0.96177099 0.64308559 0.00000000
0.97772469 0.54118685 0.00000000
0.98708067 0.20662392 0.00000000
0.99020098 0.00000000 0.00000000
0.99125492 0.00000000 0.00000000
0.99229911 0.00000000 0.00000000
0.99333605 0.00000000 0.00000000
0.99436759 0.00000000 0.00000000
0.99539509 0.00000000 0.00000000
0.99641956 0.00000000 0.00000000
0.00000000 0.82590482 0.00000000
0.00000000 0.82581483 0.00000000
0.00000000 0.82572475 0.00000000
0.00000000 0.82563459 0.00000000
0.00000000 0.82554436 0.00000000
0.00000000 0.82545404 0.00000000
0.00000000 0.82534093 0.00000000
0.00000000 0.82518205 0.00000000
0.00000000 0.82497113 0.00000000
0.00000000 0.82469097 0.00000000
0.00000000 0.82431855 0.00000000
0.00000000 0.82382296 0.00000000
0.00000000 0.82316256 0.00000000
0.00000000 0.82228090 0.00000000
0.00000000 0.82110093 0.00000000
0.00000000 0.81951644 0.00000000
0.21551528 0.81737920 0.00000000
0.55534910 0.81447876 0.00000000
0.70402971 0.81050975 0.00000000
0.79310364 0.80501566 0.00000000
0.85502735 0.79728670 0.00000000
0.90061549 0.78615854 0.00000000
0.93464346 0.76957353 0.00000000
0.95953916 0.74347950 0.00000000
0.97663251 0.69841060 0.00000000
0.98667507 0.60400875 0.00000000
0.99015004 0.25461748 0.00000000
0.99121696 0.00000000 0.00000000
0.99227072 0.00000000 0.00000000
0.99331478 0.00000000 0.00000000
0.99435162 0.00000000 0.00000000
0.99538308 0.00000000 0.00000000
0.99641053 0.00000000 0.00000000
0.00000000 0.86411244 0.00000000
0.00000000 0.86405247 0.00000000
0.00000000 0.86399246 0.00000000
0.00000000 0.86393240 0.00000000
0.00000000 0.86387231 0.00000000
0.00000000 0.86381217 0.00000000
0.00000000 0.86373687 0.00000000
0.00000000 0.86363113 0.00000000
0.00000000 0.86349081 0.00000000
0.00000000 0.86330453 0.00000000
0.00000000 0.86305706 0.00000000
0.00000000 0.86272804 0.00000000
0.00000000 0.86229013 0.00000000
0.00000000 0.86170644 0.00000000
0.00000000 0.86092693 0.00000000
0.00000000 0.85988319 0.00000000
0.00000000 0.85848082 0.00000000
0.26472342 0.85658772 0.00000000
0.61723277 0.85401593 0.00000000
0.75438440 0.85049176 0.00000000
0.83498559 0.84560447 0.00000000
0.88966044 0.83871236 0.00000000
0.92860848 0.82875687 0.00000000
0.95632016 0.81385534 0.00000000
0.97506727 0.79027392 0.00000000
0.98608495 0.74922458 0.00000000
0.99008140 0.66230953 0.00000000
0.99116602 0.30801314 0.00000000
0.99223276 0.00000000 0.00000000
0.99328639 0.00000000 0.00000000
0.99433035 0.00000000 0.00000000
0.99536712 0.00000000 0.00000000
0.99639853 0.00000000 0.00000000
0.00000000 0.89751920 0.00000000
0.00000000 0.89748008 0.00000000
0.00000000 0.89744095 0.00000000
0.00000000 0.89740179 0.00000000
0.00000000 0.89736261 0.00000000
0.00000000 0.89732340 0.00000000
0.00000000 0.89727432 0.00000000
0.00000000 0.89720542 0.00000000
0.00000000 0.89711401 0.00000000
0.00000000 0.89699269 0.00000000
0.00000000 0.89683162 0.00000000
0.00000000 0.89661761 0.00000000
0.00000000 0.89633302 0.00000000
0.00000000 0.89595415 0.00000000
0.00000000 0.89544898 0.00000000
0.00000000 0.89477401 0.00000000
0.00000000 0.89386971 0.00000000
0.00000000 0.89265370 0.00000000
0.31949839 0.89101044 0.00000000
0.67458328 0.88877491 0.00000000
0.80016304 0.88570582 0.00000000
0.87213687 0.88143916 0.00000000
0.91939432 0.87540265 0.00000000
0.95153461 0.86664547 0.00000000
0.97276583 0.85346274 0.00000000
0.98520369 0.83244284 0.00000000
0.98998803 0.79547885 0.00000000
0.99109741 0.71611148 0.00000000
0.99218184 0.36773957 0.00000000
0.99324844 0.00000000 0.00000000
0.99430197 0.00000000 0.00000000
