Slog3_to_BT601_NTSC.cube
TITLE "Slog3_to_BT601_NTSC"
LUT_3D_SIZE 9
# Slog3 to BT601 NTSC SDR by Francesco Bucciantini
0.00000000 0.00000000 0.00000000
0.11584876 0.00000000 0.00000000
0.27905511 0.00000000 0.00000000
0.53038036 0.00000000 0.00000000
0.75618949 0.00000000 0.00000000
0.90998175 0.00000000 0.00000000
0.98440854 0.00000000 0.00000000
0.99280269 0.00000000 0.00000000
0.99686437 0.00000000 0.00000000
0.00000000 0.06373581 0.00000000
0.03288109 0.04300302 0.00000000
0.24166840 0.01018274 0.00000000
0.51532676 0.00000000 0.00000000
0.75270292 0.00000000 0.00000000
0.90930277 0.00000000 0.00000000
0.98434792 0.00000000 0.00000000
0.99280019 0.00000000 0.00000000
0.99686356 0.00000000 0.00000000
0.00000000 0.21375068 0.00000000
0.00000000 0.20293647 0.00000000
0.16922441 0.18477734 0.00000000
0.48877422 0.11589469 0.00000000
0.74698252 0.00000000 0.00000000
0.90821304 0.00000000 0.00000000
0.98425105 0.00000000 0.00000000
0.99279623 0.00000000 0.00000000
0.99686228 0.00000000 0.00000000
0.00000000 0.44327664 0.00000000
0.00000000 0.43784273 0.00000000
0.00000000 0.42909743 0.00000000
0.37806815 0.40061186 0.00000000
0.72735312 0.29672177 0.00000000
0.90469242 0.00000000 0.00000000
0.98394158 0.00000000 0.00000000
0.99278385 0.00000000 0.00000000
0.99685827 0.00000000 0.00000000
0.00000000 0.69286889 0.00000000
0.00000000 0.69155741 0.00000000
0.00000000 0.68945707 0.00000000
0.00000000 0.68270829 0.00000000
0.64059829 0.65976759 0.00000000
0.89252523 0.55709898 0.00000000
0.98291456 0.00000000 0.00000000
0.99274542 0.00000000 0.00000000
0.99684590 0.00000000 0.00000000
0.00000000 0.87023738 0.00000000
0.00000000 0.86995974 0.00000000
0.00000000 0.86951835 0.00000000
0.00000000 0.86812668 0.00000000
0.00000000 0.86368632 0.00000000
0.83546754 0.84838689 0.00000000
0.97895496 0.77680348 0.00000000
0.99262429 0.00000000 0.00000000
0.99680748 0.00000000 0.00000000
0.00000000 0.97031869 0.00000000
0.00000000 0.97028089 0.00000000
0.00000000 0.97022092 0.00000000
0.00000000 0.97003287 0.00000000
0.00000000 0.96944328 0.00000000
0.00000000 0.96752840 0.00000000
0.95431815 0.96056852 0.00000000
0.99222292 0.92245899 0.00000000
0.99668637 0.00000000 0.00000000
0.00000000 0.99154267 0.00000000
0.00000000 0.99154182 0.00000000
0.00000000 0.99154048 0.00000000
0.00000000 0.99153630 0.00000000
0.00000000 0.99152337 0.00000000
0.00000000 0.99148321 0.00000000
0.00000000 0.99135649 0.00000000
0.99059675 0.99093517 0.00000000
0.99628513 0.98744275 0.00000000
0.00000000 0.99560492 0.00000000
0.00000000 0.99560465 0.00000000
0.00000000 0.99560421 0.00000000
0.00000000 0.99560286 0.00000000
0.00000000 0.99559868 0.00000000
0.00000000 0.99558575 0.00000000
0.00000000 0.99554560 0.00000000
0.00000000 0.99541893 0.00000000
0.99465958 0.99499778 0.00000000
0.00000000 0.00000000 0.03999064
0.10874385 0.00000000 0.03774828
0.27554579 0.00000000 0.03419859
0.52893833 0.00000000 0.02312817
0.75584755 0.00000000 0.00000000
0.90991466 0.00000000 0.00000000
0.98440254 0.00000000 0.00000000
0.99280244 0.00000000 0.00000000
0.99686429 0.00000000 0.00000000
0.00000000 0.04499747 0.02650705
0.02426469 0.02426469 0.02426469
0.23767682 0.00000000 0.02071500
0.51376475 0.00000000 0.00964458
0.75235150 0.00000000 0.00000000
0.90923496 0.00000000 0.00000000
0.98434188 0.00000000 0.00000000
0.99279994 0.00000000 0.00000000
0.99686348 0.00000000 0.00000000
0.00000000 0.20399732 0.00516233
0.00000000 0.19273809 0.00291997
0.16385068 0.17374073 0.00000000
0.48698152 0.10004878 0.00000000
0.74661516 0.00000000 0.00000000
0.90814407 0.00000000 0.00000000
0.98424493 0.00000000 0.00000000
0.99279598 0.00000000 0.00000000
0.99686220 0.00000000 0.00000000
0.00000000 0.43836857 0.00000000
0.00000000 0.43287124 0.00000000
0.00000000 0.42402404 0.00000000
0.37543336 0.39517850 0.00000000
0.72692734 0.28946398 0.00000000
0.90461965 0.00000000 0.00000000
0.98393524 0.00000000 0.00000000
0.99278361 0.00000000 0.00000000
0.99685819 0.00000000 0.00000000
0.00000000 0.69168408 0.00000000
0.00000000 0.69036192 0.00000000
0.00000000 0.68824434 0.00000000
0.00000000 0.68143896 0.00000000
0.63983390 0.65829147 0.00000000
0.89243858 0.55437636 0.00000000
0.98290749 0.00000000 0.00000000
0.99274517 0.00000000 0.00000000
0.99684582 0.00000000 0.00000000
0.00000000 0.86998649 0.00000000
0.00000000 0.86970802 0.00000000
0.00000000 0.86926530 0.00000000
0.00000000 0.86786940 0.00000000
0.00000000 0.86341530 0.00000000
0.83529851 0.84806543 0.00000000
0.97894514 0.77617328 0.00000000
0.99262403 0.00000000 0.00000000
0.99680740 0.00000000 0.00000000
0.00000000 0.97028453 0.00000000
0.00000000 0.97024667 0.00000000
0.00000000 0.97018661 0.00000000
0.00000000 0.96999828 0.00000000
0.00000000 0.96940780 0.00000000
0.00000000 0.96749002 0.00000000
0.95429091 0.96051937 0.00000000
0.99222263 0.92234033 0.00000000
0.99668629 0.00000000 0.00000000
0.00000000 0.99154191 0.00000000
0.00000000 0.99154106 0.00000000
0.00000000 0.99153972 0.00000000
0.00000000 0.99153553 0.00000000
0.00000000 0.99152260 0.00000000
0.00000000 0.99148243 0.00000000
0.00000000 0.99135569 0.00000000
0.99059629 0.99093427 0.00000000
0.99628503 0.98743487 0.00000000
0.00000000 0.99560467 0.00000000
0.00000000 0.99560440 0.00000000
0.00000000 0.99560397 0.00000000
0.00000000 0.99560261 0.00000000
0.00000000 0.99559843 0.00000000
0.00000000 0.99558550 0.00000000
0.00000000 0.99554535 0.00000000
0.00000000 0.99541867 0.00000000
0.99465943 0.99499748 0.00000000
0.00000000 0.00000000 0.18025912
0.09684641 0.00000000 0.17894035
0.26990684 0.00000000 0.17683695
0.52663268 0.00000000 0.17014751
0.75530436 0.00000000 0.14811299
0.90980831 0.00000000 0.05806105
0.98439304 0.00000000 0.00000000
0.99280205 0.00000000 0.00000000
0.99686416 0.00000000 0.00000000
0.00000000 0.01533442 0.17221063
0.01062480 0.00000000 0.17084361
0.23123711 0.00000000 0.16866212
0.51126564 0.00000000 0.16171482
0.75179322 0.00000000 0.13871330
0.90912747 0.00000000 0.04457746
0.98433230 0.00000000 0.00000000
0.99279955 0.00000000 0.00000000
0.99686335 0.00000000 0.00000000
0.00000000 0.18772103 0.15883666
0.00000000 0.17563835 0.15738194
0.15505826 0.15505826 0.15505826
0.48410982 0.07131776 0.14763871
0.74603150 0.00000000 0.12282734
0.90803474 0.00000000 0.02323275
0.98423524 0.00000000 0.00000000
0.99279559 0.00000000 0.00000000
0.99686207 0.00000000 0.00000000
0.00000000 0.43048184 0.11029657
0.00000000 0.42488307 0.10841561
0.00000000 0.41586753 0.10539464
0.37122550 0.38642495 0.09560227
0.72625058 0.27762338 0.06190362
0.90450429 0.00000000 0.00000000
0.98392520 0.00000000 0.00000000
0.99278321 0.00000000 0.00000000
0.99685807 0.00000000 0.00000000
0.00000000 0.68978874 0.00000000
0.00000000 0.68844938 0.00000000
0.00000000 0.68630401 0.00000000
0.00000000 0.67940733 0.00000000
0.63861641 0.65592585 0.00000000
0.89230119 0.54998137 0.00000000
0.98289628 0.00000000 0.00000000
0.99274477 0.00000000 0.00000000
0.99684569 0.00000000 0.00000000
0.00000000 0.86958779 0.00000000
0.00000000 0.86930799 0.00000000
0.00000000 0.86886314 0.00000000
0.00000000 0.86746052 0.00000000
0.00000000 0.86298453 0.00000000
0.83503033 0.84755427 0.00000000
0.97892959 0.77516885 0.00000000
0.99262361 0.00000000 0.00000000
0.99680727 0.00000000 0.00000000
0.00000000 0.97023034 0.00000000
0.00000000 0.97019239 0.00000000
0.00000000 0.97013219 0.00000000
0.00000000 0.96994341 0.00000000
0.00000000 0.96935153 0.00000000
0.00000000 0.96742916 0.00000000
0.95424774 0.96044139 0.00000000
0.99222217 0.92215199 0.00000000
0.99668616 0.00000000 0.00000000
0.00000000 0.99154069 0.00000000
0.00000000 0.99153985 0.00000000
0.00000000 0.99153851 0.00000000
0.00000000 0.99153432 0.00000000
0.00000000 0.99152138 0.00000000
0.00000000 0.99148120 0.00000000
0.00000000 0.99135441 0.00000000
0.99059557 0.99093283 0.00000000
0.99628488 0.98742237 0.00000000
0.00000000 0.99560428 0.00000000
0.00000000 0.99560401 0.00000000
0.00000000 0.99560357 0.00000000
0.00000000 0.99560222 0.00000000
0.00000000 0.99559803 0.00000000
0.00000000 0.99558511 0.00000000
0.00000000 0.99554495 0.00000000
0.00000000 0.99541826 0.00000000
0.99465920 0.99499702 0.00000000
0.00000000 0.00000000 0.39403414
0.05486720 0.00000000 0.39337718
0.25160324 0.00000000 0.39233501
0.51925537 0.00000000 0.38906731
0.75359529 0.00000000 0.37881970
0.90947548 0.00000000 0.34538720
0.98436332 0.00000000 0.21454623
0.99280082 0.00000000 0.00000000
0.99686377 0.00000000 0.00000000
0.00000000 0.00000000 0.39006749
0.00000000 0.00000000 0.38940401
0.21009032 0.00000000 0.38835144
0.50325578 0.00000000 0.38505081
0.75003637 0.00000000 0.37469666
0.90879108 0.00000000 0.34087774
0.98430237 0.00000000 0.20758858
0.99279832 0.00000000 0.00000000
0.99686296 0.00000000 0.00000000
0.00000000 0.12761705 0.38370659
0.00000000 0.11120000 0.38303238
0.12488579 0.08141232 0.38196275
0.47487610 0.00000000 0.37860804
0.74419429 0.00000000 0.36807866
0.90769260 0.00000000 0.33362138
0.98420496 0.00000000 0.19616199
0.99279436 0.00000000 0.00000000
0.99686167 0.00000000 0.00000000
0.00000000 0.40490924 0.36317701
0.00000000 0.39895674 0.36246596
0.00000000 0.38935191 0.36133762
0.35779675 0.35779675 0.35779675
0.72411819 0.23737809 0.34666211
0.90414325 0.00000000 0.30997186
0.98389380 0.00000000 0.15644836
0.99278198 0.00000000 0.00000000
0.99685767 0.00000000 0.00000000
0.00000000 0.68371655 0.29143019
0.00000000 0.68232097 0.29055595
0.00000000 0.68008477 0.28916709
0.00000000 0.67288939 0.28479613
0.63475935 0.64831081 0.27091981
0.89187108 0.53555733 0.22346914
0.98286124 0.00000000 0.00000000
0.99274353 0.00000000 0.00000000
0.99684529 0.00000000 0.00000000
0.00000000 0.86833204 0.00000000
0.00000000 0.86804803 0.00000000
0.00000000 0.86759646 0.00000000
0.00000000 0.86617252 0.00000000
0.00000000 0.86162721 0.00000000
0.83418923 0.84594195 0.00000000
0.97888097 0.77198169 0.00000000
0.99262233 0.00000000 0.00000000
0.99680687 0.00000000 0.00000000
0.00000000 0.97006052 0.00000000
0.00000000 0.97002229 0.00000000
0.00000000 0.96996164 0.00000000
0.00000000 0.96977146 0.00000000
0.00000000 0.96917517 0.00000000
0.00000000 0.96723841 0.00000000
0.95411279 0.96019695 0.00000000
0.99222073 0.92156056 0.00000000
0.99668574 0.00000000 0.00000000
0.00000000 0.99153691 0.00000000
0.00000000 0.99153607 0.00000000
0.00000000 0.99153472 0.00000000
0.00000000 0.99153053 0.00000000
0.00000000 0.99151758 0.00000000
0.00000000 0.99147736 0.00000000
0.00000000 0.99135043 0.00000000
0.99059331 0.99092836 0.00000000
0.99628442 0.98738315 0.00000000
0.00000000 0.99560306 0.00000000
0.00000000 0.99560278 0.00000000
0.00000000 0.99560235 0.00000000
0.00000000 0.99560099 0.00000000
0.00000000 0.99559681 0.00000000
0.00000000 0.99558387 0.00000000
0.00000000 0.99554371 0.00000000
0.00000000 0.99541697 0.00000000
0.99465847 0.99499557 0.00000000
0.00000000 0.00000000 0.65430188
0.00000000 0.00000000 0.65411971
0.18595890 0.00000000 0.65383091
0.49453036 0.00000000 0.65292679
0.74817782 0.00000000 0.65010611
0.90843828 0.00000000 0.64107985
0.98427103 0.00000000 0.60960059
0.99279705 0.00000000 0.44748052
0.99686254 0.00000000 0.00000000
0.00000000 0.00000000 0.65320329
0.00000000 0.00000000 0.65301985
0.12960288 0.00000000 0.65272902
0.47625314 0.00000000 0.65181854
0.74446450 0.00000000 0.64897783
0.90774273 0.00000000 0.63988567
0.98420939 0.00000000 0.60815399
0.99279454 0.00000000 0.44402016
0.99686173 0.00000000 0.00000000
0.00000000 0.00000000 0.65144840
0.00000000 0.00000000 0.65126290
0.00000000 0.00000000 0.65096881
0.44339513 0.00000000 0.65004809
0.73836237 0.00000000 0.64717516
0.90662622 0.00000000 0.63797697
0.98411089 0.00000000 0.60583841
0.99279058 0.00000000 0.43843742
0.99686045 0.00000000 0.00000000
0.00000000 0.31364911 0.64584695
0.00000000 0.30601888 0.64565479
0.00000000 0.29356747 0.64535011
0.31298027 0.25121068 0.64439615
0.71732760 0.03882002 0.64141855
0.90301765 0.00000000 0.63187544
0.98379628 0.00000000 0.59840734
0.99277818 0.00000000 0.42053636
0.99685644 0.00000000 0.00000000
0.00000000 0.66328364 0.62723250
0.00000000 0.66168633 0.62701689
0.00000000 0.65912367 0.62667500
0.00000000 0.65085055 0.62560415
0.62225800 0.62225800 0.62225800
0.89052881 0.48254907 0.61149515
0.98275243 0.00000000 0.57325059
0.99273969 0.00000000 0.35989027
0.99684406 0.00000000 0.00000000
0.00000000 0.86433884 0.55199096
0.00000000 0.86404118 0.55165807
0.00000000 0.86356789 0.55112985
0.00000000 0.86207497 0.54947262
0.00000000 0.85730501 0.54426656
0.83155008 0.84079031 0.52722602
0.97873004 0.76159853 0.46243523
0.99261835 0.00000000 0.01335847
0.99680562 0.00000000 0.00000000
0.00000000 0.96952894 0.00000000
0.00000000 0.96948982 0.00000000
0.00000000 0.96942777 0.00000000
0.00000000 0.96923319 0.00000000
0.00000000 0.96862309 0.00000000
0.00000000 0.96664117 0.00000000
0.95369349 0.95943110 0.00000000
0.99221629 0.91969777 0.00000000
0.99668445 0.00000000 0.00000000
0.00000000 0.99152523 0.00000000
0.00000000 0.99152438 0.00000000
0.00000000 0.99152303 0.00000000
0.00000000 0.99151883 0.00000000
0.00000000 0.99150584 0.00000000
0.00000000 0.99146548 0.00000000
0.00000000 0.99133813 0.00000000
0.99058634 0.99091452 0.00000000
0.99628298 0.98725994 0.00000000
0.00000000 0.99559928 0.00000000
0.00000000 0.99559900 0.00000000
0.00000000 0.99559857 0.00000000
0.00000000 0.99559721 0.00000000
0.00000000 0.99559302 0.00000000
0.00000000 0.99558008 0.00000000
0.00000000 0.99553986 0.00000000
0.00000000 0.99541299 0.00000000
0.99465621 0.99499110 0.00000000
0.00000000 0.00000000 0.84472159
0.00000000 0.00000000 0.84468165
0.00000000 0.00000000 0.84461839
0.39367969 0.00000000 0.84442082
0.72990709 0.00000000 0.84380908
0.90513201 0.00000000 0.84189778
0.98397993 0.00000000 0.83575410
0.99278537 0.00000000 0.81402358
0.99685876 0.00000000 0.69671924
0.00000000 0.00000000 0.84448117
0.00000000 0.00000000 0.84444112
0.00000000 0.00000000 0.84437770
0.36740002 0.00000000 0.84417963
0.72563883 0.00000000 0.84356633
0.90440034 0.00000000 0.84165011
0.98391615 0.00000000 0.83549022
0.99278286 0.00000000 0.81369732
0.99685795 0.00000000 0.69588988
0.00000000 0.00000000 0.84409932
0.00000000 0.00000000 0.84405912
0.00000000 0.00000000 0.84399544
0.32163682 0.00000000 0.84379657
0.71859788 0.00000000 0.84318078
0.90322545 0.00000000 0.84125674
0.98381424 0.00000000 0.83507104
0.99277888 0.00000000 0.81317879
0.99685667 0.00000000 0.69456725
0.00000000 0.00000000 0.84289850
0.00000000 0.00000000 0.84285778
0.00000000 0.00000000 0.84279330
0.10278931 0.00000000 0.84259190
0.69405643 0.00000000 0.84196825
0.89942486 0.00000000 0.84001946
0.98348878 0.00000000 0.83375220
0.99276644 0.00000000 0.81154534
0.99685266 0.00000000 0.69036381
0.00000000 0.57609837 0.83909828
0.00000000 0.57338888 0.83905592
0.00000000 0.56901336 0.83898883
0.00000000 0.55463811 0.83877930
0.57655750 0.50160222 0.83813040
0.88623078 0.18579665 0.83610205
0.98240948 0.00000000 0.82957216
0.99272782 0.00000000 0.80634789
0.99684026 0.00000000 0.67659721
0.00000000 0.85073666 0.82635829
0.00000000 0.85038984 0.82631014
0.00000000 0.84983815 0.82623388
0.00000000 0.84809617 0.82599566
0.00000000 0.84251182 0.82525766
0.82294826 0.82294826 0.82294826
0.97825471 0.72297161 0.81548671
0.99260608 0.00000000 0.78859634
0.99680178 0.00000000 0.62424077
0.00000000 0.96781115 0.77338903
0.00000000 0.96776916 0.77331163
0.00000000 0.96770256 0.77318900
0.00000000 0.96749369 0.77280577
0.00000000 0.96683869 0.77161651
0.00000000 0.96470982 0.76787518
0.95236953 0.95694891 0.75557426
0.99220257 0.91355435 0.70815219
0.99668048 0.00000000 0.13549686
0.00000000 0.99148897 0.00000000
0.00000000 0.99148811 0.00000000
0.00000000 0.99148675 0.00000000
0.00000000 0.99148251 0.00000000
0.00000000 0.99146938 0.00000000
0.00000000 0.99142861 0.00000000
0.00000000 0.99129993 0.00000000
0.99056475 0.99087153 0.00000000
0.99627854 0.98685765 0.00000000
0.00000000 0.99558760 0.00000000
0.00000000 0.99558732 0.00000000
0.00000000 0.99558689 0.00000000
0.00000000 0.99558552 0.00000000
0.00000000 0.99558132 0.00000000
0.00000000 0.99556833 0.00000000
0.00000000 0.99552799 0.00000000
0.00000000 0.99540069 0.00000000
0.99464924 0.99497727 0.00000000
0.00000000 0.00000000 0.95882857
0.00000000 0.00000000 0.95882236
0.00000000 0.00000000 0.95881252
0.00000000 0.00000000 0.95878184
0.65141072 0.00000000 0.95868705
0.89378463 0.00000000 0.95839305
0.98301777 0.00000000 0.95746968
0.99274912 0.00000000 0.95445372
0.99684709 0.00000000 0.94325362
0.00000000 0.00000000 0.95879121
0.00000000 0.00000000 0.95878499
0.00000000 0.00000000 0.95877515
0.00000000 0.00000000 0.95874443
0.64406681 0.00000000 0.95864953
0.89292233 0.00000000 0.95835519
0.98294703 0.00000000 0.95743075
0.99274658 0.00000000 0.95441125
0.99684627 0.00000000 0.94319727
0.00000000 0.00000000 0.95873198
0.00000000 0.00000000 0.95872575
0.00000000 0.00000000 0.95871589
0.00000000 0.00000000 0.95868512
0.63170620 0.00000000 0.95859005
0.89153604 0.00000000 0.95829516
0.98283400 0.00000000 0.95736903
0.99274256 0.00000000 0.95434390
0.99684498 0.00000000 0.94310793
0.00000000 0.00000000 0.95854658
0.00000000 0.00000000 0.95854031
0.00000000 0.00000000 0.95853040
0.00000000 0.00000000 0.95849944
0.58589635 0.00000000 0.95840383
0.88703748 0.00000000 0.95810726
0.98247321 0.00000000 0.95717580
0.99273000 0.00000000 0.95413306
0.99684096 0.00000000 0.94282813
0.00000000 0.00000000 0.95796823
0.00000000 0.00000000 0.95796186
0.00000000 0.00000000 0.95795176
0.00000000 0.00000000 0.95792026
0.28108412 0.00000000 0.95782295
0.87124603 0.00000000 0.95752110
0.98127825 0.00000000 0.95657300
0.99269099 0.00000000 0.95347511
0.99682853 0.00000000 0.94195408
0.00000000 0.79034238 0.95611930
0.00000000 0.78972077 0.95611256
0.00000000 0.78872986 0.95610190
0.00000000 0.78558412 0.95606863
0.00000000 0.77532056 0.95596584
0.79094292 0.73693282 0.95564698
0.97668995 0.40456708 0.95464519
0.99256798 0.00000000 0.95136920
0.99678992 0.00000000 0.93914704
0.00000000 0.96166934 0.94972579
0.00000000 0.96161687 0.94971778
0.00000000 0.96153362 0.94970510
0.00000000 0.96127251 0.94966552
0.00000000 0.96045314 0.94954322
0.00000000 0.95778423 0.94916374
0.94797041 0.94797041 0.94797041
0.99215992 0.88980560 0.94405628
0.99666821 0.00000000 0.92928195
0.00000000 0.99137483 0.92051516
0.00000000 0.99137394 0.92050049
0.00000000 0.99137253 0.92047725
0.00000000 0.99136815 0.92040471
0.00000000 0.99135460 0.92018048
0.00000000 0.99131251 0.91948363
0.00000000 0.99117953 0.91728152
0.99049737 0.99073567 0.90993983
0.99626482 0.98538706 0.88036830
0.00000000 0.99555135 0.00000000
0.00000000 0.99555107 0.00000000
0.00000000 0.99555063 0.00000000
0.00000000 0.99554926 0.00000000
0.00000000 0.99554501 0.00000000
0.00000000 0.99553189 0.00000000
0.00000000 0.99549114 0.00000000
0.00000000 0.99536251 0.00000000
0.99462766 0.99493430 0.00000000
0.00000000 0.00000000 0.99083773
0.00000000 0.00000000 0.99083762
0.00000000 0.00000000 0.99083744
0.00000000 0.00000000 0.99083689
0.00000000 0.00000000 0.99083520
0.84218888 0.00000000 0.99082997
0.97935366 0.00000000 0.99081379
0.99263501 0.00000000 0.99076345
0.99681085 0.00000000 0.99060366
0.00000000 0.00000000 0.99083706
0.00000000 0.00000000 0.99083695
0.00000000 0.00000000 0.99083677
0.00000000 0.00000000 0.99083622
0.00000000 0.00000000 0.99083453
0.84058847 0.00000000 0.99082930
0.97925723 0.00000000 0.99081312
0.99263239 0.00000000 0.99076277
0.99681002 0.00000000 0.99060295
0.00000000 0.00000000 0.99083600
0.00000000 0.00000000 0.99083589
0.00000000 0.00000000 0.99083571
0.00000000 0.00000000 0.99083516
0.00000000 0.00000000 0.99083347
0.83799940 0.00000000 0.99082823
0.97910322 0.00000000 0.99081205
0.99262824 0.00000000 0.99076168
0.99680872 0.00000000 0.99060182
0.00000000 0.00000000 0.99083269
0.00000000 0.00000000 0.99083258
0.00000000 0.00000000 0.99083241
0.00000000 0.00000000 0.99083186
0.00000000 0.00000000 0.99083016
0.82945597 0.00000000 0.99082492
0.97861200 0.00000000 0.99080872
0.99261527 0.00000000 0.99075831
0.99680466 0.00000000 0.99059829
0.00000000 0.00000000 0.99082248
0.00000000 0.00000000 0.99082236
0.00000000 0.00000000 0.99082219
0.00000000 0.00000000 0.99082164
0.00000000 0.00000000 0.99081993
0.79754880 0.00000000 0.99081468
0.97698849 0.00000000 0.99079843
0.99257499 0.00000000 0.99074788
0.99679210 0.00000000 0.99058738
0.00000000 0.00000000 0.99079079
0.00000000 0.00000000 0.99079068
0.00000000 0.00000000 0.99079050
0.00000000 0.00000000 0.99078994
0.00000000 0.00000000 0.99078823
0.53978547 0.00000000 0.99078293
0.97077243 0.00000000 0.99076654
0.99244789 0.00000000 0.99071553
0.99675310 0.00000000 0.99055356
0.00000000 0.93021980 0.99069131
0.00000000 0.93010597 0.99069120
0.00000000 0.92992527 0.99069102
0.00000000 0.92935766 0.99069044
0.00000000 0.92756819 0.99068868
0.00000000 0.92164895 0.99068323
0.93060932 0.89853967 0.99066638
0.99202518 0.66370515 0.99061392
0.99663012 0.00000000 0.99044721
0.00000000 0.99099827 0.99036610
0.00000000 0.99099728 0.99036597
0.00000000 0.99099572 0.99036577
0.00000000 0.99099086 0.99036515
0.00000000 0.99097581 0.99036321
0.00000000 0.99092902 0.99035725
0.00000000 0.99078082 0.99033880
0.99028132 0.99028132 0.99028132
0.99622219 0.97799593 0.99009809
0.00000000 0.99543725 0.98703634
0.00000000 0.99543696 0.98703531
0.00000000 0.99543650 0.98703368
0.00000000 0.99543508 0.98702858
0.00000000 0.99543070 0.98701283
0.00000000 0.99541716 0.98696394
0.00000000 0.99537508 0.98681005
0.00000000 0.99524216 0.98630482
0.99456032 0.99479850 0.98442645
0.00000000 0.00000000 0.99490040
0.00000000 0.00000000 0.99490036
0.00000000 0.00000000 0.99490031
0.00000000 0.00000000 0.99490013
0.00000000 0.00000000 0.99489958
0.00000000 0.00000000 0.99489788
0.95751712 0.00000000 0.99489265
0.99225858 0.00000000 0.99487648
0.99669675 0.00000000 0.99482617
0.00000000 0.00000000 0.99490018
0.00000000 0.00000000 0.99490015
0.00000000 0.00000000 0.99490009
0.00000000 0.00000000 0.99489991
0.00000000 0.00000000 0.99489936
0.00000000 0.00000000 0.99489767
0.95726612 0.00000000 0.99489244
0.99225567 0.00000000 0.99487627
0.99669591 0.00000000 0.99482594
0.00000000 0.00000000 0.99489984
0.00000000 0.00000000 0.99489980
0.00000000 0.00000000 0.99489975
0.00000000 0.00000000 0.99489957
0.00000000 0.00000000 0.99489902
0.00000000 0.00000000 0.99489732
0.95686491 0.00000000 0.99489209
0.99225107 0.00000000 0.99487592
0.99669456 0.00000000 0.99482559
0.00000000 0.00000000 0.99489877
0.00000000 0.00000000 0.99489873
0.00000000 0.00000000 0.99489867
0.00000000 0.00000000 0.99489850
0.00000000 0.00000000 0.99489795
0.00000000 0.00000000 0.99489625
0.95558251 0.00000000 0.99489102
0.99223666 0.00000000 0.99487484
0.99669037 0.00000000 0.99482450
0.00000000 0.00000000 0.99489546
0.00000000 0.00000000 0.99489542
0.00000000 0.00000000 0.99489537
0.00000000 0.00000000 0.99489519
0.00000000 0.00000000 0.99489464
0.00000000 0.00000000 0.99489294
0.95131022 0.00000000 0.99488771
0.99219190 0.00000000 0.99487151
0.99667740 0.00000000 0.99482113
0.00000000 0.00000000 0.99488525
0.00000000 0.00000000 0.99488521
0.00000000 0.00000000 0.99488516
0.00000000 0.00000000 0.99488498
0.00000000 0.00000000 0.99488442
0.00000000 0.00000000 0.99488272
0.93430880 0.00000000 0.99487747
0.99205027 0.00000000 0.99486123
0.99663713 0.00000000 0.99481070
0.00000000 0.00000000 0.99485358
0.00000000 0.00000000 0.99485354
0.00000000 0.00000000 0.99485349
0.00000000 0.00000000 0.99485330
0.00000000 0.00000000 0.99485275
0.00000000 0.00000000 0.99485103
0.76464844 0.00000000 0.99484573
0.99157491 0.00000000 0.99482935
0.99651007 0.00000000 0.99477837
0.00000000 0.98882639 0.99475415
0.00000000 0.98882084 0.99475411
0.00000000 0.98881202 0.99475405
0.00000000 0.98878429 0.99475387
0.00000000 0.98869657 0.99475329
0.00000000 0.98840431 0.99475153
0.00000000 0.98727849 0.99474608
0.98888675 0.98099125 0.99472924
0.99608749 0.85117282 0.99467681
0.00000000 0.99506083 0.99442910
0.00000000 0.99506051 0.99442906
0.00000000 0.99506001 0.99442899
0.00000000 0.99505843 0.99442879
0.00000000 0.99505357 0.99442816
0.00000000 0.99503853 0.99442623
0.00000000 0.99499176 0.99442027
0.00000000 0.99484363 0.99440183
0.99434438 0.99434438 0.99434438
