Slog3_to_BT601_NTSC.cube
TITLE "Slog3_to_BT601_NTSC"
LUT_3D_SIZE 5
# Slog3 to BT601 NTSC SDR by Francesco Bucciantini
0.00000000 0.00000000 0.00000000
0.27905511 0.00000000 0.00000000
0.75618949 0.00000000 0.00000000
0.98440854 0.00000000 0.00000000
0.99686437 0.00000000 0.00000000
0.00000000 0.21375068 0.00000000
0.16922441 0.18477734 0.00000000
0.74698252 0.00000000 0.00000000
0.98425105 0.00000000 0.00000000
0.99686228 0.00000000 0.00000000
0.00000000 0.69286889 0.00000000
0.00000000 0.68945707 0.00000000
0.64059829 0.65976759 0.00000000
0.98291456 0.00000000 0.00000000
0.99684590 0.00000000 0.00000000
0.00000000 0.97031869 0.00000000
0.00000000 0.97022092 0.00000000
0.00000000 0.96944328 0.00000000
0.95431815 0.96056852 0.00000000
0.99668637 0.00000000 0.00000000
0.00000000 0.99560492 0.00000000
0.00000000 0.99560421 0.00000000
0.00000000 0.99559868 0.00000000
0.00000000 0.99554560 0.00000000
0.99465958 0.99499778 0.00000000
0.00000000 0.00000000 0.18025912
0.26990684 0.00000000 0.17683695
0.75530436 0.00000000 0.14811299
0.98439304 0.00000000 0.00000000
0.99686416 0.00000000 0.00000000
0.00000000 0.18772103 0.15883666
0.15505826 0.15505826 0.15505826
0.74603150 0.00000000 0.12282734
0.98423524 0.00000000 0.00000000
0.99686207 0.00000000 0.00000000
0.00000000 0.68978874 0.00000000
0.00000000 0.68630401 0.00000000
0.63861641 0.65592585 0.00000000
0.98289628 0.00000000 0.00000000
0.99684569 0.00000000 0.00000000
0.00000000 0.97023034 0.00000000
0.00000000 0.97013219 0.00000000
0.00000000 0.96935153 0.00000000
0.95424774 0.96044139 0.00000000
0.99668616 0.00000000 0.00000000
0.00000000 0.99560428 0.00000000
0.00000000 0.99560357 0.00000000
0.00000000 0.99559803 0.00000000
0.00000000 0.99554495 0.00000000
0.99465920 0.99499702 0.00000000
0.00000000 0.00000000 0.65430188
0.18595890 0.00000000 0.65383091
0.74817782 0.00000000 0.65010611
0.98427103 0.00000000 0.60960059
0.99686254 0.00000000 0.00000000
0.00000000 0.00000000 0.65144840
0.00000000 0.00000000 0.65096881
0.73836237 0.00000000 0.64717516
0.98411089 0.00000000 0.60583841
0.99686045 0.00000000 0.00000000
0.00000000 0.66328364 0.62723250
0.00000000 0.65912367 0.62667500
0.62225800 0.62225800 0.62225800
0.98275243 0.00000000 0.57325059
0.99684406 0.00000000 0.00000000
0.00000000 0.96952894 0.00000000
0.00000000 0.96942777 0.00000000
0.00000000 0.96862309 0.00000000
0.95369349 0.95943110 0.00000000
0.99668445 0.00000000 0.00000000
0.00000000 0.99559928 0.00000000
0.00000000 0.99559857 0.00000000
0.00000000 0.99559302 0.00000000
0.00000000 0.99553986 0.00000000
0.99465621 0.99499110 0.00000000
0.00000000 0.00000000 0.95882857
0.00000000 0.00000000 0.95881252
0.65141072 0.00000000 0.95868705
0.98301777 0.00000000 0.95746968
0.99684709 0.00000000 0.94325362
0.00000000 0.00000000 0.95873198
0.00000000 0.00000000 0.95871589
0.63170620 0.00000000 0.95859005
0.98283400 0.00000000 0.95736903
0.99684498 0.00000000 0.94310793
0.00000000 0.00000000 0.95796823
0.00000000 0.00000000 0.95795176
0.28108412 0.00000000 0.95782295
0.98127825 0.00000000 0.95657300
0.99682853 0.00000000 0.94195408
0.00000000 0.96166934 0.94972579
0.00000000 0.96153362 0.94970510
0.00000000 0.96045314 0.94954322
0.94797041 0.94797041 0.94797041
0.99666821 0.00000000 0.92928195
0.00000000 0.99555135 0.00000000
0.00000000 0.99555063 0.00000000
0.00000000 0.99554501 0.00000000
0.00000000 0.99549114 0.00000000
0.99462766 0.99493430 0.00000000
0.00000000 0.00000000 0.99490040
0.00000000 0.00000000 0.99490031
0.00000000 0.00000000 0.99489958
0.95751712 0.00000000 0.99489265
0.99669675 0.00000000 0.99482617
0.00000000 0.00000000 0.99489984
0.00000000 0.00000000 0.99489975
0.00000000 0.00000000 0.99489902
0.95686491 0.00000000 0.99489209
0.99669456 0.00000000 0.99482559
0.00000000 0.00000000 0.99489546
0.00000000 0.00000000 0.99489537
0.00000000 0.00000000 0.99489464
0.95131022 0.00000000 0.99488771
0.99667740 0.00000000 0.99482113
0.00000000 0.00000000 0.99485358
0.00000000 0.00000000 0.99485349
0.00000000 0.00000000 0.99485275
0.76464844 0.00000000 0.99484573
0.99651007 0.00000000 0.99477837
0.00000000 0.99506083 0.99442910
0.00000000 0.99506001 0.99442899
0.00000000 0.99505357 0.99442816
0.00000000 0.99499176 0.99442027
0.99434438 0.99434438 0.99434438
