Slog3_Super8_to_BT709.cube
TITLE "Slog3_Super8_to_BT709"
LUT_3D_SIZE 5
# Slog3 with Sony S3 Gamut input to Linear BT709 SDR tweaked for Super 8 capture with blue-shift fix by Francesco Bucciantini v2
0.00000000 0.00000000 0.00000000
0.31154810 0.00000000 0.00000000
0.77357635 0.00000000 0.00000000
0.95940204 0.00000000 0.00000000
0.99240911 0.00000000 0.00000000
0.00000000 0.21771443 0.00000000
0.25929956 0.17921058 0.00000000
0.77033716 0.00000000 0.00000000
0.95930552 0.00000000 0.00000000
0.99240818 0.00000000 0.00000000
0.00000000 0.68009049 0.00000000
0.00000000 0.67602514 0.00000000
0.74085233 0.63891617 0.00000000
0.95854155 0.00000000 0.00000000
0.99240090 0.00000000 0.00000000
0.00000000 0.92856749 0.00000000
0.00000000 0.92841838 0.00000000
0.00000000 0.92723369 0.00000000
0.94964566 0.91375008 0.00000000
0.99233138 0.00000000 0.00000000
0.00000000 0.99015102 0.00000000
0.00000000 0.99015008 0.00000000
0.00000000 0.99014274 0.00000000
0.00000000 0.99007221 0.00000000
0.99158729 0.98905477 0.00000000
0.00000000 0.00000000 0.19168698
0.30369893 0.00000000 0.18158980
0.77305999 0.00000000 0.07888368
0.95938602 0.00000000 0.00000000
0.99240895 0.00000000 0.00000000
0.00000000 0.18649928 0.16331573
0.24999753 0.14177802 0.15183272
0.76983119 0.00000000 0.03222230
0.95928991 0.00000000 0.00000000
0.99240803 0.00000000 0.00000000
0.00000000 0.67675453 0.00000000
0.00000000 0.67257782 0.00000000
0.74014600 0.63432596 0.00000000
0.95853475 0.00000000 0.00000000
0.99240075 0.00000000 0.00000000
0.00000000 0.92844481 0.00000000
0.00000000 0.92829521 0.00000000
0.00000000 0.92710655 0.00000000
0.94962261 0.91357330 0.00000000
0.99233135 0.00000000 0.00000000
0.00000000 0.99015024 0.00000000
0.00000000 0.99014930 0.00000000
0.00000000 0.99014196 0.00000000
0.00000000 0.99007142 0.00000000
0.99158710 0.98905301 0.00000000
0.00000000 0.00000000 0.65615572
0.23468306 0.00000000 0.65492631
0.76898668 0.00000000 0.64511174
0.95926344 0.00000000 0.48788518
0.99240774 0.00000000 0.00000000
0.00000000 0.00000000 0.65284622
0.16123919 0.00000000 0.65162814
0.76561035 0.00000000 0.64153643
0.95916635 0.00000000 0.47816504
0.99240682 0.00000000 0.00000000
0.00000000 0.64721616 0.62397704
0.00000000 0.64195509 0.62244776
0.73446685 0.59220422 0.60991090
0.95839482 0.00000000 0.38269989
0.99239957 0.00000000 0.00000000
0.00000000 0.92747340 0.00000000
0.00000000 0.92731986 0.00000000
0.00000000 0.92609997 0.00000000
0.94944209 0.91216879 0.00000000
0.99233079 0.00000000 0.00000000
0.00000000 0.99014421 0.00000000
0.00000000 0.99014326 0.00000000
0.00000000 0.99013591 0.00000000
0.00000000 0.99006525 0.00000000
0.99158563 0.98903924 0.00000000
0.00000000 0.00000000 0.92017212
0.00000000 0.00000000 0.92012503
0.71896385 0.00000000 0.91975763
0.95807695 0.00000000 0.91616807
0.99239648 0.00000000 0.85413846
0.00000000 0.00000000 0.92004721
0.00000000 0.00000000 0.92000165
0.71349117 0.00000000 0.91963201
0.95797451 0.00000000 0.91603132
0.99239555 0.00000000 0.85372510
0.00000000 0.00000000 0.91905436
0.00000000 0.00000000 0.91900017
0.65672110 0.00000000 0.91864656
0.95715893 0.00000000 0.91494890
0.99238824 0.00000000 0.85039402
0.00000000 0.91679444 0.90837416
0.00000000 0.91659412 0.90831399
0.00000000 0.91499774 0.90784174
0.94766427 0.89614736 0.90309843
0.99231816 0.00000000 0.80743232
0.00000000 0.99008630 0.00000000
0.00000000 0.99008534 0.00000000
0.00000000 0.99007787 0.00000000
0.00000000 0.99000606 0.00000000
0.99157163 0.98890315 0.00000000
0.00000000 0.00000000 0.98960598
0.00000000 0.00000000 0.98960561
0.00000000 0.00000000 0.98960265
0.94258723 0.00000000 0.98957428
0.99228890 0.00000000 0.98927678
0.00000000 0.00000000 0.98960498
0.00000000 0.00000000 0.98960461
0.00000000 0.00000000 0.98960166
0.94240415 0.00000000 0.98957326
0.99228794 0.00000000 0.98927552
0.00000000 0.00000000 0.98959712
0.00000000 0.00000000 0.98959675
0.00000000 0.00000000 0.98959387
0.94093611 0.00000000 0.98956522
0.99228041 0.00000000 0.98926562
0.00000000 0.00000000 0.98951936
0.00000000 0.00000000 0.98951892
0.00000000 0.00000000 0.98951534
0.92163482 0.00000000 0.98948691
0.99220801 0.00000000 0.98916844
0.00000000 0.98932999 0.98851079
0.00000000 0.98932818 0.98851010
0.00000000 0.98931394 0.98850475
0.00000000 0.98917188 0.98845322
0.99143579 0.98700772 0.98790572
