Slog3_to_BT601_NTSC.cube
TITLE "Slog3_to_BT601_NTSC"
LUT_3D_SIZE 33
# Slog3 to BT601 NTSC SDR by Francesco Bucciantini
0.00000000 0.00000000 0.00000000
0.00000000 0.00000000 0.00000000
0.02477191 0.00000000 0.00000000
0.07221710 0.00000000 0.00000000
0.11584876 0.00000000 0.00000000
0.15068946 0.00000000 0.00000000
0.18729110 0.00000000 0.00000000
0.23061191 0.00000000 0.00000000
0.27905511 0.00000000 0.00000000
0.33343937 0.00000000 0.00000000
0.39466698 0.00000000 0.00000000
0.46314787 0.00000000 0.00000000
0.53038036 0.00000000 0.00000000
0.59331291 0.00000000 0.00000000
0.65195359 0.00000000 0.00000000
0.70626763 0.00000000 0.00000000
0.75618949 0.00000000 0.00000000
0.80163135 0.00000000 0.00000000
0.84248924 0.00000000 0.00000000
0.87864747 0.00000000 0.00000000
0.90998175 0.00000000 0.00000000
0.93636160 0.00000000 0.00000000
0.95765196 0.00000000 0.00000000
0.97371452 0.00000000 0.00000000
0.98440854 0.00000000 0.00000000
0.98959158 0.00000000 0.00000000
0.99077149 0.00000000 0.00000000
0.99178714 0.00000000 0.00000000
0.99280269 0.00000000 0.00000000
0.99381818 0.00000000 0.00000000
0.99483361 0.00000000 0.00000000
0.99584901 0.00000000 0.00000000
0.99686437 0.00000000 0.00000000
0.00000000 0.00000000 0.00000000
0.00000000 0.00000000 0.00000000
0.00307661 0.00000000 0.00000000
0.05052180 0.00000000 0.00000000
0.09735319 0.00000000 0.00000000
0.13554297 0.00000000 0.00000000
0.17460717 0.00000000 0.00000000
0.22001508 0.00000000 0.00000000
0.27014085 0.00000000 0.00000000
0.32590416 0.00000000 0.00000000
0.38827538 0.00000000 0.00000000
0.45797088 0.00000000 0.00000000
0.52672807 0.00000000 0.00000000
0.59074420 0.00000000 0.00000000
0.65015544 0.00000000 0.00000000
0.70501691 0.00000000 0.00000000
0.75532674 0.00000000 0.00000000
0.80104254 0.00000000 0.00000000
0.84209289 0.00000000 0.00000000
0.87838543 0.00000000 0.00000000
0.90981268 0.00000000 0.00000000
0.93625622 0.00000000 0.00000000
0.95758964 0.00000000 0.00000000
0.97368082 0.00000000 0.00000000
0.98439343 0.00000000 0.00000000
0.98958816 0.00000000 0.00000000
0.99077040 0.00000000 0.00000000
0.99178631 0.00000000 0.00000000
0.99280207 0.00000000 0.00000000
0.99381770 0.00000000 0.00000000
0.99483325 0.00000000 0.00000000
0.99584874 0.00000000 0.00000000
0.99686417 0.00000000 0.00000000
0.00000000 0.00000000 0.00000000
0.00000000 0.00000000 0.00000000
0.00000000 0.00000000 0.00000000
0.02882650 0.00000000 0.00000000
0.07627169 0.00000000 0.00000000
0.11909469 0.00000000 0.00000000
0.16116031 0.00000000 0.00000000
0.20896951 0.00000000 0.00000000
0.26095537 0.00000000 0.00000000
0.31820198 0.00000000 0.00000000
0.38177963 0.00000000 0.00000000
0.45265813 0.00000000 0.00000000
0.52300346 0.00000000 0.00000000
0.58813685 0.00000000 0.00000000
0.64833663 0.00000000 0.00000000
0.70375515 0.00000000 0.00000000
0.75445811 0.00000000 0.00000000
0.80045062 0.00000000 0.00000000
0.84169488 0.00000000 0.00000000
0.87812252 0.00000000 0.00000000
0.90964317 0.00000000 0.00000000
0.93615061 0.00000000 0.00000000
0.95752720 0.00000000 0.00000000
0.97364705 0.00000000 0.00000000
0.98437829 0.00000000 0.00000000
0.98958474 0.00000000 0.00000000
0.99076930 0.00000000 0.00000000
0.99178548 0.00000000 0.00000000
0.99280144 0.00000000 0.00000000
0.99381723 0.00000000 0.00000000
0.99483290 0.00000000 0.00000000
0.99584847 0.00000000 0.00000000
0.99686397 0.00000000 0.00000000
0.00000000 0.03027224 0.00000000
0.00000000 0.02508904 0.00000000
0.00000000 0.01990585 0.00000000
0.00713120 0.01472265 0.00000000
0.05457639 0.00953945 0.00000000
0.10096938 0.00435626 0.00000000
0.14680503 0.00000000 0.00000000
0.19741712 0.00000000 0.00000000
0.25147407 0.00000000 0.00000000
0.31032195 0.00000000 0.00000000
0.37517479 0.00000000 0.00000000
0.44720307 0.00000000 0.00000000
0.51920393 0.00000000 0.00000000
0.58548982 0.00000000 0.00000000
0.64649674 0.00000000 0.00000000
0.70248218 0.00000000 0.00000000
0.75358353 0.00000000 0.00000000
0.79985554 0.00000000 0.00000000
0.84129522 0.00000000 0.00000000
0.87785875 0.00000000 0.00000000
0.90947320 0.00000000 0.00000000
0.93604476 0.00000000 0.00000000
0.95746465 0.00000000 0.00000000
0.97361323 0.00000000 0.00000000
0.98436312 0.00000000 0.00000000
0.98958130 0.00000000 0.00000000
0.99076820 0.00000000 0.00000000
0.99178465 0.00000000 0.00000000
0.99280082 0.00000000 0.00000000
0.99381676 0.00000000 0.00000000
0.99483254 0.00000000 0.00000000
0.99584820 0.00000000 0.00000000
0.99686376 0.00000000 0.00000000
0.00000000 0.06373581 0.00000000
0.00000000 0.05855261 0.00000000
0.00000000 0.05336942 0.00000000
0.00000000 0.04818622 0.00000000
0.03288109 0.04300302 0.00000000
0.08032629 0.03781983 0.00000000
0.13134371 0.03133459 0.00000000
0.18528634 0.02223745 0.00000000
0.24166840 0.01018274 0.00000000
0.30225200 0.00000000 0.00000000
0.36845555 0.00000000 0.00000000
0.44159895 0.00000000 0.00000000
0.51532676 0.00000000 0.00000000
0.58280203 0.00000000 0.00000000
0.64463533 0.00000000 0.00000000
0.70119783 0.00000000 0.00000000
0.75270292 0.00000000 0.00000000
0.79925728 0.00000000 0.00000000
0.84089388 0.00000000 0.00000000
0.87759410 0.00000000 0.00000000
0.90930277 0.00000000 0.00000000
0.93593869 0.00000000 0.00000000
0.95740197 0.00000000 0.00000000
0.97357935 0.00000000 0.00000000
0.98434792 0.00000000 0.00000000
0.98957785 0.00000000 0.00000000
0.99076710 0.00000000 0.00000000
0.99178382 0.00000000 0.00000000
0.99280019 0.00000000 0.00000000
0.99381629 0.00000000 0.00000000
0.99483219 0.00000000 0.00000000
0.99584793 0.00000000 0.00000000
0.99686356 0.00000000 0.00000000
0.00000000 0.09665936 0.00000000
0.00000000 0.09189342 0.00000000
0.00000000 0.08697741 0.00000000
0.00000000 0.08189720 0.00000000
0.01118579 0.07646660 0.00000000
0.05863099 0.07128340 0.00000000
0.11449616 0.06479816 0.00000000
0.17248728 0.05570102 0.00000000
0.23150500 0.04364631 0.00000000
0.29397863 0.02767253 0.00000000
0.36161614 0.00650552 0.00000000
0.43588721 0.00000000 0.00000000
0.51136908 0.00000000 0.00000000
0.58007236 0.00000000 0.00000000
0.64275197 0.00000000 0.00000000
0.69990192 0.00000000 0.00000000
0.75181623 0.00000000 0.00000000
0.79865582 0.00000000 0.00000000
0.84049086 0.00000000 0.00000000
0.87732857 0.00000000 0.00000000
0.90913190 0.00000000 0.00000000
0.93583238 0.00000000 0.00000000
0.95733918 0.00000000 0.00000000
0.97354542 0.00000000 0.00000000
0.98433270 0.00000000 0.00000000
0.98957439 0.00000000 0.00000000
0.99076600 0.00000000 0.00000000
0.99178300 0.00000000 0.00000000
0.99279957 0.00000000 0.00000000
0.99381582 0.00000000 0.00000000
0.99483183 0.00000000 0.00000000
0.99584766 0.00000000 0.00000000
0.99686336 0.00000000 0.00000000
0.00000000 0.13088251 0.00000000
0.00000000 0.12698668 0.00000000
0.00000000 0.12300697 0.00000000
0.00000000 0.11893810 0.00000000
0.00000000 0.11477419 0.00000000
0.03148573 0.11050872 0.00000000
0.09080032 0.10501745 0.00000000
0.15535228 0.09699545 0.00000000
0.21822382 0.08570285 0.00000000
0.28331716 0.06954230 0.00000000
0.35287979 0.04837530 0.00000000
0.42863393 0.02032673 0.00000000
0.50629916 0.00000000 0.00000000
0.57659624 0.00000000 0.00000000
0.64036389 0.00000000 0.00000000
0.69826393 0.00000000 0.00000000
0.75069810 0.00000000 0.00000000
0.79789870 0.00000000 0.00000000
0.83998422 0.00000000 0.00000000
0.87699510 0.00000000 0.00000000
0.90891746 0.00000000 0.00000000
0.93569904 0.00000000 0.00000000
0.95726046 0.00000000 0.00000000
0.97350287 0.00000000 0.00000000
0.98431361 0.00000000 0.00000000
0.98957003 0.00000000 0.00000000
0.99076463 0.00000000 0.00000000
0.99178196 0.00000000 0.00000000
0.99279878 0.00000000 0.00000000
0.99381523 0.00000000 0.00000000
0.99483139 0.00000000 0.00000000
0.99584733 0.00000000 0.00000000
0.99686311 0.00000000 0.00000000
0.00000000 0.17037401 0.00000000
0.00000000 0.16717440 0.00000000
0.00000000 0.16392708 0.00000000
0.00000000 0.16062999 0.00000000
0.00000000 0.15728090 0.00000000
0.00000000 0.15387745 0.00000000
0.05277147 0.14953855 0.00000000
0.12861831 0.14329136 0.00000000
0.19835894 0.13469666 0.00000000
0.26771869 0.12267460 0.00000000
0.34026514 0.10539575 0.00000000
0.41824914 0.07905939 0.00000000
0.49895476 0.04189199 0.00000000
0.57160199 0.00000000 0.00000000
0.63695315 0.00000000 0.00000000
0.69593459 0.00000000 0.00000000
0.74911313 0.00000000 0.00000000
0.79682802 0.00000000 0.00000000
0.83926901 0.00000000 0.00000000
0.87652499 0.00000000 0.00000000
0.90861544 0.00000000 0.00000000
0.93551138 0.00000000 0.00000000
0.95714971 0.00000000 0.00000000
0.97344304 0.00000000 0.00000000
0.98428676 0.00000000 0.00000000
0.98956389 0.00000000 0.00000000
0.99076270 0.00000000 0.00000000
0.99178050 0.00000000 0.00000000
0.99279769 0.00000000 0.00000000
0.99381440 0.00000000 0.00000000
0.99483076 0.00000000 0.00000000
0.99584686 0.00000000 0.00000000
0.99686275 0.00000000 0.00000000
0.00000000 0.21375068 0.00000000
0.00000000 0.21109028 0.00000000
0.00000000 0.20840170 0.00000000
0.00000000 0.20568406 0.00000000
0.00000000 0.20293647 0.00000000
0.00000000 0.20015797 0.00000000
0.00231411 0.19663645 0.00000000
0.08577100 0.19160846 0.00000000
0.16922441 0.18477734 0.00000000
0.24570625 0.17540320 0.00000000
0.32283394 0.16234295 0.00000000
0.40408245 0.14369768 0.00000000
0.48877422 0.11589469 0.00000000
0.56476055 0.07046830 0.00000000
0.63231988 0.00520559 0.00000000
0.69278943 0.00000000 0.00000000
0.74698252 0.00000000 0.00000000
0.79539347 0.00000000 0.00000000
0.83831308 0.00000000 0.00000000
0.87589778 0.00000000 0.00000000
0.90821304 0.00000000 0.00000000
0.93526160 0.00000000 0.00000000
0.95700239 0.00000000 0.00000000
0.97336348 0.00000000 0.00000000
0.98425105 0.00000000 0.00000000
0.98955570 0.00000000 0.00000000
0.99076014 0.00000000 0.00000000
0.99177857 0.00000000 0.00000000
0.99279623 0.00000000 0.00000000
0.99381330 0.00000000 0.00000000
0.99482993 0.00000000 0.00000000
0.99584623 0.00000000 0.00000000
0.99686228 0.00000000 0.00000000
0.00000000 0.26184034 0.00000000
0.00000000 0.25960982 0.00000000
0.00000000 0.25736222 0.00000000
0.00000000 0.25509715 0.00000000
0.00000000 0.25281423 0.00000000
0.00000000 0.25051307 0.00000000
0.00000000 0.24760750 0.00000000
0.01872476 0.24348082 0.00000000
0.12329130 0.23791707 0.00000000
0.21357646 0.23036676 0.00000000
0.29828110 0.22002335 0.00000000
0.38452296 0.20565062 0.00000000
0.47441643 0.18522121 0.00000000
0.55527396 0.15500769 0.00000000
0.62597019 0.10644616 0.00000000
0.68851499 0.02185484 0.00000000
0.74410438 0.00000000 0.00000000
0.79346420 0.00000000 0.00000000
0.83703171 0.00000000 0.00000000
0.87505909 0.00000000 0.00000000
0.90767593 0.00000000 0.00000000
0.93492862 0.00000000 0.00000000
0.95680619 0.00000000 0.00000000
0.97325756 0.00000000 0.00000000
0.98420348 0.00000000 0.00000000
0.98954472 0.00000000 0.00000000
0.99075675 0.00000000 0.00000000
0.99177602 0.00000000 0.00000000
0.99279430 0.00000000 0.00000000
0.99381185 0.00000000 0.00000000
0.99482884 0.00000000 0.00000000
0.99584540 0.00000000 0.00000000
0.99686165 0.00000000 0.00000000
0.00000000 0.31549867 0.00000000
0.00000000 0.31361770 0.00000000
0.00000000 0.31172620 0.00000000
0.00000000 0.30982399 0.00000000
0.00000000 0.30791090 0.00000000
0.00000000 0.30598675 0.00000000
0.00000000 0.30356339 0.00000000
0.00000000 0.30013369 0.00000000
0.04047065 0.29553269 0.00000000
0.16345552 0.28933291 0.00000000
0.26256238 0.28092625 0.00000000
0.35700919 0.26942328 0.00000000
0.45364593 0.25346821 0.00000000
0.54188918 0.23085704 0.00000000
0.61716049 0.19759987 0.00000000
0.68265353 0.14482636 0.00000000
0.74019050 0.04391690 0.00000000
0.79085654 0.00000000 0.00000000
0.83530747 0.00000000 0.00000000
0.87393425 0.00000000 0.00000000
0.90695730 0.00000000 0.00000000
0.93448390 0.00000000 0.00000000
0.95654444 0.00000000 0.00000000
0.97311634 0.00000000 0.00000000
0.98414005 0.00000000 0.00000000
0.98952999 0.00000000 0.00000000
0.99075225 0.00000000 0.00000000
0.99177263 0.00000000 0.00000000
0.99279175 0.00000000 0.00000000
0.99380992 0.00000000 0.00000000
0.99482738 0.00000000 0.00000000
0.99584431 0.00000000 0.00000000
0.99686083 0.00000000 0.00000000
0.00000000 0.37564315 0.00000000
0.00000000 0.37405040 0.00000000
0.00000000 0.37245108 0.00000000
0.00000000 0.37084509 0.00000000
0.00000000 0.36923237 0.00000000
0.00000000 0.36761283 0.00000000
0.00000000 0.36557673 0.00000000
0.00000000 0.36270207 0.00000000
0.00000000 0.35885881 0.00000000
0.06928631 0.35370449 0.00000000
0.20724089 0.34676191 0.00000000
0.31707743 0.33735342 0.00000000
0.42288860 0.32449039 0.00000000
0.52251662 0.30667166 0.00000000
0.60472159 0.28147190 0.00000000
0.67451472 0.24454750 0.00000000
0.73481920 0.18645452 0.00000000
0.78730771 0.07315153 0.00000000
0.83297516 0.00000000 0.00000000
0.87241948 0.00000000 0.00000000
0.90599272 0.00000000 0.00000000
0.93388835 0.00000000 0.00000000
0.95619448 0.00000000 0.00000000
0.97292768 0.00000000 0.00000000
0.98405525 0.00000000 0.00000000
0.98951013 0.00000000 0.00000000
0.99074628 0.00000000 0.00000000
0.99176813 0.00000000 0.00000000
0.99278835 0.00000000 0.00000000
0.99380736 0.00000000 0.00000000
0.99482545 0.00000000 0.00000000
0.99584285 0.00000000 0.00000000
0.99685973 0.00000000 0.00000000
0.00000000 0.44327664 0.00000000
0.00000000 0.44192590 0.00000000
0.00000000 0.44056904 0.00000000
0.00000000 0.43920799 0.00000000
0.00000000 0.43784273 0.00000000
0.00000000 0.43647321 0.00000000
0.00000000 0.43475361 0.00000000
0.00000000 0.43232998 0.00000000
0.00000000 0.42909743 0.00000000
0.00000000 0.42477632 0.00000000
0.10570652 0.41898237 0.00000000
0.25553920 0.41118050 0.00000000
0.37806815 0.40061186 0.00000000
0.49335752 0.38617143 0.00000000
0.58670107 0.36618593 0.00000000
0.66301100 0.33796390 0.00000000
0.72735312 0.29672177 0.00000000
0.78243238 0.23221955 0.00000000
0.82979787 0.10945348 0.00000000
0.87036845 0.00000000 0.00000000
0.90469242 0.00000000 0.00000000
0.93308807 0.00000000 0.00000000
0.95572521 0.00000000 0.00000000
0.97267497 0.00000000 0.00000000
0.98394158 0.00000000 0.00000000
0.98948321 0.00000000 0.00000000
0.99073835 0.00000000 0.00000000
0.99176215 0.00000000 0.00000000
0.99278385 0.00000000 0.00000000
0.99380397 0.00000000 0.00000000
0.99482290 0.00000000 0.00000000
0.99584092 0.00000000 0.00000000
0.99685827 0.00000000 0.00000000
0.00000000 0.51245036 0.00000000
0.00000000 0.51149799 0.00000000
0.00000000 0.51054087 0.00000000
0.00000000 0.50957893 0.00000000
0.00000000 0.50861215 0.00000000
0.00000000 0.50764048 0.00000000
0.00000000 0.50641776 0.00000000
0.00000000 0.50468941 0.00000000
0.00000000 0.50237504 0.00000000
0.00000000 0.49926495 0.00000000
0.00000000 0.49506545 0.00000000
0.14451842 0.48935760 0.00000000
0.30924165 0.48152895 0.00000000
0.44653635 0.47065398 0.00000000
0.55954528 0.45526906 0.00000000
0.64632218 0.43301507 0.00000000
0.71678544 0.40129745 0.00000000
0.77564643 0.35503641 0.00000000
0.82542713 0.28298844 0.00000000
0.86757063 0.14806140 0.00000000
0.90292935 0.00000000 0.00000000
0.93200762 0.00000000 0.00000000
0.95509347 0.00000000 0.00000000
0.97233527 0.00000000 0.00000000
0.98378865 0.00000000 0.00000000
0.98944648 0.00000000 0.00000000
0.99072781 0.00000000 0.00000000
0.99175423 0.00000000 0.00000000
0.99277788 0.00000000 0.00000000
0.99379947 0.00000000 0.00000000
0.99481951 0.00000000 0.00000000
0.99583837 0.00000000 0.00000000
0.99685635 0.00000000 0.00000000
0.00000000 0.57705471 0.00000000
0.00000000 0.57638486 0.00000000
0.00000000 0.57571245 0.00000000
0.00000000 0.57503749 0.00000000
0.00000000 0.57435993 0.00000000
0.00000000 0.57367978 0.00000000
0.00000000 0.57282508 0.00000000
0.00000000 0.57161918 0.00000000
0.00000000 0.57000853 0.00000000
0.00000000 0.56785159 0.00000000
0.00000000 0.56495272 0.00000000
0.00000000 0.56103783 0.00000000
0.18651868 0.55571576 0.00000000
0.36928576 0.54841440 0.00000000
0.51588345 0.53826867 0.00000000
0.62112773 0.52390986 0.00000000
0.70142593 0.50303076 0.00000000
0.76602388 0.47136911 0.00000000
0.81933269 0.42047944 0.00000000
0.86371508 0.33966077 0.00000000
0.90051995 0.18999200 0.00000000
0.93053973 0.00000000 0.00000000
0.95423855 0.00000000 0.00000000
0.97187648 0.00000000 0.00000000
0.98358190 0.00000000 0.00000000
0.98939592 0.00000000 0.00000000
0.99071381 0.00000000 0.00000000
0.99174369 0.00000000 0.00000000
0.99276996 0.00000000 0.00000000
0.99379350 0.00000000 0.00000000
0.99481501 0.00000000 0.00000000
0.99583498 0.00000000 0.00000000
0.99685379 0.00000000 0.00000000
0.00000000 0.63718523 0.00000000
0.00000000 0.63671601 0.00000000
0.00000000 0.63624543 0.00000000
0.00000000 0.63577347 0.00000000
0.00000000 0.63530014 0.00000000
0.00000000 0.63482542 0.00000000
0.00000000 0.63422948 0.00000000
0.00000000 0.63338983 0.00000000
0.00000000 0.63227049 0.00000000
0.00000000 0.63077529 0.00000000
0.00000000 0.62877268 0.00000000
0.00000000 0.62608072 0.00000000
0.00000000 0.62244439 0.00000000
0.23262405 0.61749942 0.00000000
0.43668697 0.61071254 0.00000000
0.58052669 0.60127653 0.00000000
0.67818076 0.58791265 0.00000000
0.75200405 0.56846273 0.00000000
0.81067030 0.53893595 0.00000000
0.85832644 0.49084097 0.00000000
0.89719169 0.40320324 0.00000000
0.92852848 0.23612949 0.00000000
0.95307348 0.00000000 0.00000000
0.97125299 0.00000000 0.00000000
0.98330058 0.00000000 0.00000000
0.98932556 0.00000000 0.00000000
0.99069516 0.00000000 0.00000000
0.99172969 0.00000000 0.00000000
0.99275943 0.00000000 0.00000000
0.99378558 0.00000000 0.00000000
0.99480904 0.00000000 0.00000000
0.99583048 0.00000000 0.00000000
0.99685040 0.00000000 0.00000000
0.00000000 0.69286889 0.00000000
0.00000000 0.69254212 0.00000000
0.00000000 0.69221461 0.00000000
0.00000000 0.69188638 0.00000000
0.00000000 0.69155741 0.00000000
0.00000000 0.69122769 0.00000000
0.00000000 0.69081411 0.00000000
0.00000000 0.69023200 0.00000000
0.00000000 0.68945707 0.00000000
0.00000000 0.68842389 0.00000000
0.00000000 0.68704359 0.00000000
0.00000000 0.68519450 0.00000000
0.00000000 0.68270829 0.00000000
0.00000000 0.67934874 0.00000000
0.28371868 0.67477812 0.00000000
0.50665755 0.66850129 0.00000000
0.64059829 0.65976759 0.00000000
0.73071725 0.64738555 0.00000000
0.79800962 0.62934012 0.00000000
0.85064349 0.60189731 0.00000000
0.89252523 0.55709898 0.00000000
0.92574064 0.47334986 0.00000000
0.95147063 0.28734187 0.00000000
0.97039863 0.00000000 0.00000000
0.98291456 0.00000000 0.00000000
0.98922630 0.00000000 0.00000000
0.99067031 0.00000000 0.00000000
0.99171105 0.00000000 0.00000000
0.99274542 0.00000000 0.00000000
0.99377505 0.00000000 0.00000000
0.99480111 0.00000000 0.00000000
0.99582451 0.00000000 0.00000000
0.99684590 0.00000000 0.00000000
0.00000000 0.74408407 0.00000000
0.00000000 0.74385825 0.00000000
0.00000000 0.74363204 0.00000000
0.00000000 0.74340543 0.00000000
0.00000000 0.74317844 0.00000000
0.00000000 0.74295105 0.00000000
0.00000000 0.74266598 0.00000000
0.00000000 0.74226507 0.00000000
0.00000000 0.74173192 0.00000000
0.00000000 0.74102209 0.00000000
0.00000000 0.74007558 0.00000000
0.00000000 0.73881083 0.00000000
0.00000000 0.73711610 0.00000000
0.00000000 0.73483667 0.00000000
0.00000000 0.73175516 0.00000000
0.34071417 0.72756033 0.00000000
0.57193578 0.72179506 0.00000000
0.69615069 0.71376477 0.00000000
0.77870540 0.70236419 0.00000000
0.83936802 0.68571848 0.00000000
0.88584405 0.66034240 0.00000000
0.92181425 0.61878480 0.00000000
0.94923713 0.54078410 0.00000000
0.96921486 0.34453303 0.00000000
0.98237903 0.00000000 0.00000000
0.98908392 0.00000000 0.00000000
0.99063710 0.00000000 0.00000000
0.99168620 0.00000000 0.00000000
0.99272678 0.00000000 0.00000000
0.99376105 0.00000000 0.00000000
0.99479058 0.00000000 0.00000000
0.99581658 0.00000000 0.00000000
0.99683993 0.00000000 0.00000000
0.00000000 0.79077445 0.00000000
0.00000000 0.79061993 0.00000000
0.00000000 0.79046522 0.00000000
0.00000000 0.79031029 0.00000000
0.00000000 0.79015516 0.00000000
0.00000000 0.78999981 0.00000000
0.00000000 0.78980516 0.00000000
0.00000000 0.78953154 0.00000000
0.00000000 0.78916798 0.00000000
0.00000000 0.78868445 0.00000000
0.00000000 0.78804061 0.00000000
0.00000000 0.78718191 0.00000000
0.00000000 0.78603421 0.00000000
0.00000000 0.78449584 0.00000000
0.00000000 0.78242580 0.00000000
0.00000000 0.77962576 0.00000000
0.40458656 0.77581118 0.00000000
0.63262960 0.77056318 0.00000000
0.74718022 0.76324349 0.00000000
0.82208147 0.75283303 0.00000000
0.87598462 0.73759639 0.00000000
0.91615946 0.71429358 0.00000000
0.94606979 0.67596642 0.00000000
0.96755015 0.60361654 0.00000000
0.98162529 0.40867630 0.00000000
0.98887549 0.00000000 0.00000000
0.99059263 0.00000000 0.00000000
0.99165300 0.00000000 0.00000000
0.99270194 0.00000000 0.00000000
0.99374241 0.00000000 0.00000000
0.99477658 0.00000000 0.00000000
0.99580605 0.00000000 0.00000000
0.99683201 0.00000000 0.00000000
0.00000000 0.83285868 0.00000000
0.00000000 0.83275432 0.00000000
0.00000000 0.83264984 0.00000000
0.00000000 0.83254525 0.00000000
0.00000000 0.83244056 0.00000000
0.00000000 0.83233575 0.00000000
0.00000000 0.83220446 0.00000000
0.00000000 0.83202000 0.00000000
0.00000000 0.83177504 0.00000000
0.00000000 0.83144952 0.00000000
0.00000000 0.83101653 0.00000000
0.00000000 0.83043988 0.00000000
0.00000000 0.82967061 0.00000000
0.00000000 0.82864210 0.00000000
0.00000000 0.82726291 0.00000000
0.00000000 0.82540603 0.00000000
0.00000000 0.82289244 0.00000000
0.47493695 0.81946470 0.00000000
0.68880079 0.81474272 0.00000000
0.79364326 0.80814520 0.00000000
0.86075865 0.79873999 0.00000000
0.90775031 0.78493188 0.00000000
0.94146759 0.76372585 0.00000000
0.96516166 0.72865120 0.00000000
0.98054424 0.66193416 0.00000000
0.98856293 0.47898067 0.00000000
0.99053284 0.00000000 0.00000000
0.99160854 0.00000000 0.00000000
0.99266874 0.00000000 0.00000000
0.99371756 0.00000000 0.00000000
0.99475795 0.00000000 0.00000000
0.99579206 0.00000000 0.00000000
0.99682148 0.00000000 0.00000000
0.00000000 0.87023738 0.00000000
0.00000000 0.87016806 0.00000000
0.00000000 0.87009868 0.00000000
0.00000000 0.87002924 0.00000000
0.00000000 0.86995974 0.00000000
0.00000000 0.86989019 0.00000000
0.00000000 0.86980308 0.00000000
0.00000000 0.86968074 0.00000000
0.00000000 0.86951835 0.00000000
0.00000000 0.86930268 0.00000000
0.00000000 0.86901603 0.00000000
0.00000000 0.86863468 0.00000000
0.00000000 0.86812668 0.00000000
0.00000000 0.86744878 0.00000000
0.00000000 0.86654205 0.00000000
0.00000000 0.86532547 0.00000000
0.00000000 0.86368632 0.00000000
0.00000000 0.86146529 0.00000000
0.54237453 0.85843256 0.00000000
0.74045228 0.85424754 0.00000000
0.83546754 0.84838689 0.00000000
0.89463355 0.84000677 0.00000000
0.93454551 0.82765390 0.00000000
0.96163945 0.80858036 0.00000000
0.97895496 0.77680348 0.00000000
0.98808070 0.71575773 0.00000000
0.99045206 0.54603732 0.00000000
0.99154876 0.00000000 0.00000000
0.99262429 0.00000000 0.00000000
0.99368437 0.00000000 0.00000000
0.99473310 0.00000000 0.00000000
0.99577342 0.00000000 0.00000000
0.99680748 0.00000000 0.00000000
0.00000000 0.90279802 0.00000000
0.00000000 0.90275300 0.00000000
0.00000000 0.90270796 0.00000000
0.00000000 0.90266288 0.00000000
0.00000000 0.90261777 0.00000000
0.00000000 0.90257263 0.00000000
0.00000000 0.90251611 0.00000000
0.00000000 0.90243675 0.00000000
0.00000000 0.90233145 0.00000000
0.00000000 0.90219165 0.00000000
0.00000000 0.90200596 0.00000000
0.00000000 0.90175913 0.00000000
0.00000000 0.90143065 0.00000000
0.00000000 0.90099295 0.00000000
0.00000000 0.90040860 0.00000000
0.00000000 0.89962655 0.00000000
0.00000000 0.89857647 0.00000000
0.00000000 0.89716022 0.00000000
0.00000000 0.89523866 0.00000000
0.60517281 0.89261024 0.00000000
0.78754517 0.88897471 0.00000000
0.87256016 0.88386791 0.00000000
0.92359068 0.87653608 0.00000000
0.95624299 0.86567044 0.00000000
0.97654098 0.84877392 0.00000000
0.98731140 0.82035675 0.00000000
0.99034215 0.76506114 0.00000000
0.99146799 0.60850227 0.00000000
0.99256452 0.00000000 0.00000000
0.99363992 0.00000000 0.00000000
0.99469992 0.00000000 0.00000000
