Slog3_Super8_to_BT709.cube
TITLE "Slog3_Super8_to_BT709"
LUT_3D_SIZE 33
# Slog3 with Sony S3 Gamut input to Linear BT709 SDR tweaked for Super 8 capture with blue-shift fix by Francesco Bucciantini v2
0.00000000 0.00000000 0.00000000
0.00000000 0.00000000 0.00000000
0.00000000 0.00000000 0.00000000
0.04574342 0.00000000 0.00000000
0.10643391 0.00000000 0.00000000
0.15322236 0.00000000 0.00000000
0.19987846 0.00000000 0.00000000
0.25325605 0.00000000 0.00000000
0.31154810 0.00000000 0.00000000
0.37592332 0.00000000 0.00000000
0.44751342 0.00000000 0.00000000
0.51785428 0.00000000 0.00000000
0.58079071 0.00000000 0.00000000
0.63722247 0.00000000 0.00000000
0.68782635 0.00000000 0.00000000
0.73313319 0.00000000 0.00000000
0.77357635 0.00000000 0.00000000
0.80952321 0.00000000 0.00000000
0.84129602 0.00000000 0.00000000
0.86918603 0.00000000 0.00000000
0.89346300 0.00000000 0.00000000
0.91438184 0.00000000 0.00000000
0.93218715 0.00000000 0.00000000
0.94711638 0.00000000 0.00000000
0.95940204 0.00000000 0.00000000
0.96927322 0.00000000 0.00000000
0.97695663 0.00000000 0.00000000
0.98267738 0.00000000 0.00000000
0.98665946 0.00000000 0.00000000
0.98912613 0.00000000 0.00000000
0.99037808 0.00000000 0.00000000
0.99139363 0.00000000 0.00000000
0.99240911 0.00000000 0.00000000
0.00000000 0.00000000 0.00000000
0.00000000 0.00000000 0.00000000
0.00000000 0.00000000 0.00000000
0.03292707 0.00000000 0.00000000
0.09500456 0.00000000 0.00000000
0.14475345 0.00000000 0.00000000
0.19280552 0.00000000 0.00000000
0.24748133 0.00000000 0.00000000
0.30692473 0.00000000 0.00000000
0.37208689 0.00000000 0.00000000
0.44428307 0.00000000 0.00000000
0.51565240 0.00000000 0.00000000
0.57929684 0.00000000 0.00000000
0.63621600 0.00000000 0.00000000
0.68714801 0.00000000 0.00000000
0.73267655 0.00000000 0.00000000
0.77326986 0.00000000 0.00000000
0.80931840 0.00000000 0.00000000
0.84115997 0.00000000 0.00000000
0.86909632 0.00000000 0.00000000
0.89340438 0.00000000 0.00000000
0.91434396 0.00000000 0.00000000
0.93216300 0.00000000 0.00000000
0.94710124 0.00000000 0.00000000
0.95939275 0.00000000 0.00000000
0.96926766 0.00000000 0.00000000
0.97695343 0.00000000 0.00000000
0.98267563 0.00000000 0.00000000
0.98665859 0.00000000 0.00000000
0.98912576 0.00000000 0.00000000
0.99037792 0.00000000 0.00000000
0.99139351 0.00000000 0.00000000
0.99240902 0.00000000 0.00000000
0.00000000 0.00468236 0.00000000
0.00000000 0.00000000 0.00000000
0.00000000 0.00000000 0.00000000
0.02024318 0.00000000 0.00000000
0.08305890 0.00000000 0.00000000
0.13553314 0.00000000 0.00000000
0.18557151 0.00000000 0.00000000
0.24159942 0.00000000 0.00000000
0.30218755 0.00000000 0.00000000
0.36790326 0.00000000 0.00000000
0.44088023 0.00000000 0.00000000
0.51353661 0.00000000 0.00000000
0.57786777 0.00000000 0.00000000
0.63521840 0.00000000 0.00000000
0.68645919 0.00000000 0.00000000
0.73221231 0.00000000 0.00000000
0.77295989 0.00000000 0.00000000
0.80911198 0.00000000 0.00000000
0.84102317 0.00000000 0.00000000
0.86900625 0.00000000 0.00000000
0.89334560 0.00000000 0.00000000
0.91430600 0.00000000 0.00000000
0.93213881 0.00000000 0.00000000
0.94708608 0.00000000 0.00000000
0.95938344 0.00000000 0.00000000
0.96926211 0.00000000 0.00000000
0.97695023 0.00000000 0.00000000
0.98267389 0.00000000 0.00000000
0.98665772 0.00000000 0.00000000
0.98912539 0.00000000 0.00000000
0.99037777 0.00000000 0.00000000
0.99139339 0.00000000 0.00000000
0.99240893 0.00000000 0.00000000
0.00000000 0.03813985 0.00000000
0.00000000 0.03127257 0.00000000
0.00000000 0.02440687 0.00000000
0.00750151 0.01754151 0.00000000
0.07007862 0.01067488 0.00000000
0.12604285 0.00381051 0.00000000
0.17828237 0.00000000 0.00000000
0.23581743 0.00000000 0.00000000
0.29722333 0.00000000 0.00000000
0.36452130 0.00000000 0.00000000
0.43749651 0.00000000 0.00000000
0.51106506 0.00000000 0.00000000
0.57636214 0.00000000 0.00000000
0.63426563 0.00000000 0.00000000
0.68580573 0.00000000 0.00000000
0.73175337 0.00000000 0.00000000
0.77264559 0.00000000 0.00000000
0.80890348 0.00000000 0.00000000
0.84088543 0.00000000 0.00000000
0.86891576 0.00000000 0.00000000
0.89328661 0.00000000 0.00000000
0.91426795 0.00000000 0.00000000
0.93211458 0.00000000 0.00000000
0.94707090 0.00000000 0.00000000
0.95937413 0.00000000 0.00000000
0.96925655 0.00000000 0.00000000
0.97694704 0.00000000 0.00000000
0.98267215 0.00000000 0.00000000
0.98665685 0.00000000 0.00000000
0.98912502 0.00000000 0.00000000
0.99037761 0.00000000 0.00000000
0.99139327 0.00000000 0.00000000
0.99240884 0.00000000 0.00000000
0.00000000 0.07159735 0.00000000
0.00000000 0.06472922 0.00000000
0.00000000 0.05786586 0.00000000
0.00000000 0.05099788 0.00000000
0.05733145 0.04413289 0.00000000
0.11605337 0.03726459 0.00000000
0.17061843 0.02867574 0.00000000
0.22978731 0.01662579 0.00000000
0.29231620 0.00066269 0.00000000
0.35998384 0.00000000 0.00000000
0.43466821 0.00000000 0.00000000
0.50884507 0.00000000 0.00000000
0.57466819 0.00000000 0.00000000
0.63321903 0.00000000 0.00000000
0.68516021 0.00000000 0.00000000
0.73131608 0.00000000 0.00000000
0.77233975 0.00000000 0.00000000
0.80869286 0.00000000 0.00000000
0.84074657 0.00000000 0.00000000
0.86882478 0.00000000 0.00000000
0.89322741 0.00000000 0.00000000
0.91422980 0.00000000 0.00000000
0.93209030 0.00000000 0.00000000
0.94705569 0.00000000 0.00000000
0.95936480 0.00000000 0.00000000
0.96925098 0.00000000 0.00000000
0.97694383 0.00000000 0.00000000
0.98267040 0.00000000 0.00000000
0.98665598 0.00000000 0.00000000
0.98912466 0.00000000 0.00000000
0.99037745 0.00000000 0.00000000
0.99139315 0.00000000 0.00000000
0.99240875 0.00000000 0.00000000
0.00000000 0.10362325 0.00000000
0.00000000 0.09755932 0.00000000
0.00000000 0.09124448 0.00000000
0.00000000 0.08467133 0.00000000
0.04457326 0.07759312 0.00000000
0.10544162 0.07072426 0.00000000
0.16268093 0.06213063 0.00000000
0.22359369 0.05008357 0.00000000
0.28733535 0.03411534 0.00000000
0.35583964 0.01298172 0.00000000
0.43068934 0.00000000 0.00000000
0.50708576 0.00000000 0.00000000
0.57315066 0.00000000 0.00000000
0.63205440 0.00000000 0.00000000
0.68446289 0.00000000 0.00000000
0.73088232 0.00000000 0.00000000
0.77204502 0.00000000 0.00000000
0.80848738 0.00000000 0.00000000
0.84060642 0.00000000 0.00000000
0.86873324 0.00000000 0.00000000
0.89316797 0.00000000 0.00000000
0.91419154 0.00000000 0.00000000
0.93206597 0.00000000 0.00000000
0.94704047 0.00000000 0.00000000
0.95935547 0.00000000 0.00000000
0.96924541 0.00000000 0.00000000
0.97694063 0.00000000 0.00000000
0.98266866 0.00000000 0.00000000
0.98665511 0.00000000 0.00000000
0.98912429 0.00000000 0.00000000
0.99037729 0.00000000 0.00000000
0.99139303 0.00000000 0.00000000
0.99240866 0.00000000 0.00000000
0.00000000 0.13663212 0.00000000
0.00000000 0.13161687 0.00000000
0.00000000 0.12645031 0.00000000
0.00000000 0.12114742 0.00000000
0.02864721 0.11567798 0.00000000
0.09112795 0.11003873 0.00000000
0.15229776 0.10270127 0.00000000
0.21563423 0.09182754 0.00000000
0.28097914 0.07597952 0.00000000
0.35067258 0.05482426 0.00000000
0.42647349 0.02679593 0.00000000
0.50331721 0.00000000 0.00000000
0.57160401 0.00000000 0.00000000
0.63074640 0.00000000 0.00000000
0.68347540 0.00000000 0.00000000
0.73030833 0.00000000 0.00000000
0.77168115 0.00000000 0.00000000
0.80823885 0.00000000 0.00000000
0.84043393 0.00000000 0.00000000
0.86861779 0.00000000 0.00000000
0.89309320 0.00000000 0.00000000
0.91414350 0.00000000 0.00000000
0.93203546 0.00000000 0.00000000
0.94702139 0.00000000 0.00000000
0.95934378 0.00000000 0.00000000
0.96923843 0.00000000 0.00000000
0.97693662 0.00000000 0.00000000
0.98266648 0.00000000 0.00000000
0.98665402 0.00000000 0.00000000
0.98912383 0.00000000 0.00000000
0.99037709 0.00000000 0.00000000
0.99139288 0.00000000 0.00000000
0.99240855 0.00000000 0.00000000
0.00000000 0.17512556 0.00000000
0.00000000 0.17096975 0.00000000
0.00000000 0.16672882 0.00000000
0.00000000 0.16241038 0.00000000
0.00626227 0.15800067 0.00000000
0.06884329 0.15349510 0.00000000
0.13677937 0.14771873 0.00000000
0.20403757 0.13931960 0.00000000
0.27184258 0.12760479 0.00000000
0.34327824 0.11083024 0.00000000
0.42038263 0.08569326 0.00000000
0.49943382 0.04833760 0.00000000
0.56816628 0.00000794 0.00000000
0.62919095 0.00000000 0.00000000
0.68221372 0.00000000 0.00000000
0.72938663 0.00000000 0.00000000
0.77114821 0.00000000 0.00000000
0.80789723 0.00000000 0.00000000
0.84020067 0.00000000 0.00000000
0.86845712 0.00000000 0.00000000
0.89298751 0.00000000 0.00000000
0.91407577 0.00000000 0.00000000
0.93199252 0.00000000 0.00000000
0.94699456 0.00000000 0.00000000
0.95932735 0.00000000 0.00000000
0.96922864 0.00000000 0.00000000
0.97693099 0.00000000 0.00000000
0.98266341 0.00000000 0.00000000
0.98665249 0.00000000 0.00000000
0.98912318 0.00000000 0.00000000
0.99037682 0.00000000 0.00000000
0.99139267 0.00000000 0.00000000
0.99240839 0.00000000 0.00000000
0.00000000 0.21771443 0.00000000
0.00000000 0.21423863 0.00000000
0.00000000 0.21072344 0.00000000
0.00000000 0.20713695 0.00000000
0.00000000 0.20351777 0.00000000
0.03919438 0.19983978 0.00000000
0.11407589 0.19515867 0.00000000
0.18776699 0.18843281 0.00000000
0.25929956 0.17921058 0.00000000
0.33322432 0.16638785 0.00000000
0.41216928 0.14812068 0.00000000
0.49369214 0.12101956 0.00000000
0.56472508 0.07696019 0.00000000
0.62620838 0.01284241 0.00000000
0.68077219 0.00000000 0.00000000
0.72824409 0.00000000 0.00000000
0.77033716 0.00000000 0.00000000
0.80742898 0.00000000 0.00000000
0.83989938 0.00000000 0.00000000
0.86825227 0.00000000 0.00000000
0.89284785 0.00000000 0.00000000
0.91398531 0.00000000 0.00000000
0.93193531 0.00000000 0.00000000
0.94695888 0.00000000 0.00000000
0.95930552 0.00000000 0.00000000
0.96921563 0.00000000 0.00000000
0.97692352 0.00000000 0.00000000
0.98265934 0.00000000 0.00000000
0.98665046 0.00000000 0.00000000
0.98912232 0.00000000 0.00000000
0.99037645 0.00000000 0.00000000
0.99139240 0.00000000 0.00000000
0.99240818 0.00000000 0.00000000
0.00000000 0.26516737 0.00000000
0.00000000 0.26224232 0.00000000
0.00000000 0.25929324 0.00000000
0.00000000 0.25630694 0.00000000
0.00000000 0.25328260 0.00000000
0.00000000 0.25024127 0.00000000
0.07822709 0.24638109 0.00000000
0.16429585 0.24088025 0.00000000
0.24178915 0.23341327 0.00000000
0.31945966 0.22319203 0.00000000
0.40101056 0.20900926 0.00000000
0.48578867 0.18887578 0.00000000
0.55962024 0.15919955 0.00000000
0.62309469 0.11198313 0.00000000
0.67818459 0.02971690 0.00000000
0.72692701 0.00000000 0.00000000
0.76930765 0.00000000 0.00000000
0.80671858 0.00000000 0.00000000
0.83948932 0.00000000 0.00000000
0.86798850 0.00000000 0.00000000
0.89266975 0.00000000 0.00000000
0.91386541 0.00000000 0.00000000
0.93185891 0.00000000 0.00000000
0.94691136 0.00000000 0.00000000
0.95927649 0.00000000 0.00000000
0.96919836 0.00000000 0.00000000
0.97691360 0.00000000 0.00000000
0.98265394 0.00000000 0.00000000
0.98664776 0.00000000 0.00000000
0.98912119 0.00000000 0.00000000
0.99037596 0.00000000 0.00000000
0.99139203 0.00000000 0.00000000
0.99240790 0.00000000 0.00000000
0.00000000 0.31830239 0.00000000
0.00000000 0.31582919 0.00000000
0.00000000 0.31333815 0.00000000
0.00000000 0.31083661 0.00000000
0.00000000 0.30830103 0.00000000
0.00000000 0.30574363 0.00000000
0.02617291 0.30253367 0.00000000
0.12859754 0.29796702 0.00000000
0.21673144 0.29182009 0.00000000
0.30030797 0.28348067 0.00000000
0.38575891 0.27207848 0.00000000
0.47473457 0.25627890 0.00000000
0.55256451 0.23390651 0.00000000
0.61855018 0.20107694 0.00000000
0.67535018 0.14944236 0.00000000
0.72467594 0.05197933 0.00000000
0.76811778 0.00000000 0.00000000
0.80579694 0.00000000 0.00000000
0.83887004 0.00000000 0.00000000
0.86763140 0.00000000 0.00000000
0.89244095 0.00000000 0.00000000
0.91371240 0.00000000 0.00000000
0.93175743 0.00000000 0.00000000
0.94684789 0.00000000 0.00000000
0.95923783 0.00000000 0.00000000
0.96917538 0.00000000 0.00000000
0.97690042 0.00000000 0.00000000
0.98264678 0.00000000 0.00000000
0.98664419 0.00000000 0.00000000
0.98911968 0.00000000 0.00000000
0.99037531 0.00000000 0.00000000
0.99139154 0.00000000 0.00000000
0.99240753 0.00000000 0.00000000
0.00000000 0.37801148 0.00000000
0.00000000 0.37591323 0.00000000
0.00000000 0.37380312 0.00000000
0.00000000 0.37168492 0.00000000
0.00000000 0.36955914 0.00000000
0.00000000 0.36740922 0.00000000
0.00000000 0.36469559 0.00000000
0.06704299 0.36088005 0.00000000
0.17925652 0.35575459 0.00000000
0.27303977 0.34885674 0.00000000
0.36458705 0.33950359 0.00000000
0.45898231 0.32672515 0.00000000
0.54270690 0.30903583 0.00000000
0.61223691 0.28403321 0.00000000
0.67130004 0.24745876 0.00000000
0.72210024 0.19038662 0.00000000
0.76615572 0.08165855 0.00000000
0.80473212 0.00000000 0.00000000
0.83805142 0.00000000 0.00000000
0.86709425 0.00000000 0.00000000
0.89213240 0.00000000 0.00000000
0.91351614 0.00000000 0.00000000
0.93162781 0.00000000 0.00000000
0.94676345 0.00000000 0.00000000
0.95918619 0.00000000 0.00000000
0.96914477 0.00000000 0.00000000
0.97688290 0.00000000 0.00000000
0.98263726 0.00000000 0.00000000
0.98663944 0.00000000 0.00000000
0.98911768 0.00000000 0.00000000
0.99037446 0.00000000 0.00000000
0.99139089 0.00000000 0.00000000
0.99240705 0.00000000 0.00000000
0.00000000 0.44526551 0.00000000
0.00000000 0.44349361 0.00000000
0.00000000 0.44170482 0.00000000
0.00000000 0.43990520 0.00000000
0.00000000 0.43810275 0.00000000
0.00000000 0.43629540 0.00000000
0.00000000 0.43401371 0.00000000
0.00000000 0.43077831 0.00000000
0.11708939 0.42648093 0.00000000
0.23266829 0.42071182 0.00000000
0.33454711 0.41294799 0.00000000
0.43585286 0.40242572 0.00000000
0.52866833 0.38805729 0.00000000
0.60342015 0.36818090 0.00000000
0.66564927 0.34012467 0.00000000
0.71849195 0.29917512 0.00000000
0.76382777 0.23562788 0.00000000
0.80302189 0.11641404 0.00000000
0.83710696 0.00000000 0.00000000
0.86637415 0.00000000 0.00000000
0.89166974 0.00000000 0.00000000
0.91325223 0.00000000 0.00000000
0.93146174 0.00000000 0.00000000
0.94665551 0.00000000 0.00000000
0.95911742 0.00000000 0.00000000
0.96910388 0.00000000 0.00000000
0.97685955 0.00000000 0.00000000
0.98262459 0.00000000 0.00000000
0.98663313 0.00000000 0.00000000
0.98911502 0.00000000 0.00000000
0.99037332 0.00000000 0.00000000
0.99139004 0.00000000 0.00000000
0.99240640 0.00000000 0.00000000
0.00000000 0.51272722 0.00000000
0.00000000 0.51151252 0.00000000
0.00000000 0.51028902 0.00000000
0.00000000 0.50905654 0.00000000
0.00000000 0.50781502 0.00000000
0.00000000 0.50656733 0.00000000
0.00000000 0.50499606 0.00000000
0.00000000 0.50276060 0.00000000
0.00024069 0.49973529 0.00000000
0.16739467 0.49566929 0.00000000
0.29035615 0.49012693 0.00000000
0.40248366 0.48250619 0.00000000
0.50803450 0.47187422 0.00000000
0.59086507 0.45675746 0.00000000
0.65775779 0.43470147 0.00000000
0.71344101 0.40312552 0.00000000
0.76061966 0.35711347 0.00000000
0.80093303 0.28598995 0.00000000
0.83561936 0.15391801 0.00000000
0.86554415 0.00000000 0.00000000
0.89104304 0.00000000 0.00000000
0.91285746 0.00000000 0.00000000
0.93123890 0.00000000 0.00000000
0.94651732 0.00000000 0.00000000
0.95902942 0.00000000 0.00000000
0.96904939 0.00000000 0.00000000
0.97682836 0.00000000 0.00000000
0.98260771 0.00000000 0.00000000
0.98662474 0.00000000 0.00000000
0.98911148 0.00000000 0.00000000
0.99037181 0.00000000 0.00000000
0.99138890 0.00000000 0.00000000
0.99240554 0.00000000 0.00000000
0.00000000 0.57405355 0.00000000
0.00000000 0.57322151 0.00000000
0.00000000 0.57238492 0.00000000
0.00000000 0.57154372 0.00000000
0.00000000 0.57069782 0.00000000
0.00000000 0.56984715 0.00000000
0.00000000 0.56877799 0.00000000
0.00000000 0.56726920 0.00000000
0.00000000 0.56524248 0.00000000
0.03264058 0.56249768 0.00000000
0.22002938 0.55880741 0.00000000
0.35360345 0.55377874 0.00000000
0.47621976 0.54686254 0.00000000
0.57242600 0.53721382 0.00000000
0.64651729 0.52349345 0.00000000
0.70638542 0.50339777 0.00000000
0.75611765 0.47259344 0.00000000
0.79809110 0.42224392 0.00000000
0.83376059 0.34234604 0.00000000
0.86425569 0.19501851 0.00000000
0.89032103 0.00000000 0.00000000
0.91231860 0.00000000 0.00000000
0.93090615 0.00000000 0.00000000
0.94633217 0.00000000 0.00000000
0.95891683 0.00000000 0.00000000
0.96897960 0.00000000 0.00000000
0.97678675 0.00000000 0.00000000
0.98258516 0.00000000 0.00000000
0.98661355 0.00000000 0.00000000
0.98910678 0.00000000 0.00000000
0.99036981 0.00000000 0.00000000
0.99138739 0.00000000 0.00000000
0.99240441 0.00000000 0.00000000
0.00000000 0.62971080 0.00000000
0.00000000 0.62914199 0.00000000
0.00000000 0.62857082 0.00000000
0.00000000 0.62799727 0.00000000
0.00000000 0.62742130 0.00000000
0.00000000 0.62684290 0.00000000
0.00000000 0.62611572 0.00000000
0.00000000 0.62509040 0.00000000
0.00000000 0.62372375 0.00000000
0.00000000 0.62188891 0.00000000
0.07556946 0.61940285 0.00000000
0.27662048 0.61605898 0.00000000
0.42363590 0.61150306 0.00000000
0.54403280 0.60523502 0.00000000
0.63001196 0.59648911 0.00000000
0.69633004 0.58404838 0.00000000
0.74982598 0.56581946 0.00000000
0.79409522 0.53786713 0.00000000
0.83125613 0.49161053 0.00000000
0.86261700 0.40564567 0.00000000
0.88921229 0.24051884 0.00000000
0.91169784 0.00000000 0.00000000
0.93044928 0.00000000 0.00000000
0.94605604 0.00000000 0.00000000
0.95876612 0.00000000 0.00000000
0.96889033 0.00000000 0.00000000
0.97673343 0.00000000 0.00000000
0.98255506 0.00000000 0.00000000
0.98659860 0.00000000 0.00000000
0.98910050 0.00000000 0.00000000
0.99036715 0.00000000 0.00000000
0.99138539 0.00000000 0.00000000
0.99240290 0.00000000 0.00000000
0.00000000 0.68009049 0.00000000
0.00000000 0.67970277 0.00000000
0.00000000 0.67931382 0.00000000
0.00000000 0.67892364 0.00000000
0.00000000 0.67853223 0.00000000
0.00000000 0.67813956 0.00000000
0.00000000 0.67764647 0.00000000
0.00000000 0.67695140 0.00000000
0.00000000 0.67602514 0.00000000
0.00000000 0.67479062 0.00000000
0.00000000 0.67313375 0.00000000
0.12589377 0.67088808 0.00000000
0.33848478 0.66786613 0.00000000
0.49675799 0.66374894 0.00000000
0.60460677 0.65808224 0.00000000
0.68156065 0.65017286 0.00000000
0.74085233 0.63891617 0.00000000
0.78850722 0.62241091 0.00000000
0.82772907 0.59708173 0.00000000
0.86042482 0.55512619 0.00000000
0.88778263 0.47518226 0.00000000
0.91075221 0.29123912 0.00000000
0.92992291 0.00000000 0.00000000
0.94567521 0.00000000 0.00000000
0.95854155 0.00000000 0.00000000
0.96877092 0.00000000 0.00000000
0.97666522 0.00000000 0.00000000
0.98251645 0.00000000 0.00000000
0.98657861 0.00000000 0.00000000
0.98909210 0.00000000 0.00000000
0.99036361 0.00000000 0.00000000
0.99138273 0.00000000 0.00000000
0.99240090 0.00000000 0.00000000
0.00000000 0.72553256 0.00000000
0.00000000 0.72526929 0.00000000
0.00000000 0.72500539 0.00000000
0.00000000 0.72474085 0.00000000
0.00000000 0.72447567 0.00000000
0.00000000 0.72420985 0.00000000
0.00000000 0.72387633 0.00000000
0.00000000 0.72340678 0.00000000
0.00000000 0.72278142 0.00000000
0.00000000 0.72194781 0.00000000
0.00000000 0.72083676 0.00000000
0.00000000 0.71934591 0.00000000
0.17643200 0.71732471 0.00000000
0.40685151 0.71460352 0.00000000
0.56235486 0.71089575 0.00000000
0.65882026 0.70579021 0.00000000
0.72766254 0.69866073 0.00000000
0.78052939 0.68850694 0.00000000
0.82279260 0.67360494 0.00000000
0.85733312 0.65070914 0.00000000
0.88587992 0.61272481 0.00000000
0.90951972 0.54022656 0.00000000
0.92912574 0.34805280 0.00000000
0.94523628 0.00000000 0.00000000
0.95823071 0.00000000 0.00000000
0.96859304 0.00000000 0.00000000
0.97657400 0.00000000 0.00000000
0.98246704 0.00000000 0.00000000
0.98655296 0.00000000 0.00000000
0.98908086 0.00000000 0.00000000
0.99035888 0.00000000 0.00000000
0.99137919 0.00000000 0.00000000
0.99239824 0.00000000 0.00000000
0.00000000 0.76634123 0.00000000
0.00000000 0.76616331 0.00000000
0.00000000 0.76598507 0.00000000
0.00000000 0.76580649 0.00000000
0.00000000 0.76562759 0.00000000
0.00000000 0.76544836 0.00000000
0.00000000 0.76522363 0.00000000
0.00000000 0.76490752 0.00000000
0.00000000 0.76448703 0.00000000
0.00000000 0.76392698 0.00000000
0.00000000 0.76318027 0.00000000
0.00000000 0.76218495 0.00000000
0.00000000 0.76084953 0.00000000
0.22963025 0.75903858 0.00000000
0.48057225 0.75659928 0.00000000
0.62099780 0.75327492 0.00000000
0.70733560 0.74869489 0.00000000
0.76879064 0.74229538 0.00000000
0.81573650 0.73317331 0.00000000
0.85300154 0.71976981 0.00000000
0.88319275 0.69914442 0.00000000
0.90788525 0.66485374 0.00000000
0.92807793 0.59922707 0.00000000
0.94457429 0.41191288 0.00000000
0.95787223 0.00000000 0.00000000
0.96834610 0.00000000 0.00000000
0.97643811 0.00000000 0.00000000
0.98240095 0.00000000 0.00000000
0.98652010 0.00000000 0.00000000
0.98906639 0.00000000 0.00000000
0.99035258 0.00000000 0.00000000
0.99137446 0.00000000 0.00000000
0.99239469 0.00000000 0.00000000
0.00000000 0.80279580 0.00000000
0.00000000 0.80267625 0.00000000
0.00000000 0.80255652 0.00000000
0.00000000 0.80243663 0.00000000
0.00000000 0.80231657 0.00000000
0.00000000 0.80219634 0.00000000
0.00000000 0.80204567 0.00000000
0.00000000 0.80183386 0.00000000
0.00000000 0.80155238 0.00000000
0.00000000 0.80117793 0.00000000
0.00000000 0.80067917 0.00000000
0.00000000 0.80001405 0.00000000
0.00000000 0.79912736 0.00000000
0.00000000 0.79793770 0.00000000
0.28703178 0.79632398 0.00000000
0.54791441 0.79414929 0.00000000
0.67349201 0.79118461 0.00000000
0.75067349 0.78709763 0.00000000
0.80533901 0.78138277 0.00000000
0.84680118 0.77322815 0.00000000
0.87942324 0.76122920 0.00000000
0.90557360 0.74272979 0.00000000
0.92669156 0.71189121 0.00000000
0.94369824 0.65265381 0.00000000
0.95733309 0.48137719 0.00000000
0.96806107 0.00000000 0.00000000
0.97624895 0.00000000 0.00000000
0.98230245 0.00000000 0.00000000
0.98647611 0.00000000 0.00000000
0.98904784 0.00000000 0.00000000
0.99034451 0.00000000 0.00000000
0.99136816 0.00000000 0.00000000
0.99238997 0.00000000 0.00000000
0.00000000 0.83515819 0.00000000
0.00000000 0.83507839 0.00000000
0.00000000 0.83499850 0.00000000
0.00000000 0.83491853 0.00000000
0.00000000 0.83483847 0.00000000
0.00000000 0.83475833 0.00000000
0.00000000 0.83465793 0.00000000
0.00000000 0.83451686 0.00000000
0.00000000 0.83432952 0.00000000
0.00000000 0.83408054 0.00000000
0.00000000 0.83374930 0.00000000
0.00000000 0.83330806 0.00000000
0.00000000 0.83271952 0.00000000
0.00000000 0.83193481 0.00000000
0.00000000 0.83088189 0.00000000
0.34992579 0.82945324 0.00000000
0.60807919 0.82752695 0.00000000
0.72045211 0.82489983 0.00000000
0.78926021 0.82127562 0.00000000
0.83764803 0.81620336 0.00000000
0.87401821 0.80895674 0.00000000
0.90232599 0.79827593 0.00000000
0.92472769 0.78177093 0.00000000
0.94254054 0.75416785 0.00000000
0.95661556 0.70090045 0.00000000
0.96763308 0.54576982 0.00000000
0.97603035 0.00000000 0.00000000
0.98216495 0.00000000 0.00000000
0.98641045 0.00000000 0.00000000
0.98902293 0.00000000 0.00000000
0.99033422 0.00000000 0.00000000
0.99136009 0.00000000 0.00000000
0.99238366 0.00000000 0.00000000
0.00000000 0.86367813 0.00000000
0.00000000 0.86362528 0.00000000
0.00000000 0.86357240 0.00000000
0.00000000 0.86351946 0.00000000
0.00000000 0.86346649 0.00000000
0.00000000 0.86341347 0.00000000
0.00000000 0.86334707 0.00000000
0.00000000 0.86325381 0.00000000
0.00000000 0.86313001 0.00000000
0.00000000 0.86296560 0.00000000
0.00000000 0.86274709 0.00000000
0.00000000 0.86245636 0.00000000
0.00000000 0.86206903 0.00000000
0.00000000 0.86155231 0.00000000
0.00000000 0.86086323 0.00000000
0.00000000 0.85993848 0.00000000
0.41953761 0.85868331 0.00000000
0.66192902 0.85699001 0.00000000
0.76236721 0.85467942 0.00000000
0.82345807 0.85148928 0.00000000
0.86602132 0.84701979 0.00000000
0.89765975 0.84062508 0.00000000
0.92196363 0.83118125 0.00000000
0.94089759 0.81654809 0.00000000
0.95566762 0.79198126 0.00000000
0.96706064 0.74430824 0.00000000
0.97570226 0.60419777 0.00000000
0.98200575 0.00000000 0.00000000
0.98631847 0.00000000 0.00000000
