Slog3_Super8_to_BT709.cube
TITLE "Slog3_Super8_to_BT709"
LUT_3D_SIZE 9
# Slog3 with Sony S3 Gamut input to Linear BT709 SDR tweaked for Super 8 capture with blue-shift fix by Francesco Bucciantini v2
0.00000000 0.00000000 0.00000000
0.10643391 0.00000000 0.00000000
0.31154810 0.00000000 0.00000000
0.58079071 0.00000000 0.00000000
0.77357635 0.00000000 0.00000000
0.89346300 0.00000000 0.00000000
0.95940204 0.00000000 0.00000000
0.98665946 0.00000000 0.00000000
0.99240911 0.00000000 0.00000000
0.00000000 0.07159735 0.00000000
0.05733145 0.04413289 0.00000000
0.29231620 0.00066269 0.00000000
0.57466819 0.00000000 0.00000000
0.77233975 0.00000000 0.00000000
0.89322741 0.00000000 0.00000000
0.95936480 0.00000000 0.00000000
0.98665598 0.00000000 0.00000000
0.99240875 0.00000000 0.00000000
0.00000000 0.21771443 0.00000000
0.00000000 0.20351777 0.00000000
0.25929956 0.17921058 0.00000000
0.56472508 0.07696019 0.00000000
0.77033716 0.00000000 0.00000000
0.89284785 0.00000000 0.00000000
0.95930552 0.00000000 0.00000000
0.98665046 0.00000000 0.00000000
0.99240818 0.00000000 0.00000000
0.00000000 0.44526551 0.00000000
0.00000000 0.43810275 0.00000000
0.11708939 0.42648093 0.00000000
0.52866833 0.38805729 0.00000000
0.76382777 0.23562788 0.00000000
0.89166974 0.00000000 0.00000000
0.95911742 0.00000000 0.00000000
0.98663313 0.00000000 0.00000000
0.99240640 0.00000000 0.00000000
0.00000000 0.68009049 0.00000000
0.00000000 0.67853223 0.00000000
0.00000000 0.67602514 0.00000000
0.33848478 0.66786613 0.00000000
0.74085233 0.63891617 0.00000000
0.88778263 0.47518226 0.00000000
0.95854155 0.00000000 0.00000000
0.98657861 0.00000000 0.00000000
0.99240090 0.00000000 0.00000000
0.00000000 0.83515819 0.00000000
0.00000000 0.83483847 0.00000000
0.00000000 0.83432952 0.00000000
0.00000000 0.83271952 0.00000000
0.60807919 0.82752695 0.00000000
0.87401821 0.80895674 0.00000000
0.95661556 0.70090045 0.00000000
0.98641045 0.00000000 0.00000000
0.99238366 0.00000000 0.00000000
0.00000000 0.92856749 0.00000000
0.00000000 0.92850983 0.00000000
0.00000000 0.92841838 0.00000000
0.00000000 0.92813170 0.00000000
0.00000000 0.92723369 0.00000000
0.79146323 0.92432335 0.00000000
0.94964566 0.91375008 0.00000000
0.98583171 0.84842942 0.00000000
0.99233138 0.00000000 0.00000000
0.00000000 0.97542769 0.00000000
0.00000000 0.97541985 0.00000000
0.00000000 0.97540742 0.00000000
0.00000000 0.97536860 0.00000000
0.00000000 0.97524813 0.00000000
0.00000000 0.97486930 0.00000000
0.90404644 0.97362693 0.00000000
0.98356321 0.96894152 0.00000000
0.99216024 0.93590223 0.00000000
0.00000000 0.99015102 0.00000000
0.00000000 0.99015065 0.00000000
0.00000000 0.99015008 0.00000000
0.00000000 0.99014828 0.00000000
0.00000000 0.99014274 0.00000000
0.00000000 0.99012560 0.00000000
0.00000000 0.99007221 0.00000000
0.96450598 0.98989706 0.00000000
0.99158729 0.98905477 0.00000000
0.00000000 0.00000000 0.04892737
0.09928191 0.00000000 0.04207469
0.30852291 0.00000000 0.03125698
0.57982960 0.00000000 0.00000000
0.77337248 0.00000000 0.00000000
0.89342386 0.00000000 0.00000000
0.95939588 0.00000000 0.00000000
0.98665889 0.00000000 0.00000000
0.99240905 0.00000000 0.00000000
0.00000000 0.04899953 0.03042074
0.04913543 0.02153576 0.02358540
0.28913246 0.00000000 0.01285931
0.57378656 0.00000000 0.00000000
0.77214370 0.00000000 0.00000000
0.89318951 0.00000000 0.00000000
0.95935870 0.00000000 0.00000000
0.98665541 0.00000000 0.00000000
0.99240869 0.00000000 0.00000000
0.00000000 0.20609193 0.00114908
0.00000000 0.19119467 0.00000000
0.25573368 0.16548589 0.00000000
0.56368395 0.05432925 0.00000000
0.77019903 0.00000000 0.00000000
0.89281285 0.00000000 0.00000000
0.95929956 0.00000000 0.00000000
0.98664989 0.00000000 0.00000000
0.99240812 0.00000000 0.00000000
0.00000000 0.43937971 0.00000000
0.00000000 0.43210008 0.00000000
0.11038632 0.42031759 0.00000000
0.52734848 0.38128544 0.00000000
0.76367194 0.22443176 0.00000000
0.89165473 0.00000000 0.00000000
0.95911185 0.00000000 0.00000000
0.98663258 0.00000000 0.00000000
0.99240634 0.00000000 0.00000000
0.00000000 0.67880946 0.00000000
0.00000000 0.67723513 0.00000000
0.00000000 0.67470146 0.00000000
0.33577499 0.66645206 0.00000000
0.74057944 0.63715730 0.00000000
0.88773474 0.47026812 0.00000000
0.95853987 0.00000000 0.00000000
0.98657807 0.00000000 0.00000000
0.99240084 0.00000000 0.00000000
0.00000000 0.83489515 0.00000000
0.00000000 0.83457431 0.00000000
0.00000000 0.83406358 0.00000000
0.00000000 0.83244767 0.00000000
0.60731251 0.82723553 0.00000000
0.87396480 0.80859026 0.00000000
0.95660710 0.69985456 0.00000000
0.98641032 0.00000000 0.00000000
0.99238361 0.00000000 0.00000000
0.00000000 0.92852004 0.00000000
0.00000000 0.92846231 0.00000000
0.00000000 0.92837074 0.00000000
0.00000000 0.92808371 0.00000000
0.00000000 0.92718449 0.00000000
0.79130592 0.92427024 0.00000000
0.94963674 0.91368172 0.00000000
0.98583085 0.84821799 0.00000000
0.99233137 0.00000000 0.00000000
0.00000000 0.97542124 0.00000000
0.00000000 0.97541339 0.00000000
0.00000000 0.97540096 0.00000000
0.00000000 0.97536211 0.00000000
0.00000000 0.97524158 0.00000000
0.00000000 0.97486255 0.00000000
0.90401681 0.97361952 0.00000000
0.98356221 0.96893144 0.00000000
0.99216016 0.93586495 0.00000000
0.00000000 0.99015072 0.00000000
0.00000000 0.99015035 0.00000000
0.00000000 0.99014978 0.00000000
0.00000000 0.99014798 0.00000000
0.00000000 0.99014244 0.00000000
0.00000000 0.99012530 0.00000000
0.00000000 0.99007191 0.00000000
0.96450144 0.98989670 0.00000000
0.99158721 0.98905409 0.00000000
0.00000000 0.00000000 0.19168698
0.08730838 0.00000000 0.18781196
0.30369893 0.00000000 0.18158980
0.57831153 0.00000000 0.16100780
0.77305999 0.00000000 0.07888368
0.89336170 0.00000000 0.00000000
0.95938602 0.00000000 0.00000000
0.98665797 0.00000000 0.00000000
0.99240895 0.00000000 0.00000000
0.00000000 0.01322692 0.18110678
0.03590487 0.00000000 0.17709066
0.28399902 0.00000000 0.17054525
0.57219852 0.00000000 0.14881882
0.77182113 0.00000000 0.06060738
0.89312705 0.00000000 0.00000000
0.95934889 0.00000000 0.00000000
0.98665449 0.00000000 0.00000000
0.99240859 0.00000000 0.00000000
0.00000000 0.18649928 0.16331573
0.00000000 0.17026120 0.15894422
0.24999753 0.14177802 0.15183272
0.56200750 0.01851437 0.12810369
0.76983119 0.00000000 0.03222230
0.89275366 0.00000000 0.00000000
0.95928991 0.00000000 0.00000000
0.98664898 0.00000000 0.00000000
0.99240803 0.00000000 0.00000000
0.00000000 0.42987303 0.09481840
0.00000000 0.42243019 0.08842463
0.09917150 0.41037552 0.07752594
0.52523756 0.37032031 0.04376924
0.76329473 0.20649739 0.00000000
0.89159133 0.00000000 0.00000000
0.95910331 0.00000000 0.00000000
0.98663169 0.00000000 0.00000000
0.99240625 0.00000000 0.00000000
0.00000000 0.67675453 0.00000000
0.00000000 0.67515384 0.00000000
0.00000000 0.67257782 0.00000000
0.33121322 0.66418877 0.00000000
0.74014600 0.63432596 0.00000000
0.88771638 0.46135631 0.00000000
0.95853475 0.00000000 0.00000000
0.98657727 0.00000000 0.00000000
0.99240075 0.00000000 0.00000000
0.00000000 0.83447686 0.00000000
0.00000000 0.83415422 0.00000000
0.00000000 0.83364061 0.00000000
0.00000000 0.83201571 0.00000000
0.60608254 0.82677214 0.00000000
0.87388016 0.80800683 0.00000000
0.95659614 0.69813483 0.00000000
0.98641002 0.00000000 0.00000000
0.99238352 0.00000000 0.00000000
0.00000000 0.92844481 0.00000000
0.00000000 0.92838696 0.00000000
0.00000000 0.92829521 0.00000000
0.00000000 0.92800760 0.00000000
0.00000000 0.92710655 0.00000000
0.79105605 0.92418603 0.00000000
0.94962261 0.91357330 0.00000000
0.98582956 0.84787940 0.00000000
0.99233135 0.00000000 0.00000000
0.00000000 0.97541101 0.00000000
0.00000000 0.97540316 0.00000000
0.00000000 0.97539072 0.00000000
0.00000000 0.97535184 0.00000000
0.00000000 0.97523121 0.00000000
0.00000000 0.97485186 0.00000000
0.90396985 0.97360777 0.00000000
0.98356064 0.96891547 0.00000000
0.99216004 0.93580571 0.00000000
0.00000000 0.99015024 0.00000000
0.00000000 0.99014988 0.00000000
0.00000000 0.99014930 0.00000000
0.00000000 0.99014751 0.00000000
0.00000000 0.99014196 0.00000000
0.00000000 0.99012482 0.00000000
0.00000000 0.99007142 0.00000000
0.96449426 0.98989614 0.00000000
0.99158710 0.98905301 0.00000000
0.00000000 0.00000000 0.40965745
0.04670564 0.00000000 0.40769595
0.28812285 0.00000000 0.40463092
0.57348401 0.00000000 0.39487449
0.77207818 0.00000000 0.36323554
0.89317446 0.00000000 0.24313903
0.95935519 0.00000000 0.00000000
0.98665510 0.00000000 0.00000000
0.99240866 0.00000000 0.00000000
0.00000000 0.00000000 0.40433317
0.00000000 0.00000000 0.40245417
0.26742142 0.00000000 0.39931529
0.56717227 0.00000000 0.38943667
0.77082563 0.00000000 0.35734292
0.89293784 0.00000000 0.23478103
0.95931797 0.00000000 0.00000000
0.98665162 0.00000000 0.00000000
0.99240830 0.00000000 0.00000000
0.00000000 0.11081183 0.39594270
0.00000000 0.08622445 0.39394597
0.23093804 0.04275803 0.39078541
0.55662957 0.00000000 0.38067398
0.76880919 0.00000000 0.34781596
0.89256098 0.00000000 0.22058010
0.95925898 0.00000000 0.00000000
0.98664611 0.00000000 0.00000000
0.99240773 0.00000000 0.00000000
0.00000000 0.39878683 0.36840993
0.00000000 0.39076191 0.36626810
0.05955033 0.37771914 0.36285269
0.51847835 0.33391887 0.35199723
0.76224449 0.13850955 0.31664695
0.89137078 0.00000000 0.17207865
0.95907399 0.00000000 0.00000000
0.98662886 0.00000000 0.00000000
0.99240596 0.00000000 0.00000000
0.00000000 0.67012187 0.26732408
0.00000000 0.66843449 0.26443255
0.00000000 0.66571698 0.25979630
0.31687618 0.65685544 0.24485549
0.73878279 0.62510397 0.19275932
0.88749279 0.43343272 0.00000000
0.95850333 0.00000000 0.00000000
0.98657476 0.00000000 0.00000000
0.99240046 0.00000000 0.00000000
0.00000000 0.83315723 0.00000000
0.00000000 0.83282881 0.00000000
0.00000000 0.83230600 0.00000000
0.00000000 0.83065203 0.00000000
0.60198497 0.82531344 0.00000000
0.87361540 0.80616085 0.00000000
0.95658668 0.69211202 0.00000000
0.98640850 0.00000000 0.00000000
0.99238327 0.00000000 0.00000000
0.00000000 0.92820920 0.00000000
0.00000000 0.92815099 0.00000000
0.00000000 0.92805866 0.00000000
0.00000000 0.92776923 0.00000000
0.00000000 0.92686254 0.00000000
0.79026767 0.92392234 0.00000000
0.94957851 0.91323343 0.00000000
0.98582616 0.84678880 0.00000000
0.99233126 0.00000000 0.00000000
0.00000000 0.97537908 0.00000000
0.00000000 0.97537120 0.00000000
0.00000000 0.97535873 0.00000000
0.00000000 0.97531976 0.00000000
0.00000000 0.97519882 0.00000000
0.00000000 0.97481850 0.00000000
0.90382297 0.97357108 0.00000000
0.98355574 0.96886557 0.00000000
0.99215966 0.93561913 0.00000000
0.00000000 0.99014877 0.00000000
0.00000000 0.99014840 0.00000000
0.00000000 0.99014783 0.00000000
0.00000000 0.99014603 0.00000000
0.00000000 0.99014048 0.00000000
0.00000000 0.99012333 0.00000000
0.00000000 0.99006991 0.00000000
0.96447185 0.98989437 0.00000000
0.99158674 0.98904965 0.00000000
0.00000000 0.00000000 0.65615572
0.00000000 0.00000000 0.65566994
0.23468306 0.00000000 0.65492631
0.55753747 0.00000000 0.65259501
0.76898668 0.00000000 0.64511174
0.89259353 0.00000000 0.61907373
0.95926344 0.00000000 0.48788518
0.98664619 0.00000000 0.00000000
0.99240774 0.00000000 0.00000000
0.00000000 0.00000000 0.65485792
0.00000000 0.00000000 0.65442127
0.20948206 0.00000000 0.65365118
0.55062731 0.00000000 0.65128430
0.76769339 0.00000000 0.64373878
0.89235413 0.00000000 0.61741305
0.95922590 0.00000000 0.48419682
0.98664270 0.00000000 0.00000000
0.99240738 0.00000000 0.00000000
0.00000000 0.00000000 0.65284622
0.00000000 0.00000000 0.65231390
0.16123919 0.00000000 0.65162814
0.53881153 0.00000000 0.64921351
0.76561035 0.00000000 0.64153643
0.89197266 0.00000000 0.61476194
0.95916635 0.00000000 0.47816504
0.98663717 0.00000000 0.00000000
0.99240682 0.00000000 0.00000000
0.00000000 0.28314410 0.64632260
0.00000000 0.27196797 0.64582114
0.00000000 0.25338277 0.64502346
0.49529330 0.18604116 0.64252124
0.75881604 0.00000000 0.63442966
0.89076571 0.00000000 0.60612805
0.95897953 0.00000000 0.45737430
0.98661991 0.00000000 0.00000000
0.99240504 0.00000000 0.00000000
0.00000000 0.64721616 0.62397704
0.00000000 0.64520367 0.62338696
0.00000000 0.64195509 0.62244776
0.26852676 0.63129540 0.61947791
0.73446685 0.59220422 0.60991090
0.88686794 0.32900588 0.57607597
0.95839482 0.00000000 0.38269989
0.98656624 0.00000000 0.00000000
0.99239957 0.00000000 0.00000000
0.00000000 0.82893747 0.52026836
0.00000000 0.82859028 0.51911147
0.00000000 0.82803743 0.51726342
0.00000000 0.82628740 0.51136720
0.58884463 0.82063105 0.49181891
0.87279173 0.80020338 0.41447289
0.95647543 0.67332893 0.00000000
0.98639925 0.00000000 0.00000000
0.99238248 0.00000000 0.00000000
0.00000000 0.92747340 0.00000000
0.00000000 0.92741403 0.00000000
0.00000000 0.92731986 0.00000000
0.00000000 0.92702468 0.00000000
0.00000000 0.92609997 0.00000000
0.78766962 0.92310063 0.00000000
0.94944209 0.91216879 0.00000000
0.98582326 0.84300414 0.00000000
0.99233079 0.00000000 0.00000000
0.00000000 0.97528009 0.00000000
0.00000000 0.97527216 0.00000000
0.00000000 0.97525959 0.00000000
0.00000000 0.97522031 0.00000000
0.00000000 0.97509842 0.00000000
0.00000000 0.97471513 0.00000000
0.90336455 0.97345738 0.00000000
0.98354059 0.96871077 0.00000000
0.99215869 0.93502420 0.00000000
0.00000000 0.99014421 0.00000000
0.00000000 0.99014384 0.00000000
0.00000000 0.99014326 0.00000000
0.00000000 0.99014147 0.00000000
0.00000000 0.99013591 0.00000000
0.00000000 0.99011874 0.00000000
0.00000000 0.99006525 0.00000000
0.96440251 0.98988891 0.00000000
0.99158563 0.98903924 0.00000000
0.00000000 0.00000000 0.82014891
0.00000000 0.00000000 0.82004965
0.00000000 0.00000000 0.81988850
0.49562881 0.00000000 0.81940522
0.75877388 0.00000000 0.81791129
0.89076114 0.00000000 0.81311282
0.95897863 0.00000000 0.79630815
0.98661964 0.00000000 0.70987395
0.99240491 0.00000000 0.00000000
0.00000000 0.00000000 0.81988587
0.00000000 0.00000000 0.81979048
0.00000000 0.00000000 0.81963131
0.48542974 0.00000000 0.81914130
0.75736637 0.00000000 0.81763840
0.89051330 0.00000000 0.81282774
0.95894058 0.00000000 0.79595991
0.98661612 0.00000000 0.70908218
0.99240455 0.00000000 0.00000000
0.00000000 0.00000000 0.81945666
0.00000000 0.00000000 0.81936928
0.00000000 0.00000000 0.81921977
0.46794540 0.00000000 0.81872211
0.75507096 0.00000000 0.81720860
0.89011861 0.00000000 0.81237442
0.95888021 0.00000000 0.79540733
0.98661053 0.00000000 0.70781603
0.99240398 0.00000000 0.00000000
0.00000000 0.00000000 0.81814546
0.00000000 0.00000000 0.81803254
0.00000000 0.00000000 0.81785709
0.39923639 0.00000000 0.81741340
0.74744845 0.00000000 0.81586782
0.88886879 0.00000000 0.81094449
0.95869077 0.00000000 0.79367057
0.98659306 0.00000000 0.70375750
0.99240220 0.00000000 0.00000000
0.00000000 0.53648911 0.81396929
0.00000000 0.53223291 0.81386509
0.00000000 0.52526332 0.81369988
0.01000361 0.50147260 0.81318247
0.71966382 0.40159036 0.81157684
0.88482484 0.00000000 0.80637468
0.95809677 0.00000000 0.78806882
0.98653875 0.00000000 0.68990610
0.99239673 0.00000000 0.00000000
0.00000000 0.81427028 0.79957826
0.00000000 0.81385241 0.79945470
0.00000000 0.81318654 0.79925875
0.00000000 0.81107465 0.79864478
0.53960200 0.80420519 0.79672414
0.87017955 0.77880585 0.79052494
0.95616418 0.58742719 0.76846595
0.98636726 0.00000000 0.63607288
0.99237980 0.00000000 0.00000000
0.00000000 0.92511111 0.73159965
0.00000000 0.92504797 0.73135159
0.00000000 0.92494781 0.73095772
0.00000000 0.92463379 0.72971997
0.00000000 0.92364946 0.72581332
0.77932675 0.92045213 0.71283842
0.94901713 0.90871793 0.66045285
0.98578914 0.83112905 0.00000000
0.99232795 0.00000000 0.00000000
0.00000000 0.97496999 0.00000000
0.00000000 0.97496186 0.00000000
0.00000000 0.97494898 0.00000000
0.00000000 0.97490873 0.00000000
0.00000000 0.97478383 0.00000000
0.00000000 0.97439107 0.00000000
0.90185153 0.97310194 0.00000000
0.98349369 0.96822432 0.00000000
0.99215787 0.93295128 0.00000000
0.00000000 0.99013011 0.00000000
0.00000000 0.99012974 0.00000000
0.00000000 0.99012916 0.00000000
0.00000000 0.99012736 0.00000000
0.00000000 0.99012178 0.00000000
0.00000000 0.99010454 0.00000000
0.00000000 0.99005085 0.00000000
0.96418588 0.98987186 0.00000000
0.99158221 0.98900679 0.00000000
0.00000000 0.00000000 0.92017212
0.00000000 0.00000000 0.92015407
0.00000000 0.00000000 0.92012503
0.00000000 0.00000000 0.92003256
0.71896385 0.00000000 0.91975763
0.88467946 0.00000000 0.91890761
0.95807695 0.00000000 0.91616807
0.98653689 0.00000000 0.90645158
0.99239648 0.00000000 0.85413846
0.00000000 0.00000000 0.92012403
0.00000000 0.00000000 0.92010621
0.00000000 0.00000000 0.92007747
0.00000000 0.00000000 0.91998523
0.71687711 0.00000000 0.91970903
0.88440835 0.00000000 0.91885718
0.95803735 0.00000000 0.91611518
0.98653329 0.00000000 0.90638573
0.99239612 0.00000000 0.85397876
0.00000000 0.00000000 0.92004721
0.00000000 0.00000000 0.92002980
0.00000000 0.00000000 0.92000165
0.00000000 0.00000000 0.91991024
0.71349117 0.00000000 0.91963201
0.88397494 0.00000000 0.91877747
0.95797451 0.00000000 0.91603132
0.98652760 0.00000000 0.90628140
0.99239555 0.00000000 0.85372510
0.00000000 0.00000000 0.91980144
0.00000000 0.00000000 0.91978554
0.00000000 0.00000000 0.91975971
0.00000000 0.00000000 0.91967386
0.70221955 0.00000000 0.91939107
0.88258742 0.00000000 0.91852994
0.95777743 0.00000000 0.91576873
0.98650978 0.00000000 0.90595526
0.99239376 0.00000000 0.85292700
0.00000000 0.00000000 0.91905436
0.00000000 0.00000000 0.91903401
0.00000000 0.00000000 0.91900017
0.00000000 0.00000000 0.91889910
0.65672110 0.00000000 0.91864656
0.87801596 0.00000000 0.91776573
0.95715893 0.00000000 0.91494890
0.98645434 0.00000000 0.90494064
0.99238824 0.00000000 0.85039402
0.00000000 0.74174311 0.91667291
0.00000000 0.74083364 0.91665359
0.00000000 0.73937779 0.91662299
0.00000000 0.73470539 0.91652742
0.19583664 0.71889301 0.91623140
0.86117196 0.65024890 0.91531161
0.95514271 0.00000000 0.91231971
0.98627900 0.00000000 0.90165603
0.99237118 0.00000000 0.84170861
0.00000000 0.91679444 0.90837416
0.00000000 0.91671700 0.90835088
0.00000000 0.91659412 0.90831399
0.00000000 0.91620860 0.90819878
0.00000000 0.91499774 0.90784174
0.74795297 0.91103848 0.90672333
0.94766427 0.89614736 0.90309843
0.98569327 0.77568184 0.89002579
0.99231816 0.00000000 0.80743232
0.00000000 0.97396469 0.86763110
0.00000000 0.97395592 0.86758166
0.00000000 0.97394202 0.86750332
0.00000000 0.97389857 0.86725836
0.00000000 0.97376375 0.86649690
0.00000000 0.97333953 0.86408965
0.89696925 0.97194512 0.85605374
0.98334702 0.96663197 0.82304961
0.99214818 0.92636689 0.00000000
0.00000000 0.99008630 0.00000000
0.00000000 0.99008593 0.00000000
0.00000000 0.99008534 0.00000000
0.00000000 0.99008351 0.00000000
0.00000000 0.99007787 0.00000000
0.00000000 0.99006041 0.00000000
0.00000000 0.99000606 0.00000000
0.96346827 0.98981733 0.00000000
0.99157163 0.98890315 0.00000000
0.00000000 0.00000000 0.97182092
0.00000000 0.00000000 0.97181836
0.00000000 0.00000000 0.97181427
0.00000000 0.00000000 0.97180135
0.11037213 0.00000000 0.97176060
0.86056207 0.00000000 0.97163923
0.95505025 0.00000000 0.97126302
0.98627141 0.00000000 0.97003965
0.99237043 0.00000000 0.96557399
0.00000000 0.00000000 0.97181407
0.00000000 0.00000000 0.97181151
0.00000000 0.00000000 0.97180744
0.00000000 0.00000000 0.97179456
0.05853025 0.00000000 0.97175383
0.86014985 0.00000000 0.97163227
0.95500619 0.00000000 0.97125576
0.98626760 0.00000000 0.97003194
0.99237007 0.00000000 0.96556397
0.00000000 0.00000000 0.97180318
0.00000000 0.00000000 0.97180064
0.00000000 0.00000000 0.97179659
0.00000000 0.00000000 0.97178378
0.00000000 0.00000000 0.97174312
0.85949182 0.00000000 0.97162126
0.95493627 0.00000000 0.97124428
0.98626155 0.00000000 0.97001973
0.99236949 0.00000000 0.96554811
0.00000000 0.00000000 0.97176896
0.00000000 0.00000000 0.97176648
0.00000000 0.00000000 0.97176253
0.00000000 0.00000000 0.97174998
0.00000000 0.00000000 0.97170967
0.85739523 0.00000000 0.97158685
0.95471613 0.00000000 0.97120851
0.98624263 0.00000000 0.96998158
0.99236769 0.00000000 0.96549860
0.00000000 0.00000000 0.97166066
0.00000000 0.00000000 0.97165839
0.00000000 0.00000000 0.97165477
0.00000000 0.00000000 0.97164324
0.00000000 0.00000000 0.97160533
0.85046978 0.00000000 0.97148034
0.95401764 0.00000000 0.97109861
0.98618380 0.00000000 0.96986339
0.99236213 0.00000000 0.96534545
0.00000000 0.00000000 0.97133000
0.00000000 0.00000000 0.97132710
0.00000000 0.00000000 0.97132243
0.00000000 0.00000000 0.97130727
0.00000000 0.00000000 0.97126246
0.82219166 0.00000000 0.97115040
0.95169875 0.00000000 0.97075844
0.98599761 0.00000000 0.96949345
0.99234492 0.00000000 0.96486777
0.00000000 0.87373033 0.97026847
0.00000000 0.87355032 0.97026566
0.00000000 0.87326426 0.97026122
0.00000000 0.87236331 0.97024733
0.00000000 0.86949854 0.97020446
0.44837005 0.85973936 0.97007153
0.94294146 0.81640076 0.96965730
0.98537468 0.00000000 0.96829750
0.99229136 0.00000000 0.96330876
0.00000000 0.97031560 0.96647503
0.00000000 0.97030435 0.96647152
0.00000000 0.97028651 0.96646595
0.00000000 0.97023076 0.96644859
0.00000000 0.97005763 0.96639495
0.00000000 0.96951174 0.96622856
0.87831925 0.96770535 0.96570581
0.98287461 0.96064680 0.96399572
0.99212118 0.89429063 0.95764498
0.00000000 0.98994625 0.94619864
0.00000000 0.98994584 0.94619023
0.00000000 0.98994520 0.94617691
0.00000000 0.98994318 0.94613533
0.00000000 0.98993693 0.94600673
0.00000000 0.98991736 0.94560658
0.00000000 0.98985399 0.94433733
0.96112651 0.98962749 0.94005573
0.99153883 0.98854701 0.92184413
0.00000000 0.00000000 0.98960598
0.00000000 0.00000000 0.98960584
0.00000000 0.00000000 0.98960561
0.00000000 0.00000000 0.98960489
0.00000000 0.00000000 0.98960265
0.32256344 0.00000000 0.98959555
0.94258723 0.00000000 0.98957428
0.98534355 0.00000000 0.98950716
0.99228890 0.00000000 0.98927678
0.00000000 0.00000000 0.98960560
0.00000000 0.00000000 0.98960545
0.00000000 0.00000000 0.98960522
0.00000000 0.00000000 0.98960450
0.00000000 0.00000000 0.98960226
0.30269792 0.00000000 0.98959517
0.94251648 0.00000000 0.98957389
0.98533904 0.00000000 0.98950674
0.99228853 0.00000000 0.98927629
0.00000000 0.00000000 0.98960498
0.00000000 0.00000000 0.98960484
0.00000000 0.00000000 0.98960461
0.00000000 0.00000000 0.98960390
0.00000000 0.00000000 0.98960166
0.26849203 0.00000000 0.98959456
0.94240415 0.00000000 0.98957326
0.98533190 0.00000000 0.98950606
0.99228794 0.00000000 0.98927552
0.00000000 0.00000000 0.98960307
0.00000000 0.00000000 0.98960293
0.00000000 0.00000000 0.98960270
0.00000000 0.00000000 0.98960199
0.00000000 0.00000000 0.98959976
0.11990781 0.00000000 0.98959267
0.94205111 0.00000000 0.98957129
0.98530957 0.00000000 0.98950396
0.99228610 0.00000000 0.98927310
0.00000000 0.00000000 0.98959712
0.00000000 0.00000000 0.98959698
0.00000000 0.00000000 0.98959675
0.00000000 0.00000000 0.98959606
0.00000000 0.00000000 0.98959387
0.00000000 0.00000000 0.98958682
0.94093611 0.00000000 0.98956522
0.98523987 0.00000000 0.98949748
0.99228041 0.00000000 0.98926562
0.00000000 0.00000000 0.98957817
0.00000000 0.00000000 0.98957804
0.00000000 0.00000000 0.98957784
0.00000000 0.00000000 0.98957719
0.00000000 0.00000000 0.98957516
0.00000000 0.00000000 0.98956849
0.93722286 0.00000000 0.98954634
0.98501694 0.00000000 0.98947746
0.99226281 0.00000000 0.98924234
0.00000000 0.00000000 0.98951936
0.00000000 0.00000000 0.98951919
0.00000000 0.00000000 0.98951892
0.00000000 0.00000000 0.98951807
0.00000000 0.00000000 0.98951534
0.00000000 0.00000000 0.98950725
0.92163482 0.00000000 0.98948691
0.98425812 0.00000000 0.98941454
0.99220801 0.00000000 0.98916844
0.00000000 0.94935801 0.98932137
0.00000000 0.94932779 0.98932120
0.00000000 0.94927989 0.98932092
0.00000000 0.94912997 0.98932005
0.00000000 0.94866250 0.98931737
0.00000000 0.94716973 0.98930908
0.68975521 0.94201533 0.98928323
0.98116410 0.91804558 0.98920136
0.99203362 0.00000000 0.98891918
0.00000000 0.98932999 0.98851079
0.00000000 0.98932929 0.98851052
0.00000000 0.98932818 0.98851010
0.00000000 0.98932470 0.98850879
0.00000000 0.98931394 0.98850475
0.00000000 0.98928028 0.98849223
0.00000000 0.98917188 0.98845322
0.95185341 0.98878986 0.98832900
0.99143579 0.98700772 0.98790572
