Vlog_to_BT601_NTSC.cube
TITLE "Vlog_to_BT601_NTSC"
LUT_3D_SIZE 9
# Vlog to BT601 NTSC SDR by Francesco Bucciantini
0.00000000 0.00000000 0.00000000
0.10295073 0.00000000 0.00000000
0.25788157 0.00000000 0.00000000
0.49661117 0.00000000 0.00000000
0.73773568 0.00000000 0.00000000
0.90474773 0.00000000 0.00000000
0.98476393 0.00000000 0.00000000
0.99308298 0.00000000 0.00000000
0.99738092 0.00000000 0.00000000
0.00000000 0.04125965 0.00000000
0.01365756 0.01767468 0.00000000
0.21544698 0.00000000 0.00000000
0.47769532 0.00000000 0.00000000
0.73353079 0.00000000 0.00000000
0.90397902 0.00000000 0.00000000
0.98470338 0.00000000 0.00000000
0.99308056 0.00000000 0.00000000
0.99738019 0.00000000 0.00000000
0.00000000 0.18879138 0.00000000
0.00000000 0.17506133 0.00000000
0.15101683 0.15694159 0.00000000
0.45168002 0.08899967 0.00000000
0.72817648 0.00000000 0.00000000
0.90302212 0.00000000 0.00000000
0.98462833 0.00000000 0.00000000
0.99307759 0.00000000 0.00000000
0.99737929 0.00000000 0.00000000
0.00000000 0.40529992 0.00000000
0.00000000 0.39852824 0.00000000
0.00000000 0.39004907 0.00000000
0.35561621 0.36325523 0.00000000
0.71059231 0.25731645 0.00000000
0.90004496 0.00000000 0.00000000
0.98439707 0.00000000 0.00000000
0.99306860 0.00000000 0.00000000
0.99737656 0.00000000 0.00000000
0.00000000 0.67212882 0.00000000
0.00000000 0.67041270 0.00000000
0.00000000 0.66827704 0.00000000
0.00000000 0.66163548 0.00000000
0.63081048 0.63753330 0.00000000
0.88924185 0.51852503 0.00000000
0.98358728 0.00000000 0.00000000
0.99303884 0.00000000 0.00000000
0.99736757 0.00000000 0.00000000
0.00000000 0.86424176 0.00000000
0.00000000 0.86390270 0.00000000
0.00000000 0.86348419 0.00000000
0.00000000 0.86220682 0.00000000
0.00000000 0.85786379 0.00000000
0.83747701 0.84188405 0.00000000
0.98033272 0.75897647 0.00000000
0.99293906 0.00000000 0.00000000
0.99733782 0.00000000 0.00000000
0.00000000 0.97115972 0.00000000
0.00000000 0.97111830 0.00000000
0.00000000 0.97106728 0.00000000
0.00000000 0.97091237 0.00000000
0.00000000 0.97039457 0.00000000
0.00000000 0.96860254 0.00000000
0.95961375 0.96162181 0.00000000
0.99258952 0.91825930 0.00000000
0.99723806 0.00000000 0.00000000
0.00000000 0.99183672 0.00000000
0.00000000 0.99183583 0.00000000
0.00000000 0.99183474 0.00000000
0.00000000 0.99183144 0.00000000
0.00000000 0.99182056 0.00000000
0.00000000 0.99178447 0.00000000
0.00000000 0.99166304 0.00000000
0.99111756 0.99123157 0.00000000
0.99688858 0.98784229 0.00000000
0.00000000 0.99613552 0.00000000
0.00000000 0.99613525 0.00000000
0.00000000 0.99613492 0.00000000
0.00000000 0.99613392 0.00000000
0.00000000 0.99613062 0.00000000
0.00000000 0.99611973 0.00000000
0.00000000 0.99608366 0.00000000
0.00000000 0.99596226 0.00000000
0.99541700 0.99553090 0.00000000
0.00000000 0.00000000 0.01917000
0.09058829 0.00000000 0.01661917
0.25188544 0.00000000 0.01348445
0.49387461 0.00000000 0.00400969
0.73711039 0.00000000 0.00000000
0.90463245 0.00000000 0.00000000
0.98475484 0.00000000 0.00000000
0.99308261 0.00000000 0.00000000
0.99738081 0.00000000 0.00000000
0.00000000 0.02358497 0.00255084
0.00000000 0.00000000 0.00000000
0.20842360 0.00000000 0.00000000
0.47468067 0.00000000 0.00000000
0.73288548 0.00000000 0.00000000
0.90386241 0.00000000 0.00000000
0.98469422 0.00000000 0.00000000
0.99308020 0.00000000 0.00000000
0.99738008 0.00000000 0.00000000
0.00000000 0.17858011 0.00000000
0.00000000 0.16419320 0.00000000
0.14163382 0.14507629 0.00000000
0.44824644 0.07127048 0.00000000
0.72750504 0.00000000 0.00000000
0.90290383 0.00000000 0.00000000
0.98461907 0.00000000 0.00000000
0.99307723 0.00000000 0.00000000
0.99737918 0.00000000 0.00000000
0.00000000 0.40023574 0.00000000
0.00000000 0.39337872 0.00000000
0.00000000 0.38478890 0.00000000
0.35117489 0.35761504 0.00000000
0.70982988 0.24951721 0.00000000
0.89992139 0.00000000 0.00000000
0.98438755 0.00000000 0.00000000
0.99306824 0.00000000 0.00000000
0.99737645 0.00000000 0.00000000
0.00000000 0.67084457 0.00000000
0.00000000 0.66911388 0.00000000
0.00000000 0.66695991 0.00000000
0.00000000 0.66026021 0.00000000
0.62952142 0.63593111 0.00000000
0.88909819 0.51536101 0.00000000
0.98357683 0.00000000 0.00000000
0.99303847 0.00000000 0.00000000
0.99736746 0.00000000 0.00000000
0.00000000 0.86398779 0.00000000
0.00000000 0.86364773 0.00000000
0.00000000 0.86322798 0.00000000
0.00000000 0.86194680 0.00000000
0.00000000 0.85759062 0.00000000
0.83721439 0.84155922 0.00000000
0.98031865 0.75828937 0.00000000
0.99293868 0.00000000 0.00000000
0.99733770 0.00000000 0.00000000
0.00000000 0.97112868 0.00000000
0.00000000 0.97108720 0.00000000
0.00000000 0.97103611 0.00000000
0.00000000 0.97088099 0.00000000
0.00000000 0.97036245 0.00000000
0.00000000 0.96856788 0.00000000
0.95957683 0.96157701 0.00000000
0.99258910 0.91813896 0.00000000
0.99723794 0.00000000 0.00000000
0.00000000 0.99183606 0.00000000
0.00000000 0.99183517 0.00000000
0.00000000 0.99183408 0.00000000
0.00000000 0.99183078 0.00000000
0.00000000 0.99181989 0.00000000
0.00000000 0.99178380 0.00000000
0.00000000 0.99166234 0.00000000
0.99111693 0.99123078 0.00000000
0.99688845 0.98783558 0.00000000
0.00000000 0.99613532 0.00000000
0.00000000 0.99613505 0.00000000
0.00000000 0.99613472 0.00000000
0.00000000 0.99613371 0.00000000
0.00000000 0.99613042 0.00000000
0.00000000 0.99611953 0.00000000
0.00000000 0.99608345 0.00000000
0.00000000 0.99596204 0.00000000
0.99541681 0.99553066 0.00000000
0.00000000 0.00000000 0.15910468
0.07384030 0.00000000 0.15745117
0.24434081 0.00000000 0.15540116
0.49045826 0.00000000 0.14907855
0.73633794 0.00000000 0.12671032
0.90449050 0.00000000 0.03079062
0.98474365 0.00000000 0.00000000
0.99308217 0.00000000 0.00000000
0.99738068 0.00000000 0.00000000
0.00000000 0.00186465 0.14808743
0.00000000 0.00000000 0.14634266
0.19951445 0.00000000 0.14417754
0.47091240 0.00000000 0.13748543
0.73208820 0.00000000 0.11360526
0.90371882 0.00000000 0.01417146
0.98468294 0.00000000 0.00000000
0.99307975 0.00000000 0.00000000
0.99737994 0.00000000 0.00000000
0.00000000 0.16536559 0.13366613
0.00000000 0.15003584 0.13178712
0.12945209 0.12945209 0.12945209
0.44394646 0.04955015 0.12221033
0.72667536 0.00000000 0.09600642
0.90275818 0.00000000 0.00000000
0.98460769 0.00000000 0.00000000
0.99307678 0.00000000 0.00000000
0.99737904 0.00000000 0.00000000
0.00000000 0.39392509 0.08135735
0.00000000 0.38695891 0.07855846
0.00000000 0.37822739 0.07542374
0.34564254 0.35056502 0.06594899
0.70888727 0.23963043 0.03475029
0.89976923 0.00000000 0.00000000
0.98437583 0.00000000 0.00000000
0.99306779 0.00000000 0.00000000
0.99737632 0.00000000 0.00000000
0.00000000 0.66925143 0.00000000
0.00000000 0.66750253 0.00000000
0.00000000 0.66532568 0.00000000
0.00000000 0.65855333 0.00000000
0.62792327 0.63394024 0.00000000
0.88892127 0.51139943 0.00000000
0.98356396 0.00000000 0.00000000
0.99303802 0.00000000 0.00000000
0.99736733 0.00000000 0.00000000
0.00000000 0.86367466 0.00000000
0.00000000 0.86333336 0.00000000
0.00000000 0.86291209 0.00000000
0.00000000 0.86162621 0.00000000
0.00000000 0.85725376 0.00000000
0.83689069 0.84115852 0.00000000
0.98030134 0.75743986 0.00000000
0.99293822 0.00000000 0.00000000
0.99733757 0.00000000 0.00000000
0.00000000 0.97109048 0.00000000
0.00000000 0.97104893 0.00000000
0.00000000 0.97099775 0.00000000
0.00000000 0.97084236 0.00000000
0.00000000 0.97032292 0.00000000
0.00000000 0.96852522 0.00000000
0.95953139 0.96152187 0.00000000
0.99258859 0.91799075 0.00000000
0.99723780 0.00000000 0.00000000
0.00000000 0.99183524 0.00000000
0.00000000 0.99183435 0.00000000
0.00000000 0.99183326 0.00000000
0.00000000 0.99182996 0.00000000
0.00000000 0.99181907 0.00000000
0.00000000 0.99178297 0.00000000
0.00000000 0.99166148 0.00000000
0.99111616 0.99122981 0.00000000
0.99688830 0.98782733 0.00000000
0.00000000 0.99613507 0.00000000
0.00000000 0.99613480 0.00000000
0.00000000 0.99613447 0.00000000
0.00000000 0.99613347 0.00000000
0.00000000 0.99613017 0.00000000
0.00000000 0.99611928 0.00000000
0.00000000 0.99608320 0.00000000
0.00000000 0.99596178 0.00000000
0.99541657 0.99553036 0.00000000
0.00000000 0.00000000 0.36605968
0.02311107 0.00000000 0.36525685
0.22019828 0.00000000 0.36426792
0.47975553 0.00000000 0.36126305
0.73397565 0.00000000 0.35119468
0.90405963 0.00000000 0.31590713
0.98470972 0.00000000 0.15806029
0.99308082 0.00000000 0.00000000
0.99738027 0.00000000 0.00000000
0.00000000 0.00000000 0.36079825
0.00000000 0.00000000 0.35998415
0.17036778 0.00000000 0.35898129
0.45907217 0.00000000 0.35593366
0.72964936 0.00000000 0.34571727
0.90328293 0.00000000 0.30984599
0.98464875 0.00000000 0.14698557
0.99307840 0.00000000 0.00000000
0.99737953 0.00000000 0.00000000
0.00000000 0.11937587 0.35422997
0.00000000 0.09960986 0.35340140
0.08658297 0.07150318 0.35238063
0.43055028 0.00000000 0.34927802
0.72413653 0.00000000 0.33887107
0.90231603 0.00000000 0.30224366
0.98457317 0.00000000 0.13247976
0.99307543 0.00000000 0.00000000
0.99737863 0.00000000 0.00000000
0.00000000 0.37422171 0.33363096
0.00000000 0.36689330 0.33275381
0.00000000 0.35768985 0.33167290
0.32838547 0.32838547 0.32838547
0.70599956 0.20734555 0.31733537
0.89930729 0.00000000 0.27811637
0.98434030 0.00000000 0.07949580
0.99306643 0.00000000 0.00000000
0.99737590 0.00000000 0.00000000
0.00000000 0.66433298 0.25526829
0.00000000 0.66252699 0.25414771
0.00000000 0.66027840 0.25276464
0.00000000 0.65327792 0.24854332
0.62299612 0.62777041 0.23417826
0.88838394 0.49890316 0.18038421
0.98352497 0.00000000 0.00000000
0.99303665 0.00000000 0.00000000
0.99736691 0.00000000 0.00000000
0.00000000 0.86272127 0.00000000
0.00000000 0.86237619 0.00000000
0.00000000 0.86195023 0.00000000
0.00000000 0.86065000 0.00000000
0.00000000 0.85622783 0.00000000
0.83590572 0.83993716 0.00000000
0.98024888 0.75483702 0.00000000
0.99293681 0.00000000 0.00000000
0.99733715 0.00000000 0.00000000
0.00000000 0.97097462 0.00000000
0.00000000 0.97093284 0.00000000
0.00000000 0.97088140 0.00000000
0.00000000 0.97072519 0.00000000
0.00000000 0.97020303 0.00000000
0.00000000 0.96839583 0.00000000
0.95939366 0.96135459 0.00000000
0.99258704 0.91754049 0.00000000
0.99723737 0.00000000 0.00000000
0.00000000 0.99183277 0.00000000
0.00000000 0.99183188 0.00000000
0.00000000 0.99183079 0.00000000
0.00000000 0.99182748 0.00000000
0.00000000 0.99181658 0.00000000
0.00000000 0.99178046 0.00000000
0.00000000 0.99165889 0.00000000
0.99111383 0.99122689 0.00000000
0.99688783 0.98780226 0.00000000
0.00000000 0.99613432 0.00000000
0.00000000 0.99613405 0.00000000
0.00000000 0.99613372 0.00000000
0.00000000 0.99613272 0.00000000
0.00000000 0.99612942 0.00000000
0.00000000 0.99611853 0.00000000
0.00000000 0.99608244 0.00000000
0.00000000 0.99596100 0.00000000
0.99541587 0.99552948 0.00000000
0.00000000 0.00000000 0.63996619
0.00000000 0.00000000 0.63973939
0.11722580 0.00000000 0.63946023
0.43982622 0.00000000 0.63861352
0.72589065 0.00000000 0.63579365
0.90262095 0.00000000 0.62614674
0.98459696 0.00000000 0.58974124
0.99307636 0.00000000 0.36550853
0.99737891 0.00000000 0.00000000
0.00000000 0.00000000 0.63848276
0.00000000 0.00000000 0.63825385
0.03074932 0.00000000 0.63797211
0.41534892 0.00000000 0.63711754
0.72129503 0.00000000 0.63427125
0.90182743 0.00000000 0.62453133
0.98453511 0.00000000 0.58773584
0.99307394 0.00000000 0.36023937
0.99737818 0.00000000 0.00000000
0.00000000 0.00000000 0.63664089
0.00000000 0.00000000 0.63640936
0.00000000 0.00000000 0.63612439
0.38316625 0.00000000 0.63525997
0.71542977 0.00000000 0.63238063
0.90083944 0.00000000 0.62252424
0.98445845 0.00000000 0.58523935
0.99307097 0.00000000 0.35366116
0.99737728 0.00000000 0.00000000
0.00000000 0.30080875 0.63094310
0.00000000 0.29176388 0.63070331
0.00000000 0.28028560 0.63040815
0.26436029 0.24268868 0.62951275
0.69605733 0.04706677 0.62652930
0.89776416 0.00000000 0.61630570
0.98422225 0.00000000 0.57746965
0.99306196 0.00000000 0.33302883
0.99737455 0.00000000 0.00000000
0.00000000 0.64694140 0.61065065
0.00000000 0.64492250 0.61037963
0.00000000 0.64240601 0.61004597
0.00000000 0.63455119 0.60903344
0.60565585 0.60565585 0.60565585
0.88658696 0.45103183 0.59403546
0.98339540 0.00000000 0.54918660
0.99303214 0.00000000 0.25449922
0.99736556 0.00000000 0.00000000
0.00000000 0.85950611 0.51953040
0.00000000 0.85914811 0.51907940
0.00000000 0.85870616 0.51852369
0.00000000 0.85735683 0.51683411
0.00000000 0.85276450 0.51116227
0.83259099 0.83580307 0.49120862
0.98007464 0.74587245 0.40799594
0.99293217 0.00000000 0.00000000
0.99733578 0.00000000 0.00000000
0.00000000 0.97058878 0.00000000
0.00000000 0.97054628 0.00000000
0.00000000 0.97049394 0.00000000
0.00000000 0.97033501 0.00000000
0.00000000 0.96980375 0.00000000
0.00000000 0.96796489 0.00000000
0.95893591 0.96079719 0.00000000
0.99258193 0.91603344 0.00000000
0.99723597 0.00000000 0.00000000
0.00000000 0.99182461 0.00000000
0.00000000 0.99182372 0.00000000
0.00000000 0.99182263 0.00000000
0.00000000 0.99181932 0.00000000
0.00000000 0.99180839 0.00000000
0.00000000 0.99177219 0.00000000
0.00000000 0.99165033 0.00000000
0.99110614 0.99121724 0.00000000
0.99688628 0.98771849 0.00000000
0.00000000 0.99613185 0.00000000
0.00000000 0.99613158 0.00000000
0.00000000 0.99613124 0.00000000
0.00000000 0.99613024 0.00000000
0.00000000 0.99612694 0.00000000
0.00000000 0.99611604 0.00000000
0.00000000 0.99607993 0.00000000
0.00000000 0.99595840 0.00000000
0.99541354 0.99552655 0.00000000
0.00000000 0.00000000 0.84347425
0.00000000 0.00000000 0.84342821
0.00000000 0.00000000 0.84337161
0.25945773 0.00000000 0.84320031
0.69535086 0.00000000 0.84263406
0.89765724 0.00000000 0.84074544
0.98421410 0.00000000 0.83425260
0.99306165 0.00000000 0.80933960
0.99737446 0.00000000 0.63976998
0.00000000 0.00000000 0.84317390
0.00000000 0.00000000 0.84312772
0.00000000 0.00000000 0.84307093
0.21728529 0.00000000 0.84289909
0.68962957 0.00000000 0.84233105
0.89680432 0.00000000 0.84043639
0.98414929 0.00000000 0.83392225
0.99305922 0.00000000 0.80891940
0.99737372 0.00000000 0.63828473
0.00000000 0.00000000 0.84280350
0.00000000 0.00000000 0.84275714
0.00000000 0.00000000 0.84270013
0.15344401 0.00000000 0.84252762
0.68228052 0.00000000 0.84195736
0.89574188 0.00000000 0.84005524
0.98406896 0.00000000 0.83351478
0.99305624 0.00000000 0.80840079
0.99737282 0.00000000 0.63644059
0.00000000 0.00000000 0.84167515
0.00000000 0.00000000 0.84162823
0.00000000 0.00000000 0.84157055
0.00000000 0.00000000 0.84139599
0.65760802 0.00000000 0.84081893
0.89243131 0.00000000 0.83889397
0.98382153 0.00000000 0.83227291
0.99304719 0.00000000 0.80681808
0.99737009 0.00000000 0.63073565
0.00000000 0.57152231 0.83786325
0.00000000 0.56835561 0.83781445
0.00000000 0.56438560 0.83775444
0.00000000 0.55182525 0.83757284
0.53198679 0.50315366 0.83697247
0.88035237 0.20302603 0.83496915
0.98295586 0.00000000 0.82807114
0.99301725 0.00000000 0.80143932
0.99736109 0.00000000 0.61041619
0.00000000 0.84801927 0.82415620
0.00000000 0.84761288 0.82410024
0.00000000 0.84711103 0.82403142
0.00000000 0.84557764 0.82382314
0.00000000 0.84034547 0.82313432
0.82083320 0.82083320 0.82083320
0.97948424 0.71117676 0.81287792
0.99291687 0.00000000 0.78166801
0.99733127 0.00000000 0.51914026
0.00000000 0.96927012 0.76051052
0.00000000 0.96922512 0.76041278
0.00000000 0.96916972 0.76029258
0.00000000 0.96900146 0.75992854
0.00000000 0.96843898 0.75872235
0.00000000 0.96649139 0.75466729
0.95738155 0.95888810 0.74033212
0.99256506 0.91079050 0.67842707
0.99723133 0.00000000 0.00000000
0.00000000 0.99179764 0.00000000
0.00000000 0.99179674 0.00000000
0.00000000 0.99179564 0.00000000
0.00000000 0.99179230 0.00000000
0.00000000 0.99178129 0.00000000
0.00000000 0.99174481 0.00000000
0.00000000 0.99162202 0.00000000
0.99108070 0.99118530 0.00000000
0.99688117 0.98742914 0.00000000
0.00000000 0.99612370 0.00000000
0.00000000 0.99612342 0.00000000
0.00000000 0.99612309 0.00000000
0.00000000 0.99612209 0.00000000
0.00000000 0.99611878 0.00000000
0.00000000 0.99610786 0.00000000
0.00000000 0.99607166 0.00000000
0.00000000 0.99594985 0.00000000
0.99540585 0.99551691 0.00000000
0.00000000 0.00000000 0.96233680
0.00000000 0.00000000 0.96233049
0.00000000 0.00000000 0.96232274
0.00000000 0.00000000 0.96229929
0.50269163 0.00000000 0.96222194
0.87839063 0.00000000 0.96196582
0.98282075 0.00000000 0.96110670
0.99301280 0.00000000 0.95809774
0.99735975 0.00000000 0.94583433
0.00000000 0.00000000 0.96229568
0.00000000 0.00000000 0.96228936
0.00000000 0.00000000 0.96228159
0.00000000 0.00000000 0.96225811
0.48438175 0.00000000 0.96218066
0.87728672 0.00000000 0.96192418
0.98274539 0.00000000 0.96106386
0.99301033 0.00000000 0.95805065
0.99735901 0.00000000 0.94576894
0.00000000 0.00000000 0.96224506
0.00000000 0.00000000 0.96223873
0.00000000 0.00000000 0.96223095
0.00000000 0.00000000 0.96220743
0.45927557 0.00000000 0.96212984
0.87590901 0.00000000 0.96187293
0.98265201 0.00000000 0.96101114
0.99300731 0.00000000 0.95799269
0.99735811 0.00000000 0.94568844
0.00000000 0.00000000 0.96209154
0.00000000 0.00000000 0.96208518
0.00000000 0.00000000 0.96207736
0.00000000 0.00000000 0.96205372
0.36551900 0.00000000 0.96197573
0.87159700 0.00000000 0.96171748
0.98236454 0.00000000 0.96085122
0.99299814 0.00000000 0.95781687
0.99735536 0.00000000 0.94544419
0.00000000 0.00000000 0.96158040
0.00000000 0.00000000 0.96157393
0.00000000 0.00000000 0.96156598
0.00000000 0.00000000 0.96154193
0.00000000 0.00000000 0.96146260
0.85560841 0.00000000 0.96119991
0.98136037 0.00000000 0.96031870
0.99296778 0.00000000 0.95723129
0.99734632 0.00000000 0.94462980
0.00000000 0.79637610 0.95983420
0.00000000 0.79570514 0.95982735
0.00000000 0.79487512 0.95981894
0.00000000 0.79232901 0.95979349
0.00000000 0.78352460 0.95970955
0.76950974 0.74892638 0.95943158
0.97734796 0.44418422 0.95849889
0.99286599 0.00000000 0.95522853
0.99731639 0.00000000 0.94183417
0.00000000 0.96435128 0.95332195
0.00000000 0.96429684 0.95331366
0.00000000 0.96422981 0.95330347
0.00000000 0.96402620 0.95327267
0.00000000 0.96334525 0.95317104
0.00000000 0.96098388 0.95283440
0.95170385 0.95170385 0.95170385
0.99250893 0.88980410 0.94772700
0.99721603 0.00000000 0.93121205
0.00000000 0.99170735 0.91928553
0.00000000 0.99170643 0.91926848
0.00000000 0.99170530 0.91924751
0.00000000 0.99170188 0.91918411
0.00000000 0.99169060 0.91897485
0.00000000 0.99165318 0.91828047
0.00000000 0.99152717 0.91593492
0.99099566 0.99107806 0.90751111
0.99686430 0.98632016 0.86912512
0.00000000 0.99609672 0.00000000
0.00000000 0.99609645 0.00000000
0.00000000 0.99609612 0.00000000
0.00000000 0.99609511 0.00000000
0.00000000 0.99609177 0.00000000
0.00000000 0.99608077 0.00000000
0.00000000 0.99604430 0.00000000
0.00000000 0.99592154 0.00000000
0.99538043 0.99548498 0.00000000
0.00000000 0.00000000 0.99127310
0.00000000 0.00000000 0.99127299
0.00000000 0.00000000 0.99127285
0.00000000 0.00000000 0.99127243
0.00000000 0.00000000 0.99127106
0.74316283 0.00000000 0.99126653
0.97648087 0.00000000 0.99125159
0.99284707 0.00000000 0.99120196
0.99731089 0.00000000 0.99103351
0.00000000 0.00000000 0.99127237
0.00000000 0.00000000 0.99127226
0.00000000 0.00000000 0.99127212
0.00000000 0.00000000 0.99127170
0.00000000 0.00000000 0.99127033
0.73912894 0.00000000 0.99126580
0.97635953 0.00000000 0.99125086
0.99284449 0.00000000 0.99120121
0.99731014 0.00000000 0.99103272
0.00000000 0.00000000 0.99127147
0.00000000 0.00000000 0.99127136
0.00000000 0.00000000 0.99127122
0.00000000 0.00000000 0.99127080
0.00000000 0.00000000 0.99126943
0.73399758 0.00000000 0.99126490
0.97620923 0.00000000 0.99124995
0.99284132 0.00000000 0.99120029
0.99730922 0.00000000 0.99103176
0.00000000 0.00000000 0.99126875
0.00000000 0.00000000 0.99126864
0.00000000 0.00000000 0.99126850
0.00000000 0.00000000 0.99126808
0.00000000 0.00000000 0.99126671
0.71718781 0.00000000 0.99126218
0.97574684 0.00000000 0.99124722
0.99283172 0.00000000 0.99119752
0.99730644 0.00000000 0.99102886
0.00000000 0.00000000 0.99125979
0.00000000 0.00000000 0.99125967
0.00000000 0.00000000 0.99125954
0.00000000 0.00000000 0.99125912
0.00000000 0.00000000 0.99125774
0.64183047 0.00000000 0.99125320
0.97413462 0.00000000 0.99123820
0.99279993 0.00000000 0.99118838
0.99729728 0.00000000 0.99101928
0.00000000 0.00000000 0.99123011
0.00000000 0.00000000 0.99123000
0.00000000 0.00000000 0.99122986
0.00000000 0.00000000 0.99122944
0.00000000 0.00000000 0.99122805
0.00000000 0.00000000 0.99122347
0.96770346 0.00000000 0.99120835
0.99269322 0.00000000 0.99115811
0.99726693 0.00000000 0.99098754
0.00000000 0.93901351 0.99113063
0.00000000 0.93890518 0.99113051
0.00000000 0.93877171 0.99113037
0.00000000 0.93836596 0.99112993
0.00000000 0.93700466 0.99112851
0.00000000 0.93223126 0.99112380
0.92443462 0.91258555 0.99110825
0.99231769 0.70617344 0.99105659
0.99716516 0.00000000 0.99088104
0.00000000 0.99139301 0.99078219
0.00000000 0.99139201 0.99078206
0.00000000 0.99139077 0.99078190
0.00000000 0.99138704 0.99078142
0.00000000 0.99137472 0.99077985
0.00000000 0.99133387 0.99077466
0.00000000 0.99119596 0.99075754
0.99070055 0.99070055 0.99070055
0.99680819 0.98053284 0.99050629
0.00000000 0.99600646 0.98803487
0.00000000 0.99600618 0.98803395
0.00000000 0.99600584 0.98803283
0.00000000 0.99600480 0.98802943
0.00000000 0.99600138 0.98801820
0.00000000 0.99599010 0.98798098
0.00000000 0.99595270 0.98785550
0.00000000 0.99582673 0.98740976
0.99529542 0.99537778 0.98555075
0.00000000 0.00000000 0.99557239
0.00000000 0.00000000 0.99557236
0.00000000 0.00000000 0.99557232
0.00000000 0.00000000 0.99557219
0.00000000 0.00000000 0.99557177
0.00000000 0.00000000 0.99557040
0.90818557 0.00000000 0.99556588
0.99224035 0.00000000 0.99555094
0.99714515 0.00000000 0.99550132
0.00000000 0.00000000 0.99557217
0.00000000 0.00000000 0.99557214
0.00000000 0.00000000 0.99557209
0.00000000 0.00000000 0.99557197
0.00000000 0.00000000 0.99557155
0.00000000 0.00000000 0.99557018
0.90745619 0.00000000 0.99556565
0.99223730 0.00000000 0.99555072
0.99714437 0.00000000 0.99550109
0.00000000 0.00000000 0.99557190
0.00000000 0.00000000 0.99557186
0.00000000 0.00000000 0.99557182
0.00000000 0.00000000 0.99557169
0.00000000 0.00000000 0.99557128
0.00000000 0.00000000 0.99556990
0.90654853 0.00000000 0.99556538
0.99223355 0.00000000 0.99555044
0.99714341 0.00000000 0.99550081
0.00000000 0.00000000 0.99557107
0.00000000 0.00000000 0.99557104
0.00000000 0.00000000 0.99557100
0.00000000 0.00000000 0.99557087
0.00000000 0.00000000 0.99557045
0.00000000 0.00000000 0.99556908
0.90372660 0.00000000 0.99556455
0.99222219 0.00000000 0.99554961
0.99714050 0.00000000 0.99549997
0.00000000 0.00000000 0.99556835
0.00000000 0.00000000 0.99556832
0.00000000 0.00000000 0.99556828
0.00000000 0.00000000 0.99556815
0.00000000 0.00000000 0.99556773
0.00000000 0.00000000 0.99556636
0.89351309 0.00000000 0.99556183
0.99218451 0.00000000 0.99554688
0.99713090 0.00000000 0.99549720
0.00000000 0.00000000 0.99555939
0.00000000 0.00000000 0.99555936
0.00000000 0.00000000 0.99555932
0.00000000 0.00000000 0.99555919
0.00000000 0.00000000 0.99555877
0.00000000 0.00000000 0.99555739
0.84519537 0.00000000 0.99555285
0.99205759 0.00000000 0.99553786
0.99709912 0.00000000 0.99548806
0.00000000 0.00000000 0.99552973
0.00000000 0.00000000 0.99552969
0.00000000 0.00000000 0.99552965
0.00000000 0.00000000 0.99552952
0.00000000 0.00000000 0.99552910
0.00000000 0.00000000 0.99552771
0.00000000 0.00000000 0.99552313
0.99160497 0.00000000 0.99550802
0.99699243 0.00000000 0.99545780
0.00000000 0.99010729 0.99543028
0.00000000 0.99010586 0.99543025
0.00000000 0.99010410 0.99543020
0.00000000 0.99009876 0.99543007
0.00000000 0.99008114 0.99542964
0.00000000 0.99002252 0.99542821
0.00000000 0.98973566 0.99542350
0.98885805 0.98671717 0.99540797
0.99661700 0.88669535 0.99535632
0.00000000 0.99569219 0.99508198
0.00000000 0.99569189 0.99508194
0.00000000 0.99569151 0.99508189
0.00000000 0.99569038 0.99508175
0.00000000 0.99568665 0.99508127
0.00000000 0.99567434 0.99507970
0.00000000 0.99563349 0.99507451
0.00000000 0.99549564 0.99505739
0.99500043 0.99500043 0.99500043
