Vlog_to_BT601_PAL.cube
TITLE "Vlog_to_BT601_PAL"
LUT_3D_SIZE 5
# Vlog to BT601 PAL SDR by Francesco Bucciantini
0.00000000 0.00000000 0.00000000
0.23409062 0.00000000 0.00000000
0.71660132 0.00000000 0.00000000
0.98112448 0.00000000 0.00000000
0.99696387 0.00000000 0.00000000
0.00000000 0.17965326 0.00000000
0.14926607 0.15325783 0.00000000
0.70824649 0.00000000 0.00000000
0.98097667 0.00000000 0.00000000
0.99696249 0.00000000 0.00000000
0.00000000 0.66247776 0.00000000
0.00000000 0.65918305 0.00000000
0.62880763 0.63336343 0.00000000
0.97986520 0.00000000 0.00000000
0.99695259 0.00000000 0.00000000
0.00000000 0.96864070 0.00000000
0.00000000 0.96855778 0.00000000
0.00000000 0.96795626 0.00000000
0.95900652 0.96038182 0.00000000
0.99684351 0.00000000 0.00000000
0.00000000 0.99596361 0.00000000
0.00000000 0.99596310 0.00000000
0.00000000 0.99595947 0.00000000
0.00000000 0.99591988 0.00000000
0.99538328 0.99546012 0.00000000
0.00000000 0.00000000 0.16286358
0.22059367 0.00000000 0.15912620
0.71510810 0.00000000 0.13018694
0.98109755 0.00000000 0.00000000
0.99696362 0.00000000 0.00000000
0.00000000 0.15883581 0.13377937
0.12945209 0.12945209 0.12945209
0.70666156 0.00000000 0.09499773
0.98094941 0.00000000 0.00000000
0.99696224 0.00000000 0.00000000
0.00000000 0.65985165 0.00000000
0.00000000 0.65650030 0.00000000
0.62613600 0.63020496 0.00000000
0.97983546 0.00000000 0.00000000
0.99695234 0.00000000 0.00000000
0.00000000 0.96857449 0.00000000
0.00000000 0.96849134 0.00000000
0.00000000 0.96788817 0.00000000
0.95892975 0.96029257 0.00000000
0.99684325 0.00000000 0.00000000
0.00000000 0.99596320 0.00000000
0.00000000 0.99596269 0.00000000
0.00000000 0.99595906 0.00000000
0.00000000 0.99591947 0.00000000
0.99538289 0.99545965 0.00000000
0.00000000 0.00000000 0.64416591
0.09001468 0.00000000 0.64365962
0.70393762 0.00000000 0.63999033
0.98090312 0.00000000 0.59384856
0.99696181 0.00000000 0.00000000
0.00000000 0.00000000 0.64042131
0.00000000 0.00000000 0.63990304
0.69478170 0.00000000 0.63614608
0.98075260 0.00000000 0.58876467
0.99696043 0.00000000 0.00000000
0.00000000 0.63966442 0.61078436
0.00000000 0.63585328 0.61016371
0.60565585 0.60565585 0.60565585
0.97962081 0.00000000 0.54737230
0.99695052 0.00000000 0.00000000
0.00000000 0.96809551 0.00000000
0.00000000 0.96801073 0.00000000
0.00000000 0.96739566 0.00000000
0.95837519 0.95964655 0.00000000
0.99684138 0.00000000 0.00000000
0.00000000 0.99596030 0.00000000
0.00000000 0.99595979 0.00000000
0.00000000 0.99595616 0.00000000
0.00000000 0.99591653 0.00000000
0.99538008 0.99545632 0.00000000
0.00000000 0.00000000 0.96355607
0.00000000 0.00000000 0.96354222
0.45837518 0.00000000 0.96344292
0.97858426 0.00000000 0.96234386
0.99694213 0.00000000 0.94722717
0.00000000 0.00000000 0.96345449
0.00000000 0.00000000 0.96344058
0.41869672 0.00000000 0.96334093
0.97840554 0.00000000 0.96223796
0.99694074 0.00000000 0.94706428
0.00000000 0.00000000 0.96271714
0.00000000 0.00000000 0.96270288
0.00000000 0.00000000 0.96260067
0.97706253 0.00000000 0.96146918
0.99693078 0.00000000 0.94587988
0.00000000 0.96224846 0.95336495
0.00000000 0.96214333 0.95334600
0.00000000 0.96138031 0.95321012
0.95170385 0.95170385 0.95170385
0.99682103 0.00000000 0.93050802
0.00000000 0.99592872 0.00000000
0.00000000 0.99592821 0.00000000
0.00000000 0.99592454 0.00000000
0.00000000 0.99588456 0.00000000
0.99534953 0.99541998 0.00000000
0.00000000 0.00000000 0.99564437
0.00000000 0.00000000 0.99564430
0.00000000 0.00000000 0.99564375
0.88891565 0.00000000 0.99563781
0.99672156 0.00000000 0.99557280
0.00000000 0.00000000 0.99564381
0.00000000 0.00000000 0.99564374
0.00000000 0.00000000 0.99564319
0.88729328 0.00000000 0.99563725
0.99672008 0.00000000 0.99557223
0.00000000 0.00000000 0.99563981
0.00000000 0.00000000 0.99563973
0.00000000 0.00000000 0.99563918
0.87457058 0.00000000 0.99563324
0.99670950 0.00000000 0.99556814
0.00000000 0.00000000 0.99559606
0.00000000 0.00000000 0.99559598
0.00000000 0.00000000 0.99559543
0.00000000 0.00000000 0.99558941
0.99659269 0.00000000 0.99552351
0.00000000 0.99556724 0.99508417
0.00000000 0.99556667 0.99508408
0.00000000 0.99556262 0.99508344
0.00000000 0.99551839 0.99507650
0.99500043 0.99500043 0.99500043
