Vlog_to_BT601_NTSC.cube
TITLE "Vlog_to_BT601_NTSC"
LUT_3D_SIZE 5
# Vlog to BT601 NTSC SDR by Francesco Bucciantini
0.00000000 0.00000000 0.00000000
0.25788157 0.00000000 0.00000000
0.73773568 0.00000000 0.00000000
0.98476393 0.00000000 0.00000000
0.99738092 0.00000000 0.00000000
0.00000000 0.18879138 0.00000000
0.15101683 0.15694159 0.00000000
0.72817648 0.00000000 0.00000000
0.98462833 0.00000000 0.00000000
0.99737929 0.00000000 0.00000000
0.00000000 0.67212882 0.00000000
0.00000000 0.66827704 0.00000000
0.63081048 0.63753330 0.00000000
0.98358728 0.00000000 0.00000000
0.99736757 0.00000000 0.00000000
0.00000000 0.97115972 0.00000000
0.00000000 0.97106728 0.00000000
0.00000000 0.97039457 0.00000000
0.95961375 0.96162181 0.00000000
0.99723806 0.00000000 0.00000000
0.00000000 0.99613552 0.00000000
0.00000000 0.99613492 0.00000000
0.00000000 0.99613062 0.00000000
0.00000000 0.99608366 0.00000000
0.99541700 0.99553090 0.00000000
0.00000000 0.00000000 0.15910468
0.24434081 0.00000000 0.15540116
0.73633794 0.00000000 0.12671032
0.98474365 0.00000000 0.00000000
0.99738068 0.00000000 0.00000000
0.00000000 0.16536559 0.13366613
0.12945209 0.12945209 0.12945209
0.72667536 0.00000000 0.09600642
0.98460769 0.00000000 0.00000000
0.99737904 0.00000000 0.00000000
0.00000000 0.66925143 0.00000000
0.00000000 0.66532568 0.00000000
0.62792327 0.63394024 0.00000000
0.98356396 0.00000000 0.00000000
0.99736733 0.00000000 0.00000000
0.00000000 0.97109048 0.00000000
0.00000000 0.97099775 0.00000000
0.00000000 0.97032292 0.00000000
0.95953139 0.96152187 0.00000000
0.99723780 0.00000000 0.00000000
0.00000000 0.99613507 0.00000000
0.00000000 0.99613447 0.00000000
0.00000000 0.99613017 0.00000000
0.00000000 0.99608320 0.00000000
0.99541657 0.99553036 0.00000000
0.00000000 0.00000000 0.63996619
0.11722580 0.00000000 0.63946023
0.72589065 0.00000000 0.63579365
0.98459696 0.00000000 0.58974124
0.99737891 0.00000000 0.00000000
0.00000000 0.00000000 0.63664089
0.00000000 0.00000000 0.63612439
0.71542977 0.00000000 0.63238063
0.98445845 0.00000000 0.58523935
0.99737728 0.00000000 0.00000000
0.00000000 0.64694140 0.61065065
0.00000000 0.64240601 0.61004597
0.60565585 0.60565585 0.60565585
0.98339540 0.00000000 0.54918660
0.99736556 0.00000000 0.00000000
0.00000000 0.97058878 0.00000000
0.00000000 0.97049394 0.00000000
0.00000000 0.96980375 0.00000000
0.95893591 0.96079719 0.00000000
0.99723597 0.00000000 0.00000000
0.00000000 0.99613185 0.00000000
0.00000000 0.99613124 0.00000000
0.00000000 0.99612694 0.00000000
0.00000000 0.99607993 0.00000000
0.99541354 0.99552655 0.00000000
0.00000000 0.00000000 0.96233680
0.00000000 0.00000000 0.96232274
0.50269163 0.00000000 0.96222194
0.98282075 0.00000000 0.96110670
0.99735975 0.00000000 0.94583433
0.00000000 0.00000000 0.96224506
0.00000000 0.00000000 0.96223095
0.45927557 0.00000000 0.96212984
0.98265201 0.00000000 0.96101114
0.99735811 0.00000000 0.94568844
0.00000000 0.00000000 0.96158040
0.00000000 0.00000000 0.96156598
0.00000000 0.00000000 0.96146260
0.98136037 0.00000000 0.96031870
0.99734632 0.00000000 0.94462980
0.00000000 0.96435128 0.95332195
0.00000000 0.96422981 0.95330347
0.00000000 0.96334525 0.95317104
0.95170385 0.95170385 0.95170385
0.99721603 0.00000000 0.93121205
0.00000000 0.99609672 0.00000000
0.00000000 0.99609612 0.00000000
0.00000000 0.99609177 0.00000000
0.00000000 0.99604430 0.00000000
0.99538043 0.99548498 0.00000000
0.00000000 0.00000000 0.99557239
0.00000000 0.00000000 0.99557232
0.00000000 0.00000000 0.99557177
0.90818557 0.00000000 0.99556588
0.99714515 0.00000000 0.99550132
0.00000000 0.00000000 0.99557190
0.00000000 0.00000000 0.99557182
0.00000000 0.00000000 0.99557128
0.90654853 0.00000000 0.99556538
0.99714341 0.00000000 0.99550081
0.00000000 0.00000000 0.99556835
0.00000000 0.00000000 0.99556828
0.00000000 0.00000000 0.99556773
0.89351309 0.00000000 0.99556183
0.99713090 0.00000000 0.99549720
0.00000000 0.00000000 0.99552973
0.00000000 0.00000000 0.99552965
0.00000000 0.00000000 0.99552910
0.00000000 0.00000000 0.99552313
0.99699243 0.00000000 0.99545780
0.00000000 0.99569219 0.99508198
0.00000000 0.99569151 0.99508189
0.00000000 0.99568665 0.99508127
0.00000000 0.99563349 0.99507451
0.99500043 0.99500043 0.99500043
