Vlog_to_BT601_PAL.cube
TITLE "Vlog_to_BT601_PAL"
LUT_3D_SIZE 9
# Vlog to BT601 PAL SDR by Francesco Bucciantini
0.00000000 0.00000000 0.00000000
0.08071314 0.00000000 0.00000000
0.23409062 0.00000000 0.00000000
0.46655718 0.00000000 0.00000000
0.71660132 0.00000000 0.00000000
0.89202093 0.00000000 0.00000000
0.98112448 0.00000000 0.00000000
0.99266567 0.00000000 0.00000000
0.99696387 0.00000000 0.00000000
0.00000000 0.03414679 0.00000000
0.01249249 0.01516349 0.00000000
0.19968362 0.00000000 0.00000000
0.45010268 0.00000000 0.00000000
0.71291414 0.00000000 0.00000000
0.89132724 0.00000000 0.00000000
0.98105839 0.00000000 0.00000000
0.99266363 0.00000000 0.00000000
0.99696325 0.00000000 0.00000000
0.00000000 0.17965326 0.00000000
0.00000000 0.16820495 0.00000000
0.14926607 0.15325783 0.00000000
0.42813778 0.09956865 0.00000000
0.70824649 0.00000000 0.00000000
0.89046570 0.00000000 0.00000000
0.98097667 0.00000000 0.00000000
0.99266112 0.00000000 0.00000000
0.99696249 0.00000000 0.00000000
0.00000000 0.39308130 0.00000000
0.00000000 0.38747197 0.00000000
0.00000000 0.38046854 0.00000000
0.35337114 0.35849819 0.00000000
0.69313414 0.27479642 0.00000000
0.88779913 0.00000000 0.00000000
0.98072632 0.00000000 0.00000000
0.99265353 0.00000000 0.00000000
0.99696019 0.00000000 0.00000000
0.00000000 0.66247776 0.00000000
0.00000000 0.66100822 0.00000000
0.00000000 0.65918305 0.00000000
0.00000000 0.65353309 0.00000000
0.62880763 0.63336343 0.00000000
0.87829470 0.54182074 0.00000000
0.97986520 0.00000000 0.00000000
0.99262841 0.00000000 0.00000000
0.99695259 0.00000000 0.00000000
0.00000000 0.85806269 0.00000000
0.00000000 0.85776991 0.00000000
0.00000000 0.85740880 0.00000000
0.00000000 0.85630835 0.00000000
0.00000000 0.85258666 0.00000000
0.83616053 0.83915274 0.00000000
0.97659122 0.77575876 0.00000000
0.99254442 0.00000000 0.00000000
0.99692748 0.00000000 0.00000000
0.00000000 0.96864070 0.00000000
0.00000000 0.96860353 0.00000000
0.00000000 0.96855778 0.00000000
0.00000000 0.96841897 0.00000000
0.00000000 0.96795626 0.00000000
0.00000000 0.96636968 0.00000000
0.95900652 0.96038182 0.00000000
0.99225319 0.92781854 0.00000000
0.99684351 0.00000000 0.00000000
0.00000000 0.99166467 0.00000000
0.00000000 0.99166392 0.00000000
0.00000000 0.99166299 0.00000000
0.00000000 0.99166021 0.00000000
0.00000000 0.99165102 0.00000000
0.00000000 0.99162061 0.00000000
0.00000000 0.99151860 0.00000000
0.99108381 0.99116072 0.00000000
0.99655235 0.98929258 0.00000000
0.00000000 0.99596361 0.00000000
0.00000000 0.99596338 0.00000000
0.00000000 0.99596310 0.00000000
0.00000000 0.99596225 0.00000000
0.00000000 0.99595947 0.00000000
0.00000000 0.99595028 0.00000000
0.00000000 0.99591988 0.00000000
0.00000000 0.99581789 0.00000000
0.99538328 0.99546012 0.00000000
0.00000000 0.00000000 0.02180513
0.06822066 0.00000000 0.01918496
0.22811934 0.00000000 0.01596504
0.46364251 0.00000000 0.00623276
0.71593335 0.00000000 0.00000000
0.89189439 0.00000000 0.00000000
0.98111240 0.00000000 0.00000000
0.99266530 0.00000000 0.00000000
0.99696376 0.00000000 0.00000000
0.00000000 0.01898330 0.00262017
0.00000000 0.00000000 0.00000000
0.19284015 0.00000000 0.00000000
0.44693976 0.00000000 0.00000000
0.71222832 0.00000000 0.00000000
0.89119950 0.00000000 0.00000000
0.98104625 0.00000000 0.00000000
0.99266326 0.00000000 0.00000000
0.99696314 0.00000000 0.00000000
0.00000000 0.17055642 0.00000000
0.00000000 0.15861009 0.00000000
0.14062408 0.14293135 0.00000000
0.42475455 0.08547011 0.00000000
0.70753759 0.00000000 0.00000000
0.89033646 0.00000000 0.00000000
0.98096445 0.00000000 0.00000000
0.99266075 0.00000000 0.00000000
0.99696238 0.00000000 0.00000000
0.00000000 0.38860702 0.00000000
0.00000000 0.38293390 0.00000000
0.00000000 0.37584845 0.00000000
0.34928589 0.35360230 0.00000000
0.69234675 0.26850535 0.00000000
0.88766517 0.00000000 0.00000000
0.98071385 0.00000000 0.00000000
0.99265315 0.00000000 0.00000000
0.99696007 0.00000000 0.00000000
0.00000000 0.66130504 0.00000000
0.00000000 0.65982430 0.00000000
0.00000000 0.65798513 0.00000000
0.00000000 0.65229102 0.00000000
0.62761437 0.63195393 0.00000000
0.87814324 0.53942814 0.00000000
0.97985186 0.00000000 0.00000000
0.99262803 0.00000000 0.00000000
0.99695248 0.00000000 0.00000000
0.00000000 0.85782890 0.00000000
0.00000000 0.85753536 0.00000000
0.00000000 0.85717329 0.00000000
0.00000000 0.85606992 0.00000000
0.00000000 0.85233820 0.00000000
0.83591709 0.83886610 0.00000000
0.97657465 0.77524458 0.00000000
0.99254404 0.00000000 0.00000000
0.99692736 0.00000000 0.00000000
0.00000000 0.96861102 0.00000000
0.00000000 0.96857380 0.00000000
0.00000000 0.96852799 0.00000000
0.00000000 0.96838901 0.00000000
0.00000000 0.96792573 0.00000000
0.00000000 0.96633721 0.00000000
0.95897210 0.96034181 0.00000000
0.99225278 0.92773144 0.00000000
0.99684339 0.00000000 0.00000000
0.00000000 0.99166407 0.00000000
0.00000000 0.99166332 0.00000000
0.00000000 0.99166240 0.00000000
0.00000000 0.99165961 0.00000000
0.00000000 0.99165042 0.00000000
0.00000000 0.99162000 0.00000000
0.00000000 0.99151797 0.00000000
0.99108323 0.99116003 0.00000000
0.99655222 0.98928947 0.00000000
0.00000000 0.99596342 0.00000000
0.00000000 0.99596320 0.00000000
0.00000000 0.99596292 0.00000000
0.00000000 0.99596207 0.00000000
0.00000000 0.99595929 0.00000000
0.00000000 0.99595010 0.00000000
0.00000000 0.99591969 0.00000000
0.00000000 0.99581770 0.00000000
0.99538311 0.99545991 0.00000000
0.00000000 0.00000000 0.16286358
0.05286870 0.00000000 0.16119491
0.22059367 0.00000000 0.15912620
0.46000196 0.00000000 0.15274666
0.71510810 0.00000000 0.13018694
0.89173859 0.00000000 0.03261179
0.98109755 0.00000000 0.00000000
0.99266484 0.00000000 0.00000000
0.99696362 0.00000000 0.00000000
0.00000000 0.00034896 0.15032766
0.00000000 0.00000000 0.14855508
0.18415179 0.00000000 0.14635529
0.44298477 0.00000000 0.13955496
0.71138092 0.00000000 0.11527299
0.89104221 0.00000000 0.01342683
0.98103131 0.00000000 0.00000000
0.99266280 0.00000000 0.00000000
0.99696300 0.00000000 0.00000000
0.00000000 0.15883581 0.13377937
0.00000000 0.14618498 0.13185018
0.12945209 0.12945209 0.12945209
0.42055998 0.06664248 0.12200944
0.70666156 0.00000000 0.09499773
0.89017732 0.00000000 0.00000000
0.98094941 0.00000000 0.00000000
0.99266029 0.00000000 0.00000000
0.99696224 0.00000000 0.00000000
0.00000000 0.38303893 0.07173353
0.00000000 0.37728454 0.06911336
0.00000000 0.37009449 0.06589344
0.34420237 0.34749565 0.05616116
0.69137329 0.26058928 0.02411449
0.88750023 0.00000000 0.00000000
0.98069850 0.00000000 0.00000000
0.99265269 0.00000000 0.00000000
0.99695993 0.00000000 0.00000000
0.00000000 0.65985165 0.00000000
0.00000000 0.65835695 0.00000000
0.00000000 0.65650030 0.00000000
0.00000000 0.65075113 0.00000000
0.62613600 0.63020496 0.00000000
0.87795673 0.53644493 0.00000000
0.97983546 0.00000000 0.00000000
0.99262756 0.00000000 0.00000000
0.99695234 0.00000000 0.00000000
0.00000000 0.85754076 0.00000000
0.00000000 0.85724626 0.00000000
0.00000000 0.85688301 0.00000000
0.00000000 0.85577604 0.00000000
0.00000000 0.85203195 0.00000000
0.83561708 0.83851270 0.00000000
0.97655427 0.77460970 0.00000000
0.99254356 0.00000000 0.00000000
0.99692722 0.00000000 0.00000000
0.00000000 0.96857449 0.00000000
0.00000000 0.96853722 0.00000000
0.00000000 0.96849134 0.00000000
0.00000000 0.96835215 0.00000000
0.00000000 0.96788817 0.00000000
0.00000000 0.96629724 0.00000000
0.95892975 0.96029257 0.00000000
0.99225226 0.92762420 0.00000000
0.99684325 0.00000000 0.00000000
0.00000000 0.99166333 0.00000000
0.00000000 0.99166258 0.00000000
0.00000000 0.99166166 0.00000000
0.00000000 0.99165887 0.00000000
0.00000000 0.99164968 0.00000000
0.00000000 0.99161926 0.00000000
0.00000000 0.99151721 0.00000000
0.99108252 0.99115919 0.00000000
0.99655206 0.98928564 0.00000000
0.00000000 0.99596320 0.00000000
0.00000000 0.99596297 0.00000000
0.00000000 0.99596269 0.00000000
0.00000000 0.99596185 0.00000000
0.00000000 0.99595906 0.00000000
0.00000000 0.99594988 0.00000000
0.00000000 0.99591947 0.00000000
0.00000000 0.99581747 0.00000000
0.99538289 0.99545965 0.00000000
0.00000000 0.00000000 0.37095211
0.00646698 0.00000000 0.37013794
0.19640700 0.00000000 0.36913503
0.44858322 0.00000000 0.36608762
0.71258377 0.00000000 0.35587606
0.89126565 0.00000000 0.32007763
0.98105254 0.00000000 0.15962138
0.99266345 0.00000000 0.00000000
0.99696320 0.00000000 0.00000000
0.00000000 0.00000000 0.36495020
0.00000000 0.00000000 0.36412311
0.15565858 0.00000000 0.36310422
0.43071702 0.00000000 0.36000777
0.70878828 0.00000000 0.34962641
0.89056476 0.00000000 0.31315763
0.98098605 0.00000000 0.14688207
0.99266141 0.00000000 0.00000000
0.99696258 0.00000000 0.00000000
0.00000000 0.11863841 0.35744195
0.00000000 0.10284402 0.35659816
0.09070852 0.08083066 0.35555861
0.40762269 0.01031965 0.35239874
0.70398055 0.00000000 0.34179741
0.88969423 0.00000000 0.30445417
0.98090385 0.00000000 0.13002677
0.99265890 0.00000000 0.00000000
0.99696181 0.00000000 0.00000000
0.00000000 0.36571065 0.33377245
0.00000000 0.35968916 0.33287179
0.00000000 0.35215442 0.33176182
0.32838547 0.32838547 0.32838547
0.68839121 0.23525535 0.31703001
0.88699948 0.00000000 0.27663414
0.98065200 0.00000000 0.06666132
0.99265130 0.00000000 0.00000000
0.99695951 0.00000000 0.00000000
0.00000000 0.65537452 0.24135677
0.00000000 0.65383622 0.24014768
0.00000000 0.65192497 0.23865458
0.00000000 0.64600360 0.23409180
0.62158520 0.62480215 0.21849685
0.87739033 0.52712646 0.15884952
0.97978576 0.00000000 0.00000000
0.99262616 0.00000000 0.00000000
0.99695192 0.00000000 0.00000000
0.00000000 0.85666414 0.00000000
0.00000000 0.85636673 0.00000000
0.00000000 0.85599989 0.00000000
0.00000000 0.85488192 0.00000000
0.00000000 0.85110003 0.00000000
0.83470472 0.83743664 0.00000000
0.97649252 0.77267026 0.00000000
0.99254213 0.00000000 0.00000000
0.99692679 0.00000000 0.00000000
0.00000000 0.96846375 0.00000000
0.00000000 0.96842631 0.00000000
0.00000000 0.96838022 0.00000000
0.00000000 0.96824039 0.00000000
0.00000000 0.96777430 0.00000000
0.00000000 0.96617608 0.00000000
0.95880141 0.96014326 0.00000000
0.99225070 0.92729878 0.00000000
0.99684281 0.00000000 0.00000000
0.00000000 0.99166111 0.00000000
0.00000000 0.99166036 0.00000000
0.00000000 0.99165943 0.00000000
0.00000000 0.99165665 0.00000000
0.00000000 0.99164745 0.00000000
0.00000000 0.99161700 0.00000000
0.00000000 0.99151489 0.00000000
0.99108036 0.99115663 0.00000000
0.99655159 0.98927401 0.00000000
0.00000000 0.99596253 0.00000000
0.00000000 0.99596230 0.00000000
0.00000000 0.99596202 0.00000000
0.00000000 0.99596117 0.00000000
0.00000000 0.99595839 0.00000000
0.00000000 0.99594920 0.00000000
0.00000000 0.99591878 0.00000000
0.00000000 0.99581677 0.00000000
0.99538224 0.99545888 0.00000000
0.00000000 0.00000000 0.64416591
0.00000000 0.00000000 0.64393896
0.09001468 0.00000000 0.64365962
0.40741424 0.00000000 0.64281235
0.70393762 0.00000000 0.63999033
0.88968655 0.00000000 0.63033324
0.98090312 0.00000000 0.59384856
0.99265888 0.00000000 0.36688169
0.99696181 0.00000000 0.00000000
0.00000000 0.00000000 0.64249669
0.00000000 0.00000000 0.64226736
0.02179517 0.00000000 0.64198509
0.38761481 0.00000000 0.64112889
0.69990137 0.00000000 0.63827691
0.88897047 0.00000000 0.62851426
0.98083582 0.00000000 0.59158611
0.99265683 0.00000000 0.36081469
0.99696119 0.00000000 0.00000000
0.00000000 0.00000000 0.64042131
0.00000000 0.00000000 0.64018899
0.00000000 0.00000000 0.63990304
0.36184595 0.00000000 0.63903565
0.69478170 0.00000000 0.63614608
0.88808098 0.00000000 0.62625091
0.98075260 0.00000000 0.58876467
0.99265432 0.00000000 0.35322228
0.99696043 0.00000000 0.00000000
0.00000000 0.30207886 0.63398086
0.00000000 0.29484743 0.63373910
0.00000000 0.28573221 0.63344151
0.27035701 0.25642512 0.63253870
0.67812539 0.12712071 0.62953008
0.88532680 0.00000000 0.61921469
0.98049766 0.00000000 0.57994807
0.99264671 0.00000000 0.32926578
0.99695812 0.00000000 0.00000000
0.00000000 0.63966442 0.61078436
0.00000000 0.63796566 0.61050619
0.00000000 0.63585328 0.61016371
0.00000000 0.62929621 0.60912431
0.60565585 0.60565585 0.60565585
0.87549656 0.49274071 0.59370837
0.97962081 0.00000000 0.54737230
0.99262154 0.00000000 0.23528455
0.99695052 0.00000000 0.00000000
0.00000000 0.85371555 0.50059651
0.00000000 0.85340824 0.50008509
0.00000000 0.85302917 0.49945477
0.00000000 0.85187372 0.49753704
0.00000000 0.84796303 0.49108539
0.83163961 0.83380738 0.46821048
0.97628759 0.76605710 0.37398255
0.99253740 0.00000000 0.00000000
0.99692539 0.00000000 0.00000000
0.00000000 0.96809551 0.00000000
0.00000000 0.96805751 0.00000000
0.00000000 0.96801073 0.00000000
0.00000000 0.96786879 0.00000000
0.00000000 0.96739566 0.00000000
0.00000000 0.96577316 0.00000000
0.95837519 0.95964655 0.00000000
0.99224557 0.92621312 0.00000000
0.99684138 0.00000000 0.00000000
0.00000000 0.99165377 0.00000000
0.00000000 0.99165302 0.00000000
0.00000000 0.99165210 0.00000000
0.00000000 0.99164930 0.00000000
0.00000000 0.99164009 0.00000000
0.00000000 0.99160958 0.00000000
0.00000000 0.99150725 0.00000000
0.99107326 0.99114819 0.00000000
0.99655004 0.98923504 0.00000000
0.00000000 0.99596030 0.00000000
0.00000000 0.99596007 0.00000000
0.00000000 0.99595979 0.00000000
0.00000000 0.99595895 0.00000000
0.00000000 0.99595616 0.00000000
0.00000000 0.99594697 0.00000000
0.00000000 0.99591653 0.00000000
0.00000000 0.99581445 0.00000000
0.99538008 0.99545632 0.00000000
0.00000000 0.00000000 0.84621333
0.00000000 0.00000000 0.84616739
0.00000000 0.00000000 0.84611090
0.22651155 0.00000000 0.84593997
0.67117591 0.00000000 0.84537491
0.88423808 0.00000000 0.84349002
0.98039801 0.00000000 0.83700718
0.99264377 0.00000000 0.81209263
0.99695723 0.00000000 0.64072828
0.00000000 0.00000000 0.84587644
0.00000000 0.00000000 0.84583034
0.00000000 0.00000000 0.84577365
0.19099010 0.00000000 0.84560210
0.66612644 0.00000000 0.84503501
0.88346835 0.00000000 0.84314328
0.98032794 0.00000000 0.83663629
0.99264172 0.00000000 0.81161964
0.99695661 0.00000000 0.63902274
0.00000000 0.00000000 0.84546078
0.00000000 0.00000000 0.84541448
0.00000000 0.00000000 0.84535754
0.13826493 0.00000000 0.84518523
0.65968556 0.00000000 0.84461562
0.88251180 0.00000000 0.84271543
0.98024131 0.00000000 0.83617857
0.99263919 0.00000000 0.81103553
0.99695585 0.00000000 0.63690178
0.00000000 0.00000000 0.84419320
0.00000000 0.00000000 0.84414627
0.00000000 0.00000000 0.84408856
0.00000000 0.00000000 0.84391393
0.63843744 0.00000000 0.84333660
0.87954724 0.00000000 0.84141046
0.97997593 0.00000000 0.83478199
0.99263155 0.00000000 0.80925059
0.99695354 0.00000000 0.63031708
0.00000000 0.57383661 0.83989583
0.00000000 0.57132532 0.83984674
0.00000000 0.56818987 0.83978638
0.00000000 0.55836497 0.83960371
0.53958546 0.52168430 0.83899976
0.86893119 0.32481922 0.83698410
0.97906329 0.00000000 0.83003900
0.99260628 0.00000000 0.80315766
0.99694593 0.00000000 0.60656382
0.00000000 0.84327714 0.82424504
0.00000000 0.84293328 0.82418761
0.00000000 0.84250900 0.82411698
0.00000000 0.84121504 0.82390321
0.00000000 0.83682722 0.82319616
0.82083320 0.82083320 0.82083320
0.97559507 0.74143647 0.81265315
0.99252177 0.00000000 0.78039008
0.99692077 0.00000000 0.49278216
0.00000000 0.96684322 0.74693397
0.00000000 0.96680329 0.74682233
0.00000000 0.96675413 0.74668500
0.00000000 0.96660500 0.74626904
0.00000000 0.96610781 0.74488991
0.00000000 0.96440232 0.74024327
0.95693153 0.95795441 0.72368682
0.99222863 0.92247879 0.64950382
0.99683665 0.00000000 0.00000000
0.00000000 0.99162952 0.00000000
0.00000000 0.99162876 0.00000000
0.00000000 0.99162783 0.00000000
0.00000000 0.99162502 0.00000000
0.00000000 0.99161574 0.00000000
0.00000000 0.99158502 0.00000000
0.00000000 0.99148199 0.00000000
0.99104979 0.99112027 0.00000000
0.99654491 0.98909925 0.00000000
0.00000000 0.99595297 0.00000000
0.00000000 0.99595274 0.00000000
0.00000000 0.99595246 0.00000000
0.00000000 0.99595161 0.00000000
0.00000000 0.99594882 0.00000000
0.00000000 0.99593961 0.00000000
0.00000000 0.99590911 0.00000000
0.00000000 0.99580682 0.00000000
0.99537299 0.99544789 0.00000000
0.00000000 0.00000000 0.96355607
0.00000000 0.00000000 0.96354986
0.00000000 0.00000000 0.96354222
0.00000000 0.00000000 0.96351912
0.45837518 0.00000000 0.96344292
0.86307356 0.00000000 0.96319059
0.97858426 0.00000000 0.96234386
0.99259358 0.00000000 0.95937484
0.99694213 0.00000000 0.94722717
0.00000000 0.00000000 0.96351054
0.00000000 0.00000000 0.96350432
0.00000000 0.00000000 0.96349667
0.00000000 0.00000000 0.96347353
0.44121680 0.00000000 0.96339721
0.86207569 0.00000000 0.96314447
0.97850434 0.00000000 0.96229640
0.99259150 0.00000000 0.95932256
0.99694150 0.00000000 0.94715417
0.00000000 0.00000000 0.96345449
0.00000000 0.00000000 0.96344825
0.00000000 0.00000000 0.96344058
0.00000000 0.00000000 0.96341740
0.41869672 0.00000000 0.96334093
0.86083357 0.00000000 0.96308770
0.97840554 0.00000000 0.96223796
0.99258894 0.00000000 0.95925821
0.99694074 0.00000000 0.94706428
0.00000000 0.00000000 0.96328439
0.00000000 0.00000000 0.96327812
0.00000000 0.00000000 0.96327041
0.00000000 0.00000000 0.96324709
0.34193745 0.00000000 0.96317017
0.85696904 0.00000000 0.96291543
0.97810291 0.00000000 0.96206063
0.99258119 0.00000000 0.95906291
0.99693842 0.00000000 0.94679139
0.00000000 0.00000000 0.96271714
0.00000000 0.00000000 0.96271075
0.00000000 0.00000000 0.96270288
0.00000000 0.00000000 0.96267911
0.00000000 0.00000000 0.96260067
0.84293820 0.00000000 0.96234091
0.97706253 0.00000000 0.96146918
0.99255556 0.00000000 0.95841135
0.99693078 0.00000000 0.94587988
0.00000000 0.79817875 0.96076875
0.00000000 0.79764756 0.96076193
0.00000000 0.79699135 0.96075354
0.00000000 0.79498450 0.96072817
0.00000000 0.78811568 0.96064448
0.77489290 0.76218268 0.96036732
0.97311049 0.60195101 0.95943697
0.99246984 0.00000000 0.95617058
0.99690551 0.00000000 0.94273191
0.00000000 0.96224846 0.95336495
0.00000000 0.96220134 0.95335645
0.00000000 0.96214333 0.95334600
0.00000000 0.96196731 0.95331439
0.00000000 0.96138031 0.95321012
0.00000000 0.95936422 0.95286466
0.95170385 0.95170385 0.95170385
0.99217227 0.90816711 0.94761315
0.99682103 0.00000000 0.93050802
0.00000000 0.99154847 0.91138764
0.00000000 0.99154769 0.91136769
0.00000000 0.99154674 0.91134317
0.00000000 0.99154387 0.91126899
0.00000000 0.99153438 0.91102412
0.00000000 0.99150296 0.91021106
0.00000000 0.99139752 0.90745828
0.99097141 0.99102677 0.89749025
0.99652797 0.98856690 0.85027706
0.00000000 0.99592872 0.00000000
0.00000000 0.99592849 0.00000000
0.00000000 0.99592821 0.00000000
0.00000000 0.99592735 0.00000000
0.00000000 0.99592454 0.00000000
0.00000000 0.99591527 0.00000000
0.00000000 0.99588456 0.00000000
0.00000000 0.99578156 0.00000000
0.99534953 0.99541998 0.00000000
0.00000000 0.00000000 0.99134515
0.00000000 0.00000000 0.99134504
0.00000000 0.00000000 0.99134490
0.00000000 0.00000000 0.99134448
0.00000000 0.00000000 0.99134310
0.71135451 0.00000000 0.99133854
0.97061988 0.00000000 0.99132350
0.99242320 0.00000000 0.99127351
0.99689194 0.00000000 0.99110385
0.00000000 0.00000000 0.99134432
0.00000000 0.00000000 0.99134421
0.00000000 0.00000000 0.99134407
0.00000000 0.00000000 0.99134365
0.00000000 0.00000000 0.99134227
0.70752543 0.00000000 0.99133771
0.97049689 0.00000000 0.99132266
0.99242102 0.00000000 0.99127267
0.99689131 0.00000000 0.99110297
0.00000000 0.00000000 0.99134330
0.00000000 0.00000000 0.99134319
0.00000000 0.00000000 0.99134305
0.00000000 0.00000000 0.99134263
0.00000000 0.00000000 0.99134125
0.70267423 0.00000000 0.99133669
0.97034484 0.00000000 0.99132164
0.99241834 0.00000000 0.99127163
0.99689053 0.00000000 0.99110188
0.00000000 0.00000000 0.99134023
0.00000000 0.00000000 0.99134012
0.00000000 0.00000000 0.99133998
0.00000000 0.00000000 0.99133956
0.00000000 0.00000000 0.99133817
0.68693660 0.00000000 0.99133361
0.96987902 0.00000000 0.99131855
0.99241021 0.00000000 0.99126849
0.99688818 0.00000000 0.99109859
0.00000000 0.00000000 0.99133008
0.00000000 0.00000000 0.99132997
0.00000000 0.00000000 0.99132983
0.00000000 0.00000000 0.99132941
0.00000000 0.00000000 0.99132802
0.61935321 0.00000000 0.99132344
0.96827649 0.00000000 0.99130834
0.99238333 0.00000000 0.99125814
0.99688044 0.00000000 0.99108774
0.00000000 0.00000000 0.99129647
0.00000000 0.00000000 0.99129635
0.00000000 0.00000000 0.99129621
0.00000000 0.00000000 0.99129579
0.00000000 0.00000000 0.99129438
0.00000000 0.00000000 0.99128977
0.96216124 0.00000000 0.99127452
0.99229337 0.00000000 0.99122385
0.99685481 0.00000000 0.99105178
0.00000000 0.94000015 0.99118351
0.00000000 0.93991482 0.99118339
0.00000000 0.93980974 0.99118325
0.00000000 0.93949067 0.99118281
0.00000000 0.93842424 0.99118136
0.00000000 0.93473293 0.99117660
0.92745694 0.92026835 0.99116086
0.99198021 0.81830327 0.99110855
0.99676912 0.00000000 0.99093076
0.00000000 0.99126794 0.99078438
0.00000000 0.99126710 0.99078425
0.00000000 0.99126608 0.99078409
0.00000000 0.99126297 0.99078360
0.00000000 0.99125271 0.99078198
0.00000000 0.99121872 0.99077666
0.00000000 0.99110450 0.99075907
0.99070055 0.99070055 0.99070055
0.99647163 0.98570910 0.99050086
0.00000000 0.99584769 0.98645229
0.00000000 0.99584746 0.98645094
0.00000000 0.99584717 0.98644928
0.00000000 0.99584629 0.98644426
0.00000000 0.99584342 0.98642770
0.00000000 0.99583393 0.98637282
0.00000000 0.99580252 0.98618830
0.00000000 0.99569712 0.98553790
0.99527117 0.99532651 0.98287678
0.00000000 0.00000000 0.99564437
0.00000000 0.00000000 0.99564434
0.00000000 0.00000000 0.99564430
0.00000000 0.00000000 0.99564417
0.00000000 0.00000000 0.99564375
0.00000000 0.00000000 0.99564237
0.88891565 0.00000000 0.99563781
0.99179743 0.00000000 0.99562277
0.99672156 0.00000000 0.99557280
0.00000000 0.00000000 0.99564412
0.00000000 0.00000000 0.99564409
0.00000000 0.00000000 0.99564405
0.00000000 0.00000000 0.99564392
0.00000000 0.00000000 0.99564350
0.00000000 0.00000000 0.99564212
0.88819210 0.00000000 0.99563756
0.99179484 0.00000000 0.99562252
0.99672090 0.00000000 0.99557255
0.00000000 0.00000000 0.99564381
0.00000000 0.00000000 0.99564378
0.00000000 0.00000000 0.99564374
0.00000000 0.00000000 0.99564361
0.00000000 0.00000000 0.99564319
0.00000000 0.00000000 0.99564181
0.88729328 0.00000000 0.99563725
0.99179164 0.00000000 0.99562221
0.99672008 0.00000000 0.99557223
0.00000000 0.00000000 0.99564288
0.00000000 0.00000000 0.99564285
0.00000000 0.00000000 0.99564280
0.00000000 0.00000000 0.99564268
0.00000000 0.00000000 0.99564226
0.00000000 0.00000000 0.99564087
0.88450984 0.00000000 0.99563632
0.99178197 0.00000000 0.99562127
0.99671762 0.00000000 0.99557128
0.00000000 0.00000000 0.99563981
0.00000000 0.00000000 0.99563977
0.00000000 0.00000000 0.99563973
0.00000000 0.00000000 0.99563960
0.00000000 0.00000000 0.99563918
0.00000000 0.00000000 0.99563780
0.87457058 0.00000000 0.99563324
0.99174995 0.00000000 0.99561818
0.99670950 0.00000000 0.99556814
0.00000000 0.00000000 0.99562966
0.00000000 0.00000000 0.99562963
0.00000000 0.00000000 0.99562958
0.00000000 0.00000000 0.99562946
0.00000000 0.00000000 0.99562904
0.00000000 0.00000000 0.99562765
0.83013261 0.00000000 0.99562307
0.99164246 0.00000000 0.99560797
0.99668263 0.00000000 0.99555780
0.00000000 0.00000000 0.99559606
0.00000000 0.00000000 0.99559602
0.00000000 0.00000000 0.99559598
0.00000000 0.00000000 0.99559585
0.00000000 0.00000000 0.99559543
0.00000000 0.00000000 0.99559403
0.00000000 0.00000000 0.99558941
0.99126401 0.00000000 0.99557417
0.99659269 0.00000000 0.99552351
0.00000000 0.99015092 0.99548314
0.00000000 0.99014978 0.99548311
0.00000000 0.99014838 0.99548306
0.00000000 0.99014414 0.99548293
0.00000000 0.99013015 0.99548249
0.00000000 0.99008367 0.99548104
0.00000000 0.98991129 0.99547628
0.98925408 0.98820660 0.99546055
0.99627962 0.95045048 0.99540827
0.00000000 0.99556724 0.99508417
0.00000000 0.99556698 0.99508413
0.00000000 0.99556667 0.99508408
0.00000000 0.99556573 0.99508393
0.00000000 0.99556262 0.99508344
0.00000000 0.99555236 0.99508183
0.00000000 0.99551839 0.99507650
0.00000000 0.99540421 0.99505893
0.99500043 0.99500043 0.99500043
