Vlog_to_BT601_NTSC.cube
TITLE "Vlog_to_BT601_NTSC"
LUT_3D_SIZE 33
# Vlog to BT601 NTSC SDR by Francesco Bucciantini
0.00000000 0.00000000 0.00000000
0.00000000 0.00000000 0.00000000
0.00000000 0.00000000 0.00000000
0.05030938 0.00000000 0.00000000
0.10295073 0.00000000 0.00000000
0.14464715 0.00000000 0.00000000
0.17925220 0.00000000 0.00000000
0.21570713 0.00000000 0.00000000
0.25788157 0.00000000 0.00000000
0.30653441 0.00000000 0.00000000
0.36253861 0.00000000 0.00000000
0.42689806 0.00000000 0.00000000
0.49661117 0.00000000 0.00000000
0.56302246 0.00000000 0.00000000
0.62552270 0.00000000 0.00000000
0.68384184 0.00000000 0.00000000
0.73773568 0.00000000 0.00000000
0.78697920 0.00000000 0.00000000
0.83136150 0.00000000 0.00000000
0.87068202 0.00000000 0.00000000
0.90474773 0.00000000 0.00000000
0.93337107 0.00000000 0.00000000
0.95636841 0.00000000 0.00000000
0.97355895 0.00000000 0.00000000
0.98476393 0.00000000 0.00000000
0.98980604 0.00000000 0.00000000
0.99093425 0.00000000 0.00000000
0.99200858 0.00000000 0.00000000
0.99308298 0.00000000 0.00000000
0.99415742 0.00000000 0.00000000
0.99523190 0.00000000 0.00000000
0.99630640 0.00000000 0.00000000
0.99738092 0.00000000 0.00000000
0.00000000 0.00000000 0.00000000
0.00000000 0.00000000 0.00000000
0.00000000 0.00000000 0.00000000
0.02765338 0.00000000 0.00000000
0.08187304 0.00000000 0.00000000
0.12828232 0.00000000 0.00000000
0.16549328 0.00000000 0.00000000
0.20395944 0.00000000 0.00000000
0.24786540 0.00000000 0.00000000
0.29800387 0.00000000 0.00000000
0.35527937 0.00000000 0.00000000
0.42072453 0.00000000 0.00000000
0.49205039 0.00000000 0.00000000
0.55983256 0.00000000 0.00000000
0.62330813 0.00000000 0.00000000
0.68231743 0.00000000 0.00000000
0.73669681 0.00000000 0.00000000
0.78627973 0.00000000 0.00000000
0.83089757 0.00000000 0.00000000
0.87038020 0.00000000 0.00000000
0.90455638 0.00000000 0.00000000
0.93325411 0.00000000 0.00000000
0.95630080 0.00000000 0.00000000
0.97352347 0.00000000 0.00000000
0.98474884 0.00000000 0.00000000
0.98980343 0.00000000 0.00000000
0.99093316 0.00000000 0.00000000
0.99200777 0.00000000 0.00000000
0.99308237 0.00000000 0.00000000
0.99415697 0.00000000 0.00000000
0.99523156 0.00000000 0.00000000
0.99630615 0.00000000 0.00000000
0.99738074 0.00000000 0.00000000
0.00000000 0.00000000 0.00000000
0.00000000 0.00000000 0.00000000
0.00000000 0.00000000 0.00000000
0.00499738 0.00000000 0.00000000
0.05896956 0.00000000 0.00000000
0.11033245 0.00000000 0.00000000
0.15079844 0.00000000 0.00000000
0.19162670 0.00000000 0.00000000
0.23748259 0.00000000 0.00000000
0.28924319 0.00000000 0.00000000
0.34787550 0.00000000 0.00000000
0.41446004 0.00000000 0.00000000
0.48738070 0.00000000 0.00000000
0.55658530 0.00000000 0.00000000
0.62106347 0.00000000 0.00000000
0.68077731 0.00000000 0.00000000
0.73564977 0.00000000 0.00000000
0.78557604 0.00000000 0.00000000
0.83043148 0.00000000 0.00000000
0.87007728 0.00000000 0.00000000
0.90436448 0.00000000 0.00000000
0.93313688 0.00000000 0.00000000
0.95623307 0.00000000 0.00000000
0.97348793 0.00000000 0.00000000
0.98473372 0.00000000 0.00000000
0.98980080 0.00000000 0.00000000
0.99093206 0.00000000 0.00000000
0.99200696 0.00000000 0.00000000
0.99308177 0.00000000 0.00000000
0.99415652 0.00000000 0.00000000
0.99523123 0.00000000 0.00000000
0.99630591 0.00000000 0.00000000
0.99738056 0.00000000 0.00000000
0.00000000 0.00304295 0.00000000
0.00000000 0.00000000 0.00000000
0.00000000 0.00000000 0.00000000
0.00000000 0.00000000 0.00000000
0.03631356 0.00000000 0.00000000
0.09026951 0.00000000 0.00000000
0.13496246 0.00000000 0.00000000
0.17861853 0.00000000 0.00000000
0.22669262 0.00000000 0.00000000
0.28023396 0.00000000 0.00000000
0.34031858 0.00000000 0.00000000
0.40810072 0.00000000 0.00000000
0.48259736 0.00000000 0.00000000
0.55327885 0.00000000 0.00000000
0.61878801 0.00000000 0.00000000
0.67922119 0.00000000 0.00000000
0.73459447 0.00000000 0.00000000
0.78486811 0.00000000 0.00000000
0.82996322 0.00000000 0.00000000
0.86977326 0.00000000 0.00000000
0.90417203 0.00000000 0.00000000
0.93301938 0.00000000 0.00000000
0.95616520 0.00000000 0.00000000
0.97345233 0.00000000 0.00000000
0.98471857 0.00000000 0.00000000
0.98979815 0.00000000 0.00000000
0.99093097 0.00000000 0.00000000
0.99200614 0.00000000 0.00000000
0.99308117 0.00000000 0.00000000
0.99415608 0.00000000 0.00000000
0.99523090 0.00000000 0.00000000
0.99630566 0.00000000 0.00000000
0.99738037 0.00000000 0.00000000
0.00000000 0.04125965 0.00000000
0.00000000 0.03536341 0.00000000
0.00000000 0.02946716 0.00000000
0.00000000 0.02357092 0.00000000
0.01365756 0.01767468 0.00000000
0.06762973 0.01177843 0.00000000
0.11769358 0.00584333 0.00000000
0.16481897 0.00000000 0.00000000
0.21544698 0.00000000 0.00000000
0.27095523 0.00000000 0.00000000
0.33259935 0.00000000 0.00000000
0.40164240 0.00000000 0.00000000
0.47769532 0.00000000 0.00000000
0.54991125 0.00000000 0.00000000
0.61648099 0.00000000 0.00000000
0.67764880 0.00000000 0.00000000
0.73353079 0.00000000 0.00000000
0.78415587 0.00000000 0.00000000
0.82949277 0.00000000 0.00000000
0.86946813 0.00000000 0.00000000
0.90397902 0.00000000 0.00000000
0.93290160 0.00000000 0.00000000
0.95609720 0.00000000 0.00000000
0.97341666 0.00000000 0.00000000
0.98470338 0.00000000 0.00000000
0.98979550 0.00000000 0.00000000
0.99092987 0.00000000 0.00000000
0.99200533 0.00000000 0.00000000
0.99308056 0.00000000 0.00000000
0.99415563 0.00000000 0.00000000
0.99523057 0.00000000 0.00000000
0.99630541 0.00000000 0.00000000
0.99738019 0.00000000 0.00000000
0.00000000 0.07947635 0.00000000
0.00000000 0.07358010 0.00000000
0.00000000 0.06768386 0.00000000
0.00000000 0.06178762 0.00000000
0.00000000 0.05589137 0.00000000
0.04497373 0.04999513 0.00000000
0.09855243 0.04406003 0.00000000
0.15007519 0.03675217 0.00000000
0.20368689 0.02690792 0.00000000
0.26138295 0.01364697 0.00000000
0.32470756 0.00000000 0.00000000
0.39508061 0.00000000 0.00000000
0.47266920 0.00000000 0.00000000
0.54648047 0.00000000 0.00000000
0.61414165 0.00000000 0.00000000
0.67605984 0.00000000 0.00000000
0.73245861 0.00000000 0.00000000
0.78343930 0.00000000 0.00000000
0.82902012 0.00000000 0.00000000
0.86916189 0.00000000 0.00000000
0.90378546 0.00000000 0.00000000
0.93278354 0.00000000 0.00000000
0.95602906 0.00000000 0.00000000
0.97338093 0.00000000 0.00000000
0.98468817 0.00000000 0.00000000
0.98979283 0.00000000 0.00000000
0.99092877 0.00000000 0.00000000
0.99200452 0.00000000 0.00000000
0.99307996 0.00000000 0.00000000
0.99415518 0.00000000 0.00000000
0.99523023 0.00000000 0.00000000
0.99630517 0.00000000 0.00000000
0.99738001 0.00000000 0.00000000
0.00000000 0.11445567 0.00000000
0.00000000 0.10958596 0.00000000
0.00000000 0.10457316 0.00000000
0.00000000 0.09940475 0.00000000
0.00000000 0.09406631 0.00000000
0.02216842 0.08854105 0.00000000
0.07649629 0.08277077 0.00000000
0.13406953 0.07522072 0.00000000
0.19125643 0.06537648 0.00000000
0.25142300 0.05211552 0.00000000
0.31657804 0.03425202 0.00000000
0.38836620 0.01018851 0.00000000
0.46747881 0.00000000 0.00000000
0.54296113 0.00000000 0.00000000
0.61175343 0.00000000 0.00000000
0.67444336 0.00000000 0.00000000
0.73137068 0.00000000 0.00000000
0.78271358 0.00000000 0.00000000
0.82854210 0.00000000 0.00000000
0.86885250 0.00000000 0.00000000
0.90359005 0.00000000 0.00000000
0.93266443 0.00000000 0.00000000
0.95596033 0.00000000 0.00000000
0.97334489 0.00000000 0.00000000
0.98467283 0.00000000 0.00000000
0.98979013 0.00000000 0.00000000
0.99092767 0.00000000 0.00000000
0.99200370 0.00000000 0.00000000
0.99307935 0.00000000 0.00000000
0.99415473 0.00000000 0.00000000
0.99522990 0.00000000 0.00000000
0.99630492 0.00000000 0.00000000
0.99737982 0.00000000 0.00000000
0.00000000 0.14947800 0.00000000
0.00000000 0.14544997 0.00000000
0.00000000 0.14133914 0.00000000
0.00000000 0.13714052 0.00000000
0.00000000 0.13284861 0.00000000
0.00000000 0.12845733 0.00000000
0.04841621 0.12392989 0.00000000
0.11229635 0.11819603 0.00000000
0.17499460 0.11016633 0.00000000
0.23866273 0.09871358 0.00000000
0.30629310 0.08186569 0.00000000
0.37994021 0.05755469 0.00000000
0.46089788 0.02513932 0.00000000
0.53853350 0.00000000 0.00000000
0.60876547 0.00000000 0.00000000
0.67242903 0.00000000 0.00000000
0.73001895 0.00000000 0.00000000
0.78181383 0.00000000 0.00000000
0.82795040 0.00000000 0.00000000
0.86846998 0.00000000 0.00000000
0.90334867 0.00000000 0.00000000
0.93251738 0.00000000 0.00000000
0.95587553 0.00000000 0.00000000
0.97330044 0.00000000 0.00000000
0.98465390 0.00000000 0.00000000
0.98978678 0.00000000 0.00000000
0.99092631 0.00000000 0.00000000
0.99200269 0.00000000 0.00000000
0.99307860 0.00000000 0.00000000
0.99415417 0.00000000 0.00000000
0.99522949 0.00000000 0.00000000
0.99630461 0.00000000 0.00000000
0.99737959 0.00000000 0.00000000
0.00000000 0.18879138 0.00000000
0.00000000 0.18543468 0.00000000
0.00000000 0.18202885 0.00000000
0.00000000 0.17857181 0.00000000
0.00000000 0.17506133 0.00000000
0.00000000 0.17149501 0.00000000
0.01059020 0.16784618 0.00000000
0.07748388 0.16326788 0.00000000
0.15101683 0.15694159 0.00000000
0.22047964 0.14810465 0.00000000
0.29191224 0.13555156 0.00000000
0.36829483 0.11721554 0.00000000
0.45168002 0.08899967 0.00000000
0.53239707 0.04527920 0.00000000
0.60465506 0.00000000 0.00000000
0.66967276 0.00000000 0.00000000
0.72817648 0.00000000 0.00000000
0.78059090 0.00000000 0.00000000
0.82714783 0.00000000 0.00000000
0.86795193 0.00000000 0.00000000
0.90302212 0.00000000 0.00000000
0.93231861 0.00000000 0.00000000
0.95576096 0.00000000 0.00000000
0.97324040 0.00000000 0.00000000
0.98462833 0.00000000 0.00000000
0.98978225 0.00000000 0.00000000
0.99092448 0.00000000 0.00000000
0.99200133 0.00000000 0.00000000
0.99307759 0.00000000 0.00000000
0.99415342 0.00000000 0.00000000
0.99522893 0.00000000 0.00000000
0.99630420 0.00000000 0.00000000
0.99737929 0.00000000 0.00000000
0.00000000 0.23314990 0.00000000
0.00000000 0.23033821 0.00000000
0.00000000 0.22749686 0.00000000
0.00000000 0.22462497 0.00000000
0.00000000 0.22172158 0.00000000
0.00000000 0.21878571 0.00000000
0.00000000 0.21579662 0.00000000
0.02652938 0.21206783 0.00000000
0.11338989 0.20695679 0.00000000
0.19377459 0.19990222 0.00000000
0.27145154 0.19006448 0.00000000
0.35202291 0.17612680 0.00000000
0.43858144 0.15586108 0.00000000
0.52379904 0.12495859 0.00000000
0.59895611 0.07240914 0.00000000
0.66587960 0.00000000 0.00000000
0.72565441 0.00000000 0.00000000
0.77892337 0.00000000 0.00000000
0.82605660 0.00000000 0.00000000
0.86724903 0.00000000 0.00000000
0.90257974 0.00000000 0.00000000
0.93204963 0.00000000 0.00000000
0.95560603 0.00000000 0.00000000
0.97315923 0.00000000 0.00000000
0.98459375 0.00000000 0.00000000
0.98977608 0.00000000 0.00000000
0.99092201 0.00000000 0.00000000
0.99199950 0.00000000 0.00000000
0.99307623 0.00000000 0.00000000
0.99415241 0.00000000 0.00000000
0.99522818 0.00000000 0.00000000
0.99630364 0.00000000 0.00000000
0.99737888 0.00000000 0.00000000
0.00000000 0.28338366 0.00000000
0.00000000 0.28101991 0.00000000
0.00000000 0.27863804 0.00000000
0.00000000 0.27623767 0.00000000
0.00000000 0.27381838 0.00000000
0.00000000 0.27137976 0.00000000
0.00000000 0.26890508 0.00000000
0.00000000 0.26582978 0.00000000
0.04800066 0.26163634 0.00000000
0.15221635 0.25589143 0.00000000
0.24148279 0.24796802 0.00000000
0.32889699 0.23693134 0.00000000
0.42011741 0.22132326 0.00000000
0.51156151 0.19869828 0.00000000
0.59096695 0.16440418 0.00000000
0.66061773 0.10697461 0.00000000
0.72218178 0.00221717 0.00000000
0.77663966 0.00000000 0.00000000
0.82456797 0.00000000 0.00000000
0.86629286 0.00000000 0.00000000
0.90197920 0.00000000 0.00000000
0.93168502 0.00000000 0.00000000
0.95539623 0.00000000 0.00000000
0.97304938 0.00000000 0.00000000
0.98454692 0.00000000 0.00000000
0.98976766 0.00000000 0.00000000
0.99091868 0.00000000 0.00000000
0.99199703 0.00000000 0.00000000
0.99307440 0.00000000 0.00000000
0.99415106 0.00000000 0.00000000
0.99522717 0.00000000 0.00000000
0.99630289 0.00000000 0.00000000
0.99737832 0.00000000 0.00000000
0.00000000 0.34041930 0.00000000
0.00000000 0.33842694 0.00000000
0.00000000 0.33642343 0.00000000
0.00000000 0.33440859 0.00000000
0.00000000 0.33238224 0.00000000
0.00000000 0.33034418 0.00000000
0.00000000 0.32828068 0.00000000
0.00000000 0.32572305 0.00000000
0.00000000 0.32224768 0.00000000
0.07692410 0.31750993 0.00000000
0.19510709 0.31102172 0.00000000
0.29508898 0.30207798 0.00000000
0.39389661 0.28963007 0.00000000
0.49373583 0.27204837 0.00000000
0.57958821 0.24661654 0.00000000
0.65323604 0.20822488 0.00000000
0.71736121 0.14459994 0.00000000
0.77349315 0.01440132 0.00000000
0.82252795 0.00000000 0.00000000
0.86498765 0.00000000 0.00000000
0.90116176 0.00000000 0.00000000
0.93118973 0.00000000 0.00000000
0.95511162 0.00000000 0.00000000
0.97290045 0.00000000 0.00000000
0.98448342 0.00000000 0.00000000
0.98975614 0.00000000 0.00000000
0.99091419 0.00000000 0.00000000
0.99199370 0.00000000 0.00000000
0.99307193 0.00000000 0.00000000
0.99414922 0.00000000 0.00000000
0.99522581 0.00000000 0.00000000
0.99630189 0.00000000 0.00000000
0.99737757 0.00000000 0.00000000
0.00000000 0.40529992 0.00000000
0.00000000 0.40361745 0.00000000
0.00000000 0.40192807 0.00000000
0.00000000 0.40023169 0.00000000
0.00000000 0.39852824 0.00000000
0.00000000 0.39681763 0.00000000
0.00000000 0.39508843 0.00000000
0.00000000 0.39294907 0.00000000
0.00000000 0.39004907 0.00000000
0.00000000 0.38610901 0.00000000
0.11277091 0.38073878 0.00000000
0.24297549 0.37338637 0.00000000
0.35561621 0.36325523 0.00000000
0.46682892 0.34916278 0.00000000
0.56299845 0.32927604 0.00000000
0.64271242 0.30055305 0.00000000
0.71059231 0.25731645 0.00000000
0.76912140 0.18616860 0.00000000
0.81971478 0.03081430 0.00000000
0.86319749 0.00000000 0.00000000
0.90004496 0.00000000 0.00000000
0.93051491 0.00000000 0.00000000
0.95472456 0.00000000 0.00000000
0.97269810 0.00000000 0.00000000
0.98439707 0.00000000 0.00000000
0.98974026 0.00000000 0.00000000
0.99090813 0.00000000 0.00000000
0.99198921 0.00000000 0.00000000
0.99306860 0.00000000 0.00000000
0.99414675 0.00000000 0.00000000
0.99522398 0.00000000 0.00000000
0.99630053 0.00000000 0.00000000
0.99737656 0.00000000 0.00000000
0.00000000 0.47749597 0.00000000
0.00000000 0.47619878 0.00000000
0.00000000 0.47489308 0.00000000
0.00000000 0.47357876 0.00000000
0.00000000 0.47225571 0.00000000
0.00000000 0.47092385 0.00000000
0.00000000 0.46957418 0.00000000
0.00000000 0.46789975 0.00000000
0.00000000 0.46562185 0.00000000
0.00000000 0.46251197 0.00000000
0.00000000 0.45824547 0.00000000
0.15153731 0.45235238 0.00000000
0.29677082 0.44413469 0.00000000
0.42419382 0.43263515 0.00000000
0.53792758 0.41663794 0.00000000
0.62734955 0.39407775 0.00000000
0.70093007 0.36152831 0.00000000
0.76297528 0.31263085 0.00000000
0.81580166 0.23256505 0.00000000
0.86072607 0.05292382 0.00000000
0.89851142 0.00000000 0.00000000
0.92959179 0.00000000 0.00000000
0.95419641 0.00000000 0.00000000
0.97242235 0.00000000 0.00000000
0.98427930 0.00000000 0.00000000
0.98971823 0.00000000 0.00000000
0.99089995 0.00000000 0.00000000
0.99198315 0.00000000 0.00000000
0.99306411 0.00000000 0.00000000
0.99414343 0.00000000 0.00000000
0.99522151 0.00000000 0.00000000
0.99629869 0.00000000 0.00000000
0.99737520 0.00000000 0.00000000
0.00000000 0.54698359 0.00000000
0.00000000 0.54608258 0.00000000
0.00000000 0.54517713 0.00000000
0.00000000 0.54426721 0.00000000
0.00000000 0.54335277 0.00000000
0.00000000 0.54243377 0.00000000
0.00000000 0.54150407 0.00000000
0.00000000 0.54035287 0.00000000
0.00000000 0.53879071 0.00000000
0.00000000 0.53666534 0.00000000
0.00000000 0.53376335 0.00000000
0.00000000 0.52978141 0.00000000
0.19435272 0.52428016 0.00000000
0.35751886 0.51660665 0.00000000
0.49774773 0.50575564 0.00000000
0.60409245 0.49010156 0.00000000
0.68680044 0.46682534 0.00000000
0.75418768 0.43067440 0.00000000
0.81029169 0.37520962 0.00000000
0.85728303 0.28470893 0.00000000
0.89639097 0.08294752 0.00000000
0.92832206 0.00000000 0.00000000
0.95347248 0.00000000 0.00000000
0.97204504 0.00000000 0.00000000
0.98411798 0.00000000 0.00000000
0.98968738 0.00000000 0.00000000
0.99088891 0.00000000 0.00000000
0.99197497 0.00000000 0.00000000
0.99305806 0.00000000 0.00000000
0.99413894 0.00000000 0.00000000
0.99521818 0.00000000 0.00000000
0.99629622 0.00000000 0.00000000
0.99737337 0.00000000 0.00000000
0.00000000 0.61188491 0.00000000
0.00000000 0.61126237 0.00000000
0.00000000 0.61063752 0.00000000
0.00000000 0.61001033 0.00000000
0.00000000 0.60938081 0.00000000
0.00000000 0.60874893 0.00000000
0.00000000 0.60811049 0.00000000
0.00000000 0.60732105 0.00000000
0.00000000 0.60625176 0.00000000
0.00000000 0.60480061 0.00000000
0.00000000 0.60282599 0.00000000
0.00000000 0.60012934 0.00000000
0.00000000 0.59642822 0.00000000
0.24213039 0.59131321 0.00000000
0.42635251 0.58417524 0.00000000
0.56673365 0.57407543 0.00000000
0.66536028 0.55949335 0.00000000
0.74130845 0.53778827 0.00000000
0.80239692 0.50387302 0.00000000
0.85242494 0.44618887 0.00000000
0.89343065 0.34359425 0.00000000
0.92656239 0.11838757 0.00000000
0.95247405 0.00000000 0.00000000
0.97152595 0.00000000 0.00000000
0.98389576 0.00000000 0.00000000
0.98964368 0.00000000 0.00000000
0.99087398 0.00000000 0.00000000
0.99196393 0.00000000 0.00000000
0.99304988 0.00000000 0.00000000
0.99413288 0.00000000 0.00000000
0.99521369 0.00000000 0.00000000
0.99629290 0.00000000 0.00000000
0.99737090 0.00000000 0.00000000
0.00000000 0.67212882 0.00000000
0.00000000 0.67170160 0.00000000
0.00000000 0.67127317 0.00000000
0.00000000 0.67084354 0.00000000
0.00000000 0.67041270 0.00000000
0.00000000 0.66998064 0.00000000
0.00000000 0.66954450 0.00000000
0.00000000 0.66900576 0.00000000
0.00000000 0.66827704 0.00000000
0.00000000 0.66728988 0.00000000
0.00000000 0.66595000 0.00000000
0.00000000 0.66412645 0.00000000
0.00000000 0.66163548 0.00000000
0.00000000 0.65821549 0.00000000
0.29581861 0.65348683 0.00000000
0.49985443 0.64688390 0.00000000
0.63081048 0.63753330 0.00000000
0.72170618 0.62401767 0.00000000
0.79079289 0.60386931 0.00000000
0.84544472 0.57232244 0.00000000
0.88924185 0.51852503 0.00000000
0.92409827 0.41031902 0.00000000
0.95108540 0.15715271 0.00000000
0.97080653 0.00000000 0.00000000
0.98358728 0.00000000 0.00000000
0.98958084 0.00000000 0.00000000
0.99085377 0.00000000 0.00000000
0.99194900 0.00000000 0.00000000
0.99303884 0.00000000 0.00000000
0.99412470 0.00000000 0.00000000
0.99520764 0.00000000 0.00000000
0.99628841 0.00000000 0.00000000
0.99736757 0.00000000 0.00000000
0.00000000 0.72761488 0.00000000
0.00000000 0.72732421 0.00000000
0.00000000 0.72703293 0.00000000
0.00000000 0.72674102 0.00000000
0.00000000 0.72644848 0.00000000
0.00000000 0.72615532 0.00000000
0.00000000 0.72585958 0.00000000
0.00000000 0.72549456 0.00000000
0.00000000 0.72500131 0.00000000
0.00000000 0.72433405 0.00000000
0.00000000 0.72343003 0.00000000
0.00000000 0.72220276 0.00000000
0.00000000 0.72053208 0.00000000
0.00000000 0.71824916 0.00000000
0.00000000 0.71511343 0.00000000
0.35644161 0.71077520 0.00000000
0.56869472 0.70471253 0.00000000
0.68998596 0.69611755 0.00000000
0.77306204 0.68367555 0.00000000
0.83514612 0.66509000 0.00000000
0.88320042 0.63590946 0.00000000
0.92059741 0.58596009 0.00000000
0.94913157 0.48372807 0.00000000
0.96979945 0.20013749 0.00000000
0.98315473 0.00000000 0.00000000
0.98948883 0.00000000 0.00000000
0.99082636 0.00000000 0.00000000
0.99192879 0.00000000 0.00000000
0.99302391 0.00000000 0.00000000
0.99411366 0.00000000 0.00000000
0.99519946 0.00000000 0.00000000
0.99628235 0.00000000 0.00000000
0.99736308 0.00000000 0.00000000
0.00000000 0.77822174 0.00000000
0.00000000 0.77802613 0.00000000
0.00000000 0.77783019 0.00000000
0.00000000 0.77763393 0.00000000
0.00000000 0.77743735 0.00000000
0.00000000 0.77724044 0.00000000
0.00000000 0.77704191 0.00000000
0.00000000 0.77679702 0.00000000
0.00000000 0.77646633 0.00000000
0.00000000 0.77601942 0.00000000
0.00000000 0.77541477 0.00000000
0.00000000 0.77459545 0.00000000
0.00000000 0.77348290 0.00000000
0.00000000 0.77196791 0.00000000
0.00000000 0.76989687 0.00000000
0.00000000 0.76705053 0.00000000
0.42513027 0.76310962 0.00000000
0.63262710 0.75759644 0.00000000
0.74421491 0.74976938 0.00000000
0.81932913 0.73841717 0.00000000
0.87424135 0.72141491 0.00000000
0.91552078 0.69462383 0.00000000
0.94633814 0.64853540 0.00000000
0.96837039 0.55355265 0.00000000
0.98253997 0.24823215 0.00000000
0.98935111 0.00000000 0.00000000
0.99078911 0.00000000 0.00000000
0.99190139 0.00000000 0.00000000
0.99300371 0.00000000 0.00000000
0.99409874 0.00000000 0.00000000
0.99518842 0.00000000 0.00000000
0.99627418 0.00000000 0.00000000
0.99735703 0.00000000 0.00000000
0.00000000 0.82381307 0.00000000
0.00000000 0.82368323 0.00000000
0.00000000 0.82355323 0.00000000
0.00000000 0.82342306 0.00000000
0.00000000 0.82329273 0.00000000
0.00000000 0.82316223 0.00000000
0.00000000 0.82303071 0.00000000
0.00000000 0.82286853 0.00000000
0.00000000 0.82264966 0.00000000
0.00000000 0.82235410 0.00000000
0.00000000 0.82195462 0.00000000
0.00000000 0.82141404 0.00000000
0.00000000 0.82068136 0.00000000
0.00000000 0.81968618 0.00000000
0.00000000 0.81833045 0.00000000
0.00000000 0.81647611 0.00000000
0.00000000 0.81392571 0.00000000
0.49866314 0.81039101 0.00000000
0.69165746 0.80543941 0.00000000
0.79341489 0.79839677 0.00000000
0.86038702 0.78815686 0.00000000
0.90793812 0.77276854 0.00000000
0.94225361 0.74840784 0.00000000
0.96630451 0.70622942 0.00000000
0.98165051 0.61850655 0.00000000
0.98913959 0.30237603 0.00000000
0.99073831 0.00000000 0.00000000
0.99186414 0.00000000 0.00000000
0.99297630 0.00000000 0.00000000
0.99407853 0.00000000 0.00000000
0.99517350 0.00000000 0.00000000
0.99626314 0.00000000 0.00000000
0.99734886 0.00000000 0.00000000
0.00000000 0.86424176 0.00000000
0.00000000 0.86415712 0.00000000
0.00000000 0.86407240 0.00000000
0.00000000 0.86398759 0.00000000
0.00000000 0.86390270 0.00000000
0.00000000 0.86381773 0.00000000
0.00000000 0.86373211 0.00000000
0.00000000 0.86362657 0.00000000
0.00000000 0.86348419 0.00000000
0.00000000 0.86329204 0.00000000
0.00000000 0.86303251 0.00000000
0.00000000 0.86268167 0.00000000
0.00000000 0.86220682 0.00000000
0.00000000 0.86156303 0.00000000
0.00000000 0.86068824 0.00000000
0.00000000 0.85949587 0.00000000
0.00000000 0.85786379 0.00000000
0.00000000 0.85561688 0.00000000
0.56758581 0.85249870 0.00000000
0.74573935 0.84812282 0.00000000
0.83747701 0.84188405 0.00000000
0.89609976 0.83278348 0.00000000
0.93608618 0.81904700 0.00000000
0.96324030 0.79717018 0.00000000
0.98033272 0.75897647 0.00000000
0.98880474 0.67859622 0.00000000
0.99066873 0.36359277 0.00000000
0.99181335 0.00000000 0.00000000
0.99293906 0.00000000 0.00000000
0.99405113 0.00000000 0.00000000
0.99515329 0.00000000 0.00000000
0.99624821 0.00000000 0.00000000
0.99733782 0.00000000 0.00000000
0.00000000 0.89935300 0.00000000
0.00000000 0.89929915 0.00000000
0.00000000 0.89924525 0.00000000
0.00000000 0.89919131 0.00000000
0.00000000 0.89913733 0.00000000
0.00000000 0.89908331 0.00000000
0.00000000 0.89902888 0.00000000
0.00000000 0.89896182 0.00000000
0.00000000 0.89887137 0.00000000
0.00000000 0.89874934 0.00000000
0.00000000 0.89858463 0.00000000
0.00000000 0.89836212 0.00000000
0.00000000 0.89806127 0.00000000
0.00000000 0.89765395 0.00000000
0.00000000 0.89710149 0.00000000
0.00000000 0.89635039 0.00000000
0.00000000 0.89532586 0.00000000
0.00000000 0.89392211 0.00000000
0.00000000 0.89198698 0.00000000
0.63159990 0.88929664 0.00000000
0.79478937 0.88551205 0.00000000
0.87627358 0.88009875 0.00000000
0.92632038 0.87216778 0.00000000
0.95852835 0.86012617 0.00000000
0.97831770 0.84079574 0.00000000
0.98825590 0.80667959 0.00000000
0.99057283 0.73377568 0.00000000
0.99174379 0.43301841 0.00000000
0.99288828 0.00000000 0.00000000
0.99401389 0.00000000 0.00000000
0.99512590 0.00000000 0.00000000
