Vlog_to_BT601_PAL.cube
TITLE "Vlog_to_BT601_PAL"
LUT_3D_SIZE 33
# Vlog to BT601 PAL SDR by Francesco Bucciantini
0.00000000 0.00000000 0.00000000
0.00000000 0.00000000 0.00000000
0.00000000 0.00000000 0.00000000
0.03263307 0.00000000 0.00000000
0.08071314 0.00000000 0.00000000
0.12307716 0.00000000 0.00000000
0.15735977 0.00000000 0.00000000
0.19308430 0.00000000 0.00000000
0.23409062 0.00000000 0.00000000
0.28111415 0.00000000 0.00000000
0.33499881 0.00000000 0.00000000
0.39671218 0.00000000 0.00000000
0.46655718 0.00000000 0.00000000
0.53538830 0.00000000 0.00000000
0.60014130 0.00000000 0.00000000
0.66061114 0.00000000 0.00000000
0.71660132 0.00000000 0.00000000
0.76792154 0.00000000 0.00000000
0.81438610 0.00000000 0.00000000
0.85581256 0.00000000 0.00000000
0.89202093 0.00000000 0.00000000
0.92283291 0.00000000 0.00000000
0.94807147 0.00000000 0.00000000
0.96756049 0.00000000 0.00000000
0.98112448 0.00000000 0.00000000
0.98858841 0.00000000 0.00000000
0.99051665 0.00000000 0.00000000
0.99159115 0.00000000 0.00000000
0.99266567 0.00000000 0.00000000
0.99374021 0.00000000 0.00000000
0.99481475 0.00000000 0.00000000
0.99588931 0.00000000 0.00000000
0.99696387 0.00000000 0.00000000
0.00000000 0.00000000 0.00000000
0.00000000 0.00000000 0.00000000
0.00000000 0.00000000 0.00000000
0.01557791 0.00000000 0.00000000
0.06365798 0.00000000 0.00000000
0.10932556 0.00000000 0.00000000
0.14594629 0.00000000 0.00000000
0.18342208 0.00000000 0.00000000
0.22590491 0.00000000 0.00000000
0.27417566 0.00000000 0.00000000
0.32911524 0.00000000 0.00000000
0.39172176 0.00000000 0.00000000
0.46256736 0.00000000 0.00000000
0.53259942 0.00000000 0.00000000
0.59820407 0.00000000 0.00000000
0.65927548 0.00000000 0.00000000
0.71568859 0.00000000 0.00000000
0.76730457 0.00000000 0.00000000
0.81397465 0.00000000 0.00000000
0.85554286 0.00000000 0.00000000
0.89184812 0.00000000 0.00000000
0.92272563 0.00000000 0.00000000
0.94800792 0.00000000 0.00000000
0.96752561 0.00000000 0.00000000
0.98110799 0.00000000 0.00000000
0.98858335 0.00000000 0.00000000
0.99051572 0.00000000 0.00000000
0.99159046 0.00000000 0.00000000
0.99266516 0.00000000 0.00000000
0.99373983 0.00000000 0.00000000
0.99481447 0.00000000 0.00000000
0.99588910 0.00000000 0.00000000
0.99696371 0.00000000 0.00000000
0.00000000 0.00000000 0.00000000
0.00000000 0.00000000 0.00000000
0.00000000 0.00000000 0.00000000
0.00000000 0.00000000 0.00000000
0.04660281 0.00000000 0.00000000
0.09436338 0.00000000 0.00000000
0.13384254 0.00000000 0.00000000
0.17333788 0.00000000 0.00000000
0.21745902 0.00000000 0.00000000
0.26707578 0.00000000 0.00000000
0.32313115 0.00000000 0.00000000
0.38666853 0.00000000 0.00000000
0.45849701 0.00000000 0.00000000
0.52976827 0.00000000 0.00000000
0.59624471 0.00000000 0.00000000
0.65792826 0.00000000 0.00000000
0.71476986 0.00000000 0.00000000
0.76668450 0.00000000 0.00000000
0.81356160 0.00000000 0.00000000
0.85527234 0.00000000 0.00000000
0.89167490 0.00000000 0.00000000
0.92261814 0.00000000 0.00000000
0.94794426 0.00000000 0.00000000
0.96749069 0.00000000 0.00000000
0.98109148 0.00000000 0.00000000
0.98857828 0.00000000 0.00000000
0.99051480 0.00000000 0.00000000
0.99158978 0.00000000 0.00000000
0.99266465 0.00000000 0.00000000
0.99373945 0.00000000 0.00000000
0.99481419 0.00000000 0.00000000
0.99588889 0.00000000 0.00000000
0.99696356 0.00000000 0.00000000
0.00000000 0.00000000 0.00000000
0.00000000 0.00000000 0.00000000
0.00000000 0.00000000 0.00000000
0.00000000 0.00000000 0.00000000
0.02954765 0.00000000 0.00000000
0.07762772 0.00000000 0.00000000
0.12091611 0.00000000 0.00000000
0.16277524 0.00000000 0.00000000
0.20872822 0.00000000 0.00000000
0.25980348 0.00000000 0.00000000
0.31704153 0.00000000 0.00000000
0.38155020 0.00000000 0.00000000
0.45434316 0.00000000 0.00000000
0.52689369 0.00000000 0.00000000
0.59426277 0.00000000 0.00000000
0.65656932 0.00000000 0.00000000
0.71384507 0.00000000 0.00000000
0.76606131 0.00000000 0.00000000
0.81314695 0.00000000 0.00000000
0.85500101 0.00000000 0.00000000
0.89150128 0.00000000 0.00000000
0.92251046 0.00000000 0.00000000
0.94788050 0.00000000 0.00000000
0.96745571 0.00000000 0.00000000
0.98107495 0.00000000 0.00000000
0.98857320 0.00000000 0.00000000
0.99051387 0.00000000 0.00000000
0.99158909 0.00000000 0.00000000
0.99266414 0.00000000 0.00000000
0.99373907 0.00000000 0.00000000
0.99481391 0.00000000 0.00000000
0.99588868 0.00000000 0.00000000
0.99696340 0.00000000 0.00000000
0.00000000 0.03414679 0.00000000
0.00000000 0.02940096 0.00000000
0.00000000 0.02465514 0.00000000
0.00000000 0.01990932 0.00000000
0.01249249 0.01516349 0.00000000
0.06057256 0.01041767 0.00000000
0.10698675 0.00564057 0.00000000
0.15166408 0.00000000 0.00000000
0.19968362 0.00000000 0.00000000
0.25234640 0.00000000 0.00000000
0.31084097 0.00000000 0.00000000
0.37636436 0.00000000 0.00000000
0.45010268 0.00000000 0.00000000
0.52397448 0.00000000 0.00000000
0.59225778 0.00000000 0.00000000
0.65519848 0.00000000 0.00000000
0.71291414 0.00000000 0.00000000
0.76543496 0.00000000 0.00000000
0.81273069 0.00000000 0.00000000
0.85472886 0.00000000 0.00000000
0.89132724 0.00000000 0.00000000
0.92240257 0.00000000 0.00000000
0.94781664 0.00000000 0.00000000
0.96742069 0.00000000 0.00000000
0.98105839 0.00000000 0.00000000
0.98856811 0.00000000 0.00000000
0.99051295 0.00000000 0.00000000
0.99158840 0.00000000 0.00000000
0.99266363 0.00000000 0.00000000
0.99373869 0.00000000 0.00000000
0.99481363 0.00000000 0.00000000
0.99588847 0.00000000 0.00000000
0.99696325 0.00000000 0.00000000
0.00000000 0.07058527 0.00000000
0.00000000 0.06583945 0.00000000
0.00000000 0.06109362 0.00000000
0.00000000 0.05634780 0.00000000
0.00000000 0.05160197 0.00000000
0.04351739 0.04685615 0.00000000
0.09179830 0.04207905 0.00000000
0.13991562 0.03619702 0.00000000
0.19029120 0.02827349 0.00000000
0.24469068 0.01759989 0.00000000
0.30452358 0.00322174 0.00000000
0.37110844 0.00000000 0.00000000
0.44577226 0.00000000 0.00000000
0.52100940 0.00000000 0.00000000
0.59022928 0.00000000 0.00000000
0.65381555 0.00000000 0.00000000
0.71197700 0.00000000 0.00000000
0.76480543 0.00000000 0.00000000
0.81231281 0.00000000 0.00000000
0.85445589 0.00000000 0.00000000
0.89115279 0.00000000 0.00000000
0.92229447 0.00000000 0.00000000
0.94775269 0.00000000 0.00000000
0.96738562 0.00000000 0.00000000
0.98104181 0.00000000 0.00000000
0.98856301 0.00000000 0.00000000
0.99051202 0.00000000 0.00000000
0.99158771 0.00000000 0.00000000
0.99266312 0.00000000 0.00000000
0.99373831 0.00000000 0.00000000
0.99481335 0.00000000 0.00000000
0.99588827 0.00000000 0.00000000
0.99696310 0.00000000 0.00000000
0.00000000 0.10552960 0.00000000
0.00000000 0.10140671 0.00000000
0.00000000 0.09717745 0.00000000
0.00000000 0.09283370 0.00000000
0.00000000 0.08836628 0.00000000
0.02634983 0.08376471 0.00000000
0.07474676 0.07875767 0.00000000
0.12732948 0.07287565 0.00000000
0.18044456 0.06495212 0.00000000
0.23676801 0.05427851 0.00000000
0.29804007 0.03990036 0.00000000
0.36574433 0.02053190 0.00000000
0.44131962 0.00000000 0.00000000
0.51797714 0.00000000 0.00000000
0.58816316 0.00000000 0.00000000
0.65241112 0.00000000 0.00000000
0.71102735 0.00000000 0.00000000
0.76416851 0.00000000 0.00000000
0.81189052 0.00000000 0.00000000
0.85418028 0.00000000 0.00000000
0.89097677 0.00000000 0.00000000
0.92218545 0.00000000 0.00000000
0.94768821 0.00000000 0.00000000
0.96735026 0.00000000 0.00000000
0.98102510 0.00000000 0.00000000
0.98855787 0.00000000 0.00000000
0.99051109 0.00000000 0.00000000
0.99158702 0.00000000 0.00000000
0.99266261 0.00000000 0.00000000
0.99373793 0.00000000 0.00000000
0.99481307 0.00000000 0.00000000
0.99588806 0.00000000 0.00000000
0.99696294 0.00000000 0.00000000
0.00000000 0.14056800 0.00000000
0.00000000 0.13718223 0.00000000
0.00000000 0.13373608 0.00000000
0.00000000 0.13022640 0.00000000
0.00000000 0.12664979 0.00000000
0.00521148 0.12300250 0.00000000
0.05360841 0.11925568 0.00000000
0.11054719 0.11453138 0.00000000
0.16770497 0.10795781 0.00000000
0.22668741 0.09867695 0.00000000
0.28987472 0.08526144 0.00000000
0.35903374 0.06569414 0.00000000
0.43575188 0.03960335 0.00000000
0.51417582 0.00445707 0.00000000
0.58558497 0.00000000 0.00000000
0.65066449 0.00000000 0.00000000
0.70984920 0.00000000 0.00000000
0.76337977 0.00000000 0.00000000
0.81136828 0.00000000 0.00000000
0.85383977 0.00000000 0.00000000
0.89075946 0.00000000 0.00000000
0.92205093 0.00000000 0.00000000
0.94760867 0.00000000 0.00000000
0.96730667 0.00000000 0.00000000
0.98100449 0.00000000 0.00000000
0.98855152 0.00000000 0.00000000
0.99050994 0.00000000 0.00000000
0.99158617 0.00000000 0.00000000
0.99266197 0.00000000 0.00000000
0.99373746 0.00000000 0.00000000
0.99481272 0.00000000 0.00000000
0.99588780 0.00000000 0.00000000
0.99696275 0.00000000 0.00000000
0.00000000 0.17965326 0.00000000
0.00000000 0.17684555 0.00000000
0.00000000 0.17400246 0.00000000
0.00000000 0.17112272 0.00000000
0.00000000 0.16820495 0.00000000
0.00000000 0.16524772 0.00000000
0.02513345 0.16222957 0.00000000
0.08493140 0.15845376 0.00000000
0.14926607 0.15325783 0.00000000
0.21247275 0.14604451 0.00000000
0.27853227 0.13589640 0.00000000
0.34979945 0.12131336 0.00000000
0.42813778 0.09956865 0.00000000
0.50893251 0.06529403 0.00000000
0.58205067 0.01794933 0.00000000
0.64828073 0.00000000 0.00000000
0.70824649 0.00000000 0.00000000
0.76230933 0.00000000 0.00000000
0.81066075 0.00000000 0.00000000
0.85337905 0.00000000 0.00000000
0.89046570 0.00000000 0.00000000
0.92186922 0.00000000 0.00000000
0.94750128 0.00000000 0.00000000
0.96724782 0.00000000 0.00000000
0.98097667 0.00000000 0.00000000
0.98854295 0.00000000 0.00000000
0.99050839 0.00000000 0.00000000
0.99158502 0.00000000 0.00000000
0.99266112 0.00000000 0.00000000
0.99373683 0.00000000 0.00000000
0.99481225 0.00000000 0.00000000
0.99588745 0.00000000 0.00000000
0.99696249 0.00000000 0.00000000
0.00000000 0.22356290 0.00000000
0.00000000 0.22121904 0.00000000
0.00000000 0.21885402 0.00000000
0.00000000 0.21646730 0.00000000
0.00000000 0.21405830 0.00000000
0.00000000 0.21162642 0.00000000
0.00000000 0.20915479 0.00000000
0.04636646 0.20607780 0.00000000
0.12139866 0.20187188 0.00000000
0.19196784 0.19608994 0.00000000
0.26256037 0.18807507 0.00000000
0.33698022 0.17682521 0.00000000
0.41766337 0.16071977 0.00000000
0.50163523 0.13686945 0.00000000
0.57717431 0.09908845 0.00000000
0.64501200 0.03612442 0.00000000
0.70605851 0.00000000 0.00000000
0.76085274 0.00000000 0.00000000
0.80970027 0.00000000 0.00000000
0.85275471 0.00000000 0.00000000
0.89006814 0.00000000 0.00000000
0.92162352 0.00000000 0.00000000
0.94735617 0.00000000 0.00000000
0.96716834 0.00000000 0.00000000
0.98093910 0.00000000 0.00000000
0.98853135 0.00000000 0.00000000
0.99050630 0.00000000 0.00000000
0.99158347 0.00000000 0.00000000
0.99265997 0.00000000 0.00000000
0.99373598 0.00000000 0.00000000
0.99481162 0.00000000 0.00000000
0.99588698 0.00000000 0.00000000
0.99696214 0.00000000 0.00000000
0.00000000 0.27313566 0.00000000
0.00000000 0.27116995 0.00000000
0.00000000 0.26919139 0.00000000
0.00000000 0.26719976 0.00000000
0.00000000 0.26519480 0.00000000
0.00000000 0.26317625 0.00000000
0.00000000 0.26113043 0.00000000
0.00000000 0.25859173 0.00000000
0.07496893 0.25513667 0.00000000
0.16117497 0.25041627 0.00000000
0.23957344 0.24393154 0.00000000
0.31894633 0.23495161 0.00000000
0.40312913 0.22236677 0.00000000
0.49134947 0.20439560 0.00000000
0.57038522 0.17790250 0.00000000
0.64050027 0.13634538 0.00000000
0.70305707 0.06060766 0.00000000
0.75886350 0.00000000 0.00000000
0.80839283 0.00000000 0.00000000
0.85190687 0.00000000 0.00000000
0.88952920 0.00000000 0.00000000
0.92129086 0.00000000 0.00000000
0.94715988 0.00000000 0.00000000
0.96706087 0.00000000 0.00000000
0.98088831 0.00000000 0.00000000
0.98851565 0.00000000 0.00000000
0.99050349 0.00000000 0.00000000
0.99158139 0.00000000 0.00000000
0.99265843 0.00000000 0.00000000
0.99373483 0.00000000 0.00000000
0.99481076 0.00000000 0.00000000
0.99588635 0.00000000 0.00000000
0.99696167 0.00000000 0.00000000
0.00000000 0.32929695 0.00000000
0.00000000 0.32764296 0.00000000
0.00000000 0.32598110 0.00000000
0.00000000 0.32431125 0.00000000
0.00000000 0.32263332 0.00000000
0.00000000 0.32094718 0.00000000
0.00000000 0.31924153 0.00000000
0.00000000 0.31712963 0.00000000
0.00536410 0.31426385 0.00000000
0.11079631 0.31036459 0.00000000
0.20520106 0.30503910 0.00000000
0.29303345 0.29772665 0.00000000
0.38269680 0.28760770 0.00000000
0.47658110 0.27344192 0.00000000
0.56081108 0.25324838 0.00000000
0.63421550 0.22357084 0.00000000
0.69891211 0.17732225 0.00000000
0.75613331 0.09335437 0.00000000
0.80660643 0.00000000 0.00000000
0.85075221 0.00000000 0.00000000
0.88879697 0.00000000 0.00000000
0.92083968 0.00000000 0.00000000
0.94689397 0.00000000 0.00000000
0.96691540 0.00000000 0.00000000
0.98081955 0.00000000 0.00000000
0.98849434 0.00000000 0.00000000
0.99049970 0.00000000 0.00000000
0.99157857 0.00000000 0.00000000
0.99265634 0.00000000 0.00000000
0.99373328 0.00000000 0.00000000
0.99480961 0.00000000 0.00000000
0.99588549 0.00000000 0.00000000
0.99696104 0.00000000 0.00000000
0.00000000 0.39308130 0.00000000
0.00000000 0.39168631 0.00000000
0.00000000 0.39028646 0.00000000
0.00000000 0.38888170 0.00000000
0.00000000 0.38747197 0.00000000
0.00000000 0.38605724 0.00000000
0.00000000 0.38462807 0.00000000
0.00000000 0.38286122 0.00000000
0.00000000 0.38046854 0.00000000
0.01973564 0.37722216 0.00000000
0.14953886 0.37280581 0.00000000
0.25440081 0.36677554 0.00000000
0.35337114 0.35849819 0.00000000
0.45478064 0.34704978 0.00000000
0.54705557 0.33103512 0.00000000
0.62534622 0.30823399 0.00000000
0.69313414 0.27479642 0.00000000
0.75236038 0.22292228 0.00000000
0.80415303 0.13009752 0.00000000
0.84917354 0.00000000 0.00000000
0.88779913 0.00000000 0.00000000
0.92022628 0.00000000 0.00000000
0.94653304 0.00000000 0.00000000
0.96671812 0.00000000 0.00000000
0.98072632 0.00000000 0.00000000
0.98846537 0.00000000 0.00000000
0.99049458 0.00000000 0.00000000
0.99157478 0.00000000 0.00000000
0.99265353 0.00000000 0.00000000
0.99373120 0.00000000 0.00000000
0.99480807 0.00000000 0.00000000
0.99588435 0.00000000 0.00000000
0.99696019 0.00000000 0.00000000
0.00000000 0.46495188 0.00000000
0.00000000 0.46384073 0.00000000
0.00000000 0.46272341 0.00000000
0.00000000 0.46159986 0.00000000
0.00000000 0.46047003 0.00000000
0.00000000 0.45933384 0.00000000
0.00000000 0.45818369 0.00000000
0.00000000 0.45675848 0.00000000
0.00000000 0.45482264 0.00000000
0.00000000 0.45218544 0.00000000
0.03909519 0.44857811 0.00000000
0.19227053 0.44361597 0.00000000
0.30974212 0.43677285 0.00000000
0.42171427 0.42737769 0.00000000
0.52673338 0.41438794 0.00000000
0.61259118 0.39622712 0.00000000
0.68497227 0.37039304 0.00000000
0.74709619 0.33256575 0.00000000
0.80075962 0.27406681 0.00000000
0.84700360 0.17041176 0.00000000
0.88643369 0.00000000 0.00000000
0.91938959 0.00000000 0.00000000
0.94604181 0.00000000 0.00000000
0.96644999 0.00000000 0.00000000
0.98059963 0.00000000 0.00000000
0.98842584 0.00000000 0.00000000
0.99048768 0.00000000 0.00000000
0.99156967 0.00000000 0.00000000
0.99264974 0.00000000 0.00000000
0.99372838 0.00000000 0.00000000
0.99480598 0.00000000 0.00000000
0.99588280 0.00000000 0.00000000
0.99695904 0.00000000 0.00000000
0.00000000 0.53547632 0.00000000
0.00000000 0.53470482 0.00000000
0.00000000 0.53393012 0.00000000
0.00000000 0.53315218 0.00000000
0.00000000 0.53237099 0.00000000
0.00000000 0.53158651 0.00000000
0.00000000 0.53079353 0.00000000
0.00000000 0.52981250 0.00000000
0.00000000 0.52848281 0.00000000
0.00000000 0.52667659 0.00000000
0.00000000 0.52421574 0.00000000
0.06517398 0.52084922 0.00000000
0.23991226 0.51621759 0.00000000
0.37227553 0.50979491 0.00000000
0.49536201 0.50078868 0.00000000
0.59372289 0.48795519 0.00000000
0.67321934 0.46922792 0.00000000
0.73965079 0.44087973 0.00000000
0.79601930 0.39796234 0.00000000
0.84399875 0.33174125 0.00000000
0.88455464 0.21520351 0.00000000
0.91824327 0.00000000 0.00000000
0.94537083 0.00000000 0.00000000
0.96608441 0.00000000 0.00000000
0.98042692 0.00000000 0.00000000
0.98837169 0.00000000 0.00000000
0.99047836 0.00000000 0.00000000
0.99156277 0.00000000 0.00000000
0.99264462 0.00000000 0.00000000
0.99372459 0.00000000 0.00000000
0.99480317 0.00000000 0.00000000
0.99588071 0.00000000 0.00000000
0.99695749 0.00000000 0.00000000
0.00000000 0.60133117 0.00000000
0.00000000 0.60079804 0.00000000
0.00000000 0.60026324 0.00000000
0.00000000 0.59972676 0.00000000
0.00000000 0.59918860 0.00000000
0.00000000 0.59864874 0.00000000
0.00000000 0.59810359 0.00000000
0.00000000 0.59742997 0.00000000
0.00000000 0.59651836 0.00000000
0.00000000 0.59528265 0.00000000
0.00000000 0.59360391 0.00000000
0.00000000 0.59131641 0.00000000
0.09944742 0.58818644 0.00000000
0.29341499 0.58387910 0.00000000
0.44316262 0.57790401 0.00000000
0.56454664 0.56952149 0.00000000
0.65580290 0.55756930 0.00000000
0.72891144 0.54011382 0.00000000
0.78930405 0.51366159 0.00000000
0.83979469 0.47105846 0.00000000
0.88194856 0.39702762 0.00000000
0.91666316 0.26538754 0.00000000
0.94444982 0.00000000 0.00000000
0.96558385 0.00000000 0.00000000
0.98019053 0.00000000 0.00000000
0.98829707 0.00000000 0.00000000
0.99046577 0.00000000 0.00000000
0.99155345 0.00000000 0.00000000
0.99263772 0.00000000 0.00000000
0.99371948 0.00000000 0.00000000
0.99479938 0.00000000 0.00000000
0.99587790 0.00000000 0.00000000
0.99695540 0.00000000 0.00000000
0.00000000 0.66247776 0.00000000
0.00000000 0.66211168 0.00000000
0.00000000 0.66174473 0.00000000
0.00000000 0.66137691 0.00000000
0.00000000 0.66100822 0.00000000
0.00000000 0.66063865 0.00000000
0.00000000 0.66026575 0.00000000
0.00000000 0.65980538 0.00000000
0.00000000 0.65918305 0.00000000
0.00000000 0.65834079 0.00000000
0.00000000 0.65719897 0.00000000
0.00000000 0.65564754 0.00000000
0.00000000 0.65353309 0.00000000
0.13714388 0.65063911 0.00000000
0.35380261 0.64665508 0.00000000
0.51589603 0.64112575 0.00000000
0.62880763 0.63336343 0.00000000
0.71296039 0.62228561 0.00000000
0.77959670 0.60608761 0.00000000
0.83382653 0.58150151 0.00000000
0.87829470 0.54182074 0.00000000
0.91446680 0.47007350 0.00000000
0.94317707 0.32193649 0.00000000
0.96489454 0.00000000 0.00000000
0.97986520 0.00000000 0.00000000
0.98819348 0.00000000 0.00000000
0.99044874 0.00000000 0.00000000
0.99154086 0.00000000 0.00000000
0.99262841 0.00000000 0.00000000
0.99371258 0.00000000 0.00000000
0.99479426 0.00000000 0.00000000
0.99587411 0.00000000 0.00000000
0.99695259 0.00000000 0.00000000
0.00000000 0.71883858 0.00000000
0.00000000 0.71858925 0.00000000
0.00000000 0.71833947 0.00000000
0.00000000 0.71808923 0.00000000
0.00000000 0.71783855 0.00000000
0.00000000 0.71758741 0.00000000
0.00000000 0.71733416 0.00000000
0.00000000 0.71702170 0.00000000
0.00000000 0.71659968 0.00000000
0.00000000 0.71602916 0.00000000
0.00000000 0.71525693 0.00000000
0.00000000 0.71420989 0.00000000
0.00000000 0.71278697 0.00000000
0.00000000 0.71084715 0.00000000
0.17854015 0.70819123 0.00000000
0.42220366 0.70453317 0.00000000
0.58365015 0.69945292 0.00000000
0.68815866 0.69231474 0.00000000
0.76513554 0.68211550 0.00000000
0.82517450 0.66717799 0.00000000
0.87309290 0.64445525 0.00000000
0.91137825 0.60767253 0.00000000
0.94140200 0.54090231 0.00000000
0.96393788 0.38591481 0.00000000
0.97941413 0.00000000 0.00000000
0.98804826 0.00000000 0.00000000
0.99042567 0.00000000 0.00000000
0.99152383 0.00000000 0.00000000
0.99261582 0.00000000 0.00000000
0.99370326 0.00000000 0.00000000
0.99478737 0.00000000 0.00000000
0.99586900 0.00000000 0.00000000
0.99694880 0.00000000 0.00000000
0.00000000 0.77030855 0.00000000
0.00000000 0.77014048 0.00000000
0.00000000 0.76997218 0.00000000
0.00000000 0.76980365 0.00000000
0.00000000 0.76963489 0.00000000
0.00000000 0.76946589 0.00000000
0.00000000 0.76929555 0.00000000
0.00000000 0.76908547 0.00000000
0.00000000 0.76880192 0.00000000
0.00000000 0.76841892 0.00000000
0.00000000 0.76790110 0.00000000
0.00000000 0.76720009 0.00000000
0.00000000 0.76624944 0.00000000
0.00000000 0.76495719 0.00000000
0.00000000 0.76319491 0.00000000
0.22456028 0.76078094 0.00000000
0.49584379 0.75745406 0.00000000
0.64649143 0.75282986 0.00000000
0.74255874 0.74632505 0.00000000
0.81223552 0.73701640 0.00000000
0.86552305 0.72335451 0.00000000
0.90696375 0.70251245 0.00000000
0.93889468 0.66864078 0.00000000
0.96259606 0.60681977 0.00000000
0.97878250 0.45816213 0.00000000
0.98784209 0.00000000 0.00000000
0.99039436 0.00000000 0.00000000
0.99150077 0.00000000 0.00000000
0.99259879 0.00000000 0.00000000
0.99369068 0.00000000 0.00000000
0.99477805 0.00000000 0.00000000
0.99586210 0.00000000 0.00000000
0.99694369 0.00000000 0.00000000
0.00000000 0.81676288 0.00000000
0.00000000 0.81665108 0.00000000
0.00000000 0.81653916 0.00000000
0.00000000 0.81642712 0.00000000
0.00000000 0.81631496 0.00000000
0.00000000 0.81620269 0.00000000
0.00000000 0.81608955 0.00000000
0.00000000 0.81595008 0.00000000
0.00000000 0.81576192 0.00000000
0.00000000 0.81550791 0.00000000
0.00000000 0.81516479 0.00000000
0.00000000 0.81470081 0.00000000
0.00000000 0.81407259 0.00000000
0.00000000 0.81322044 0.00000000
0.00000000 0.81206171 0.00000000
0.00000000 0.81048080 0.00000000
0.27614048 0.80831399 0.00000000
0.56499512 0.80532533 0.00000000
0.70441568 0.80116671 0.00000000
0.79192830 0.79530821 0.00000000
0.85414407 0.78690769 0.00000000
0.90050542 0.77454514 0.00000000
0.93528960 0.75561528 0.00000000
0.96068646 0.72469383 0.00000000
0.97788617 0.66785376 0.00000000
0.98754457 0.52979239 0.00000000
0.99035175 0.00000000 0.00000000
0.99146946 0.00000000 0.00000000
0.99257573 0.00000000 0.00000000
0.99367365 0.00000000 0.00000000
0.99476546 0.00000000 0.00000000
0.99585278 0.00000000 0.00000000
0.99693679 0.00000000 0.00000000
0.00000000 0.85806269 0.00000000
0.00000000 0.85798959 0.00000000
0.00000000 0.85791642 0.00000000
0.00000000 0.85784320 0.00000000
0.00000000 0.85776991 0.00000000
0.00000000 0.85769657 0.00000000
0.00000000 0.85762268 0.00000000
0.00000000 0.85753162 0.00000000
0.00000000 0.85740880 0.00000000
0.00000000 0.85724309 0.00000000
0.00000000 0.85701937 0.00000000
0.00000000 0.85671712 0.00000000
0.00000000 0.85630835 0.00000000
0.00000000 0.85575474 0.00000000
0.00000000 0.85500356 0.00000000
0.00000000 0.85398167 0.00000000
0.00000000 0.85258666 0.00000000
0.33427828 0.85067313 0.00000000
0.62922311 0.84803102 0.00000000
0.75736934 0.84434935 0.00000000
0.83616053 0.83915274 0.00000000
0.89072822 0.83168183 0.00000000
0.92997391 0.82064841 0.00000000
0.95791378 0.80367231 0.00000000
0.97659122 0.77575876 0.00000000
0.98710619 0.72397328 0.00000000
0.99029353 0.59649967 0.00000000
0.99142685 0.00000000 0.00000000
0.99254442 0.00000000 0.00000000
0.99365059 0.00000000 0.00000000
0.99474844 0.00000000 0.00000000
0.99584020 0.00000000 0.00000000
0.99692748 0.00000000 0.00000000
0.00000000 0.89405903 0.00000000
0.00000000 0.89401231 0.00000000
0.00000000 0.89396557 0.00000000
0.00000000 0.89391879 0.00000000
0.00000000 0.89387199 0.00000000
0.00000000 0.89382515 0.00000000
0.00000000 0.89377798 0.00000000
0.00000000 0.89371985 0.00000000
0.00000000 0.89364147 0.00000000
0.00000000 0.89353575 0.00000000
0.00000000 0.89339310 0.00000000
0.00000000 0.89320049 0.00000000
0.00000000 0.89294023 0.00000000
0.00000000 0.89258815 0.00000000
0.00000000 0.89211116 0.00000000
0.00000000 0.89146366 0.00000000
0.00000000 0.89058230 0.00000000
0.00000000 0.88937817 0.00000000
0.40006675 0.88772472 0.00000000
0.68854105 0.88543841 0.00000000
0.80526397 0.88224637 0.00000000
0.87512920 0.87772911 0.00000000
0.92184309 0.87121210 0.00000000
0.95377314 0.86154193 0.00000000
0.97467451 0.84656831 0.00000000
0.98644309 0.82173350 0.00000000
0.99021360 0.77510588 0.00000000
0.99136865 0.65832353 0.00000000
0.99250182 0.00000000 0.00000000
0.99361929 0.00000000 0.00000000
0.99472538 0.00000000 0.00000000
