Z-Log_to_BT709.cube
LUT_3D_SIZE 6
# Z-Log to BT709 SDR 100 nits - Created by Francesco Bucciantini
0.000000 0.000000 0.000000
0.106045 0.000000 0.000000
0.341688 0.000000 0.000000
0.564378 0.000000 0.000000
0.774283 0.000000 0.000000
0.999987 0.000000 0.000000
0.000000 0.106045 0.000000
0.106045 0.106045 0.000000
0.341688 0.170846 0.000000
0.564378 0.188109 0.000000
0.774283 0.193569 0.000000
0.999987 0.199998 0.000000
0.000000 0.341688 0.000000
0.170846 0.341688 0.000000
0.341688 0.341688 0.000000
0.564378 0.376245 0.000000
0.774283 0.387141 0.000000
0.999987 0.399984 0.000000
0.000000 0.564378 0.000000
0.188109 0.564378 0.000000
0.376245 0.564378 0.000000
0.564378 0.564378 0.000000
0.774283 0.580760 0.000000
0.999987 0.599997 0.000000
0.000000 0.774283 0.000000
0.193569 0.774283 0.000000
0.387141 0.774283 0.000000
0.580760 0.774283 0.000000
0.774283 0.774283 0.000000
0.999987 0.799954 0.000000
0.000000 0.999987 0.000000
0.199998 0.999987 0.000000
0.399984 0.999987 0.000000
0.599997 0.999987 0.000000
0.799954 0.999987 0.000000
0.999987 0.999987 0.000000
0.000000 0.000000 0.106045
0.106045 0.000000 0.106045
0.341688 0.000000 0.170846
0.564378 0.000000 0.188109
0.774283 0.000000 0.193569
0.999987 0.000000 0.199998
0.000000 0.106045 0.106045
0.106045 0.106045 0.106045
0.341688 0.106045 0.106045
0.564378 0.106045 0.106045
0.774283 0.106045 0.106045
0.999987 0.106045 0.106045
0.000000 0.341688 0.170846
0.106045 0.341688 0.106045
0.341688 0.341688 0.106045
0.564378 0.358446 0.106045
0.774283 0.363185 0.106045
0.999987 0.372249 0.106045
0.000000 0.564378 0.188109
0.106045 0.564378 0.106045
0.358446 0.564378 0.106045
0.564378 0.564378 0.106045
0.774283 0.572178 0.106045
0.999987 0.587101 0.106045
0.000000 0.774283 0.193569
0.106045 0.774283 0.106045
0.363185 0.774283 0.106045
0.572178 0.774283 0.106045
0.774283 0.774283 0.106045
0.999987 0.794752 0.106045
0.000000 0.999987 0.199998
0.106045 0.999987 0.106045
0.372249 0.999987 0.106045
0.587101 0.999987 0.106045
0.794752 0.999987 0.106045
0.999987 0.999987 0.106045
0.000000 0.000000 0.341688
0.170846 0.000000 0.341688
0.341688 0.000000 0.341688
0.564378 0.000000 0.376245
0.774283 0.000000 0.387141
0.999987 0.000000 0.399984
0.000000 0.170846 0.341688
0.106045 0.106045 0.341688
0.341688 0.106045 0.341688
0.564378 0.106045 0.358446
0.774283 0.106045 0.363185
0.999987 0.106045 0.372249
0.000000 0.341688 0.341688
0.106045 0.341688 0.341688
0.341688 0.341688 0.341688
0.564378 0.341688 0.341688
0.774283 0.341688 0.341688
0.999987 0.341688 0.341688
0.000000 0.564378 0.376245
0.106045 0.564378 0.358446
0.341688 0.564378 0.341688
0.564378 0.564378 0.341688
0.774283 0.564913 0.341688
0.999987 0.573837 0.341688
0.000000 0.774283 0.387141
0.106045 0.774283 0.363185
0.341688 0.774283 0.341688
0.564913 0.774283 0.341688
0.774283 0.774283 0.341688
0.999987 0.789493 0.341688
0.000000 0.999987 0.399984
0.106045 0.999987 0.372249
0.341688 0.999987 0.341688
0.573837 0.999987 0.341688
0.789493 0.999987 0.341688
0.999987 0.999987 0.341688
0.000000 0.000000 0.564378
0.188109 0.000000 0.564378
0.376245 0.000000 0.564378
0.564378 0.000000 0.564378
0.774283 0.000000 0.580760
0.999987 0.000000 0.599997
0.000000 0.188109 0.564378
0.106045 0.106045 0.564378
0.358446 0.106045 0.564378
0.564378 0.106045 0.564378
0.774283 0.106045 0.572178
0.999987 0.106045 0.587101
0.000000 0.376245 0.564378
0.106045 0.358446 0.564378
0.341688 0.341688 0.564378
0.564378 0.341688 0.564378
0.774283 0.341688 0.564913
0.999987 0.341688 0.573837
0.000000 0.564378 0.564378
0.106045 0.564378 0.564378
0.341688 0.564378 0.564378
0.564378 0.564378 0.564378
0.774283 0.564378 0.564378
0.999987 0.564378 0.564378
0.000000 0.774283 0.580760
0.106045 0.774283 0.572178
0.341688 0.774283 0.564913
0.564378 0.774283 0.564378
0.774283 0.774283 0.564378
0.999987 0.785750 0.564378
0.000000 0.999987 0.599997
0.106045 0.999987 0.587101
0.341688 0.999987 0.573837
0.564378 0.999987 0.564378
0.785750 0.999987 0.564378
0.999987 0.999987 0.564378
0.000000 0.000000 0.774283
0.193569 0.000000 0.774283
0.387141 0.000000 0.774283
0.580760 0.000000 0.774283
0.774283 0.000000 0.774283
0.999987 0.000000 0.799954
0.000000 0.193569 0.774283
0.106045 0.106045 0.774283
0.363185 0.106045 0.774283
0.572178 0.106045 0.774283
0.774283 0.106045 0.774283
0.999987 0.106045 0.794752
0.000000 0.387141 0.774283
0.106045 0.363185 0.774283
0.341688 0.341688 0.774283
0.564913 0.341688 0.774283
0.774283 0.341688 0.774283
0.999987 0.341688 0.789493
0.000000 0.580760 0.774283
0.106045 0.572178 0.774283
0.341688 0.564913 0.774283
0.564378 0.564378 0.774283
0.774283 0.564378 0.774283
0.999987 0.564378 0.785750
0.000000 0.774283 0.774283
0.106045 0.774283 0.774283
0.341688 0.774283 0.774283
0.564378 0.774283 0.774283
0.774283 0.774283 0.774283
0.999987 0.774283 0.774283
0.000000 0.999987 0.799954
0.106045 0.999987 0.794752
0.341688 0.999987 0.789493
0.564378 0.999987 0.785750
0.774283 0.999987 0.774283
0.999987 0.999987 0.774283
0.000000 0.000000 0.999987
0.199998 0.000000 0.999987
0.399984 0.000000 0.999987
0.599997 0.000000 0.999987
0.799954 0.000000 0.999987
0.999987 0.000000 0.999987
0.000000 0.199998 0.999987
0.106045 0.106045 0.999987
0.372249 0.106045 0.999987
0.587101 0.106045 0.999987
0.794752 0.106045 0.999987
0.999987 0.106045 0.999987
0.000000 0.399984 0.999987
0.106045 0.372249 0.999987
0.341688 0.341688 0.999987
0.573837 0.341688 0.999987
0.789493 0.341688 0.999987
0.999987 0.341688 0.999987
0.000000 0.599997 0.999987
0.106045 0.587101 0.999987
0.341688 0.573837 0.999987
0.564378 0.564378 0.999987
0.785750 0.564378 0.999987
0.999987 0.564378 0.999987
0.000000 0.799954 0.999987
0.106045 0.794752 0.999987
0.341688 0.789493 0.999987
0.564378 0.785750 0.999987
0.774283 0.774283 0.999987
0.999987 0.774283 0.999987
0.000000 0.999987 0.999987
0.106045 0.999987 0.999987
0.341688 0.999987 0.999987
0.564378 0.999987 0.999987
0.774283 0.999987 0.999987
0.999987 0.999987 0.999987
