Z-Log_to_BT709.cube
LUT_3D_SIZE 16
# Z-Log to BT709 SDR 100 nits - Created by Francesco Bucciantini
0.000000 0.000000 0.000000
0.009703 0.000000 0.000000
0.044375 0.000000 0.000000
0.106045 0.000000 0.000000
0.185680 0.000000 0.000000
0.264441 0.000000 0.000000
0.341688 0.000000 0.000000
0.417388 0.000000 0.000000
0.491630 0.000000 0.000000
0.564378 0.000000 0.000000
0.635720 0.000000 0.000000
0.705660 0.000000 0.000000
0.774283 0.000000 0.000000
0.841729 0.000000 0.000000
0.909146 0.000000 0.000000
0.999987 0.000000 0.000000
0.000000 0.009703 0.000000
0.009703 0.009703 0.000000
0.044375 0.022185 0.000000
0.106045 0.035349 0.000000
0.185680 0.046420 0.000000
0.264441 0.052891 0.000000
0.341688 0.056953 0.000000
0.417388 0.059629 0.000000
0.491630 0.061451 0.000000
0.564378 0.062709 0.000000
0.635720 0.063570 0.000000
0.705660 0.064145 0.000000
0.774283 0.064529 0.000000
0.841729 0.064747 0.000000
0.909146 0.064946 0.000000
0.999987 0.066665 0.000000
0.000000 0.044375 0.000000
0.022185 0.044375 0.000000
0.044375 0.044375 0.000000
0.106045 0.070699 0.000000
0.185680 0.092843 0.000000
0.264441 0.105787 0.000000
0.341688 0.113907 0.000000
0.417388 0.119259 0.000000
0.491630 0.122908 0.000000
0.564378 0.125418 0.000000
0.635720 0.127141 0.000000
0.705660 0.128297 0.000000
0.774283 0.129061 0.000000
0.841729 0.129499 0.000000
0.909146 0.129894 0.000000
0.999987 0.133329 0.000000
0.000000 0.106045 0.000000
0.035349 0.106045 0.000000
0.070699 0.106045 0.000000
0.106045 0.106045 0.000000
0.185680 0.139245 0.000000
0.264441 0.158662 0.000000
0.341688 0.170846 0.000000
0.417388 0.178887 0.000000
0.491630 0.184350 0.000000
0.564378 0.188109 0.000000
0.635720 0.190711 0.000000
0.705660 0.192434 0.000000
0.774283 0.193569 0.000000
0.841729 0.194232 0.000000
0.909146 0.194826 0.000000
0.999987 0.199998 0.000000
0.000000 0.185680 0.000000
0.046420 0.185680 0.000000
0.092843 0.185680 0.000000
0.139245 0.185680 0.000000
0.185680 0.185680 0.000000
0.264441 0.211564 0.000000
0.341688 0.227806 0.000000
0.417388 0.238517 0.000000
0.491630 0.245808 0.000000
0.564378 0.250837 0.000000
0.635720 0.254270 0.000000
0.705660 0.256581 0.000000
0.774283 0.258105 0.000000
0.841729 0.258990 0.000000
0.909146 0.259791 0.000000
0.999987 0.266662 0.000000
0.000000 0.264441 0.000000
0.052891 0.264441 0.000000
0.105787 0.264441 0.000000
0.158662 0.264441 0.000000
0.211564 0.264441 0.000000
0.264441 0.264441 0.000000
0.341688 0.284754 0.000000
0.417388 0.298133 0.000000
0.491630 0.307256 0.000000
0.564378 0.313541 0.000000
0.635720 0.317825 0.000000
0.705660 0.320717 0.000000
0.774283 0.322624 0.000000
0.841729 0.323714 0.000000
0.909146 0.324710 0.000000
0.999987 0.333305 0.000000
0.000000 0.341688 0.000000
0.056953 0.341688 0.000000
0.113907 0.341688 0.000000
0.170846 0.341688 0.000000
0.227806 0.341688 0.000000
0.284754 0.341688 0.000000
0.341688 0.341688 0.000000
0.417388 0.357772 0.000000
0.491630 0.368708 0.000000
0.564378 0.376245 0.000000
0.635720 0.381405 0.000000
0.705660 0.384897 0.000000
0.774283 0.387141 0.000000
0.841729 0.388463 0.000000
0.909146 0.389644 0.000000
0.999987 0.399984 0.000000
0.000000 0.417388 0.000000
0.059629 0.417388 0.000000
0.119259 0.417388 0.000000
0.178887 0.417388 0.000000
0.238517 0.417388 0.000000
0.298133 0.417388 0.000000
0.357772 0.417388 0.000000
0.417388 0.417388 0.000000
0.491630 0.430149 0.000000
0.564378 0.438940 0.000000
0.635720 0.444946 0.000000
0.705660 0.448994 0.000000
0.774283 0.451679 0.000000
0.841729 0.453203 0.000000
0.909146 0.454585 0.000000
0.999987 0.466623 0.000000
0.000000 0.491630 0.000000
0.061451 0.491630 0.000000
0.122908 0.491630 0.000000
0.184350 0.491630 0.000000
0.245808 0.491630 0.000000
0.307256 0.491630 0.000000
0.368708 0.491630 0.000000
0.430149 0.491630 0.000000
0.491630 0.491630 0.000000
0.564378 0.501680 0.000000
0.635720 0.508566 0.000000
0.705660 0.513174 0.000000
0.774283 0.516224 0.000000
0.841729 0.517997 0.000000
0.909146 0.519581 0.000000
0.999987 0.533313 0.000000
0.000000 0.564378 0.000000
0.062709 0.564378 0.000000
0.125418 0.564378 0.000000
0.188109 0.564378 0.000000
0.250837 0.564378 0.000000
0.313541 0.564378 0.000000
0.376245 0.564378 0.000000
0.438940 0.564378 0.000000
0.501680 0.564378 0.000000
0.564378 0.564378 0.000000
0.635720 0.572121 0.000000
0.705660 0.577306 0.000000
0.774283 0.580760 0.000000
0.841729 0.582736 0.000000
0.909146 0.584523 0.000000
0.999987 0.599997 0.000000
0.000000 0.635720 0.000000
0.063570 0.635720 0.000000
0.127141 0.635720 0.000000
0.190711 0.635720 0.000000
0.254270 0.635720 0.000000
0.317825 0.635720 0.000000
0.381405 0.635720 0.000000
0.444946 0.635720 0.000000
0.508566 0.635720 0.000000
0.572121 0.635720 0.000000
0.635720 0.635720 0.000000
0.705660 0.641436 0.000000
0.774283 0.645261 0.000000
0.841729 0.647435 0.000000
0.909146 0.649450 0.000000
0.999987 0.666635 0.000000
0.000000 0.705660 0.000000
0.064145 0.705660 0.000000
0.128297 0.705660 0.000000
0.192434 0.705660 0.000000
0.256581 0.705660 0.000000
0.320717 0.705660 0.000000
0.384897 0.705660 0.000000
0.448994 0.705660 0.000000
0.513174 0.705660 0.000000
0.577306 0.705660 0.000000
0.641436 0.705660 0.000000
0.705660 0.705660 0.000000
0.774283 0.709871 0.000000
0.841729 0.712209 0.000000
0.909146 0.714425 0.000000
0.999987 0.733380 0.000000
0.000000 0.774283 0.000000
0.064529 0.774283 0.000000
0.129061 0.774283 0.000000
0.193569 0.774283 0.000000
0.258105 0.774283 0.000000
0.322624 0.774283 0.000000
0.387141 0.774283 0.000000
0.451679 0.774283 0.000000
0.516224 0.774283 0.000000
0.580760 0.774283 0.000000
0.645261 0.774283 0.000000
0.709871 0.774283 0.000000
0.774283 0.774283 0.000000
0.841729 0.776915 0.000000
0.909146 0.779267 0.000000
0.999987 0.799954 0.000000
0.000000 0.841729 0.000000
0.064747 0.841729 0.000000
0.129499 0.841729 0.000000
0.194232 0.841729 0.000000
0.258990 0.841729 0.000000
0.323714 0.841729 0.000000
0.388463 0.841729 0.000000
0.453203 0.841729 0.000000
0.517997 0.841729 0.000000
0.582736 0.841729 0.000000
0.647435 0.841729 0.000000
0.712209 0.841729 0.000000
0.776915 0.841729 0.000000
0.841729 0.841729 0.000000
0.909146 0.844316 0.000000
0.999987 0.866735 0.000000
0.000000 0.909146 0.000000
0.064946 0.909146 0.000000
0.129894 0.909146 0.000000
0.194826 0.909146 0.000000
0.259791 0.909146 0.000000
0.324710 0.909146 0.000000
0.389644 0.909146 0.000000
0.454585 0.909146 0.000000
0.519581 0.909146 0.000000
0.584523 0.909146 0.000000
0.649450 0.909146 0.000000
0.714425 0.909146 0.000000
0.779267 0.909146 0.000000
0.844316 0.909146 0.000000
0.909146 0.909146 0.000000
0.999987 0.933206 0.000000
0.000000 0.999987 0.000000
0.066665 0.999987 0.000000
0.133329 0.999987 0.000000
0.199998 0.999987 0.000000
0.266662 0.999987 0.000000
0.333305 0.999987 0.000000
0.399984 0.999987 0.000000
0.466623 0.999987 0.000000
0.533313 0.999987 0.000000
0.599997 0.999987 0.000000
0.666635 0.999987 0.000000
0.733380 0.999987 0.000000
0.799954 0.999987 0.000000
0.866735 0.999987 0.000000
0.933206 0.999987 0.000000
0.999987 0.999987 0.000000
0.000000 0.000000 0.009703
0.009703 0.000000 0.009703
0.044375 0.000000 0.022185
0.106045 0.000000 0.035349
0.185680 0.000000 0.046420
0.264441 0.000000 0.052891
0.341688 0.000000 0.056953
0.417388 0.000000 0.059629
0.491630 0.000000 0.061451
0.564378 0.000000 0.062709
0.635720 0.000000 0.063570
0.705660 0.000000 0.064145
0.774283 0.000000 0.064529
0.841729 0.000000 0.064747
0.909146 0.000000 0.064946
0.999987 0.000000 0.066665
0.000000 0.009703 0.009703
0.009703 0.009703 0.009703
0.044375 0.009703 0.009703
0.106045 0.009703 0.009703
0.185680 0.009703 0.009703
0.264441 0.009703 0.009703
0.341688 0.009703 0.009703
0.417388 0.009703 0.009703
0.491630 0.009703 0.009703
0.564378 0.009703 0.009703
0.635720 0.009703 0.009703
0.705660 0.009703 0.009703
0.774283 0.009703 0.009703
0.841729 0.009703 0.009703
0.909146 0.009703 0.009703
0.999987 0.009703 0.009703
0.000000 0.044375 0.022185
0.009703 0.044375 0.009703
0.044375 0.044375 0.009703
0.106045 0.066266 0.009703
0.185680 0.085158 0.009703
0.264441 0.096139 0.009703
0.341688 0.103038 0.009703
0.417388 0.107586 0.009703
0.491630 0.110681 0.009703
0.564378 0.112814 0.009703
0.635720 0.114273 0.009703
0.705660 0.115245 0.009703
0.774283 0.115882 0.009703
0.841729 0.116235 0.009703
0.909146 0.116563 0.009703
0.999987 0.119612 0.009703
0.000000 0.106045 0.035349
0.009703 0.106045 0.009703
0.066266 0.106045 0.009703
0.106045 0.106045 0.009703
0.185680 0.136529 0.009703
0.264441 0.154221 0.009703
0.341688 0.165323 0.009703
0.417388 0.172650 0.009703
0.491630 0.177638 0.009703
0.564378 0.181074 0.009703
0.635720 0.183418 0.009703
0.705660 0.184967 0.009703
0.774283 0.186004 0.009703
0.841729 0.186592 0.009703
0.909146 0.187109 0.009703
0.999987 0.191997 0.009703
0.000000 0.185680 0.046420
0.009703 0.185680 0.009703
0.085158 0.185680 0.009703
0.136529 0.185680 0.009703
0.185680 0.185680 0.009703
0.264441 0.209782 0.009703
0.341688 0.224899 0.009703
0.417388 0.234873 0.009703
0.491630 0.241657 0.009703
0.564378 0.246329 0.009703
0.635720 0.249523 0.009703
0.705660 0.251662 0.009703
0.774283 0.253042 0.009703
0.841729 0.253840 0.009703
0.909146 0.254558 0.009703
0.999987 0.261236 0.009703
0.000000 0.264441 0.052891
0.009703 0.264441 0.009703
0.096139 0.264441 0.009703
0.154221 0.264441 0.009703
0.209782 0.264441 0.009703
0.264441 0.264441 0.009703
0.341688 0.283525 0.009703
0.417388 0.296080 0.009703
0.491630 0.304660 0.009703
0.564378 0.310551 0.009703
0.635720 0.314560 0.009703
0.705660 0.317257 0.009703
0.774283 0.319018 0.009703
0.841729 0.320002 0.009703
0.909146 0.320891 0.009703
0.999987 0.329342 0.009703
0.000000 0.341688 0.056953
0.009703 0.341688 0.009703
0.103038 0.341688 0.009703
0.165323 0.341688 0.009703
0.224899 0.341688 0.009703
0.283525 0.341688 0.009703
0.341688 0.341688 0.009703
0.417388 0.356892 0.009703
0.491630 0.367195 0.009703
0.564378 0.374287 0.009703
0.635720 0.379155 0.009703
0.705660 0.382389 0.009703
0.774283 0.384524 0.009703
0.841729 0.385692 0.009703
0.909146 0.386773 0.009703
0.999987 0.396939 0.009703
0.000000 0.417388 0.059629
0.009703 0.417388 0.009703
0.107586 0.417388 0.009703
0.172650 0.417388 0.009703
0.234873 0.417388 0.009703
0.296080 0.417388 0.009703
0.356892 0.417388 0.009703
0.417388 0.417388 0.009703
0.491630 0.429451 0.009703
0.564378 0.437784 0.009703
0.635720 0.443434 0.009703
0.705660 0.447237 0.009703
0.774283 0.449709 0.009703
0.841729 0.451120 0.009703
0.909146 0.452373 0.009703
0.999987 0.464265 0.009703
0.000000 0.491630 0.061451
0.009703 0.491630 0.009703
0.110681 0.491630 0.009703
0.177638 0.491630 0.009703
0.241657 0.491630 0.009703
0.304660 0.491630 0.009703
0.367195 0.491630 0.009703
0.429451 0.491630 0.009703
0.491630 0.491630 0.009703
0.564378 0.501151 0.009703
0.635720 0.507626 0.009703
0.705660 0.511939 0.009703
0.774283 0.514797 0.009703
0.841729 0.516361 0.009703
0.909146 0.517876 0.009703
0.999987 0.531410 0.009703
0.000000 0.564378 0.062709
0.009703 0.564378 0.009703
0.112814 0.564378 0.009703
0.181074 0.564378 0.009703
0.246329 0.564378 0.009703
0.310551 0.564378 0.009703
0.374287 0.564378 0.009703
0.437784 0.564378 0.009703
0.501151 0.564378 0.009703
0.564378 0.564378 0.009703
0.635720 0.571690 0.009703
0.705660 0.576590 0.009703
0.774283 0.579782 0.009703
0.841729 0.581552 0.009703
0.909146 0.583210 0.009703
0.999987 0.598523 0.009703
0.000000 0.635720 0.063570
0.009703 0.635720 0.009703
0.114273 0.635720 0.009703
0.183418 0.635720 0.009703
0.249523 0.635720 0.009703
0.314560 0.635720 0.009703
0.379155 0.635720 0.009703
0.443434 0.635720 0.009703
0.507626 0.635720 0.009703
0.571690 0.635720 0.009703
0.635720 0.635720 0.009703
0.705660 0.641104 0.009703
0.774283 0.644657 0.009703
0.841729 0.646678 0.009703
0.909146 0.648482 0.009703
0.999987 0.665543 0.009703
0.000000 0.705660 0.064145
0.009703 0.705660 0.009703
0.115245 0.705660 0.009703
0.184967 0.705660 0.009703
0.251662 0.705660 0.009703
0.317257 0.705660 0.009703
0.382389 0.705660 0.009703
0.447237 0.705660 0.009703
0.511939 0.705660 0.009703
0.576590 0.705660 0.009703
0.641104 0.705660 0.009703
0.705660 0.705660 0.009703
0.774283 0.709563 0.009703
0.841729 0.711750 0.009703
0.909146 0.713803 0.009703
0.999987 0.732519 0.009703
0.000000 0.774283 0.064529
0.009703 0.774283 0.009703
0.115882 0.774283 0.009703
0.186004 0.774283 0.009703
0.253042 0.774283 0.009703
0.319018 0.774283 0.009703
0.384524 0.774283 0.009703
0.449709 0.774283 0.009703
0.514797 0.774283 0.009703
0.579782 0.774283 0.009703
0.644657 0.774283 0.009703
0.709563 0.774283 0.009703
0.774283 0.774283 0.009703
0.841729 0.776711 0.009703
0.909146 0.778863 0.009703
0.999987 0.799344 0.009703
0.000000 0.841729 0.064747
0.009703 0.841729 0.009703
0.116235 0.841729 0.009703
0.186592 0.841729 0.009703
0.253840 0.841729 0.009703
0.320002 0.841729 0.009703
0.385692 0.841729 0.009703
0.451120 0.841729 0.009703
0.516361 0.841729 0.009703
0.581552 0.841729 0.009703
0.646678 0.841729 0.009703
0.711750 0.841729 0.009703
0.776711 0.841729 0.009703
0.841729 0.841729 0.009703
0.909146 0.844160 0.009703
0.999987 0.866292 0.009703
0.000000 0.909146 0.064946
0.009703 0.909146 0.009703
0.116563 0.909146 0.009703
0.187109 0.909146 0.009703
0.254558 0.909146 0.009703
0.320891 0.909146 0.009703
0.386773 0.909146 0.009703
0.452373 0.909146 0.009703
0.517876 0.909146 0.009703
0.583210 0.909146 0.009703
0.648482 0.909146 0.009703
0.713803 0.909146 0.009703
0.778863 0.909146 0.009703
0.844160 0.909146 0.009703
0.909146 0.909146 0.009703
0.999987 0.933080 0.009703
0.000000 0.999987 0.066665
0.009703 0.999987 0.009703
0.119612 0.999987 0.009703
0.191997 0.999987 0.009703
0.261236 0.999987 0.009703
0.329342 0.999987 0.009703
0.396939 0.999987 0.009703
0.464265 0.999987 0.009703
0.531410 0.999987 0.009703
0.598523 0.999987 0.009703
0.665543 0.999987 0.009703
0.732519 0.999987 0.009703
0.799344 0.999987 0.009703
0.866292 0.999987 0.009703
0.933080 0.999987 0.009703
0.999987 0.999987 0.009703
0.000000 0.000000 0.044375
0.022185 0.000000 0.044375
0.044375 0.000000 0.044375
0.106045 0.000000 0.070699
0.185680 0.000000 0.092843
0.264441 0.000000 0.105787
0.341688 0.000000 0.113907
0.417388 0.000000 0.119259
0.491630 0.000000 0.122908
0.564378 0.000000 0.125418
0.635720 0.000000 0.127141
0.705660 0.000000 0.128297
0.774283 0.000000 0.129061
0.841729 0.000000 0.129499
0.909146 0.000000 0.129894
0.999987 0.000000 0.133329
0.000000 0.022185 0.044375
0.009703 0.009703 0.044375
0.044375 0.009703 0.044375
0.106045 0.009703 0.066266
0.185680 0.009703 0.085158
0.264441 0.009703 0.096139
0.341688 0.009703 0.103038
0.417388 0.009703 0.107586
0.491630 0.009703 0.110681
0.564378 0.009703 0.112814
0.635720 0.009703 0.114273
0.705660 0.009703 0.115245
0.774283 0.009703 0.115882
0.841729 0.009703 0.116235
0.909146 0.009703 0.116563
0.999987 0.009703 0.119612
0.000000 0.044375 0.044375
0.009703 0.044375 0.044375
0.044375 0.044375 0.044375
0.106045 0.044375 0.044375
0.185680 0.044375 0.044375
0.264441 0.044375 0.044375
0.341688 0.044375 0.044375
0.417388 0.044375 0.044375
0.491630 0.044375 0.044375
0.564378 0.044375 0.044375
0.635720 0.044375 0.044375
0.705660 0.044375 0.044375
0.774283 0.044375 0.044375
0.841729 0.044375 0.044375
0.909146 0.044375 0.044375
0.999987 0.044375 0.044375
0.000000 0.106045 0.070699
0.009703 0.106045 0.066266
0.044375 0.106045 0.044375
0.106045 0.106045 0.044375
0.185680 0.126011 0.044375
0.264441 0.137345 0.044375
0.341688 0.144541 0.044375
0.417388 0.149328 0.044375
0.491630 0.152611 0.044375
0.564378 0.154873 0.044375
0.635720 0.156395 0.044375
0.705660 0.157390 0.044375
0.774283 0.158011 0.044375
0.841729 0.158324 0.044375
0.909146 0.158627 0.044375
0.999987 0.162448 0.044375
0.000000 0.185680 0.092843
0.009703 0.185680 0.085158
0.044375 0.185680 0.044375
0.126011 0.185680 0.044375
0.185680 0.185680 0.044375
0.264441 0.203392 0.044375
0.341688 0.214579 0.044375
0.417388 0.222028 0.044375
0.491630 0.227118 0.044375
0.564378 0.230611 0.044375
0.635720 0.232981 0.044375
0.705660 0.234504 0.044375
0.774283 0.235480 0.044375
0.841729 0.235958 0.044375
0.909146 0.236427 0.044375
0.999987 0.242339 0.044375
0.000000 0.264441 0.105787
0.009703 0.264441 0.096139
0.044375 0.264441 0.044375
0.137345 0.264441 0.044375
0.203392 0.264441 0.044375
0.264441 0.264441 0.044375
0.341688 0.279217 0.044375
0.417388 0.289034 0.044375
0.491630 0.295740 0.044375
0.564378 0.300355 0.044375
0.635720 0.303472 0.044375
0.705660 0.305489 0.044375
0.774283 0.306768 0.044375
0.841729 0.307408 0.044375
0.909146 0.308003 0.044375
0.999987 0.315811 0.044375
0.000000 0.341688 0.113907
0.009703 0.341688 0.103038
0.044375 0.341688 0.044375
0.144541 0.341688 0.044375
0.214579 0.341688 0.044375
0.279217 0.341688 0.044375
0.341688 0.341688 0.044375
0.417388 0.353829 0.044375
0.491630 0.362043 0.044375
0.564378 0.367748 0.044375
0.635720 0.371549 0.044375
0.705660 0.374035 0.044375
0.774283 0.375655 0.044375
0.841729 0.376378 0.044375
0.909146 0.377151 0.044375
0.999987 0.386769 0.044375
0.000000 0.417388 0.119259
0.009703 0.417388 0.107586
0.044375 0.417388 0.044375
0.149328 0.417388 0.044375
0.222028 0.417388 0.044375
0.289034 0.417388 0.044375
0.353829 0.417388 0.044375
0.417388 0.417388 0.044375
0.491630 0.427187 0.044375
0.564378 0.433880 0.044375
0.635720 0.438392 0.044375
0.705660 0.441358 0.044375
0.774283 0.443230 0.044375
0.841729 0.444144 0.044375
0.909146 0.445046 0.044375
0.999987 0.456380 0.044375
0.000000 0.491630 0.122908
0.009703 0.491630 0.110681
0.044375 0.491630 0.044375
0.152611 0.491630 0.044375
0.227118 0.491630 0.044375
0.295740 0.491630 0.044375
0.362043 0.491630 0.044375
0.427187 0.491630 0.044375
0.491630 0.491630 0.044375
0.564378 0.499387 0.044375
0.635720 0.504560 0.044375
0.705660 0.507976 0.044375
0.774283 0.510114 0.044375
0.841729 0.511193 0.044375
0.909146 0.512204 0.044375
0.999987 0.525308 0.044375
0.000000 0.564378 0.125418
0.009703 0.564378 0.112814
0.044375 0.564378 0.044375
0.154873 0.564378 0.044375
0.230611 0.564378 0.044375
0.300355 0.564378 0.044375
0.367748 0.564378 0.044375
0.433880 0.564378 0.044375
0.499387 0.564378 0.044375
0.564378 0.564378 0.044375
0.635720 0.570297 0.044375
0.705660 0.574140 0.044375
0.774283 0.576577 0.044375
0.841729 0.577756 0.044375
0.909146 0.578941 0.044375
0.999987 0.593752 0.044375
0.000000 0.635720 0.127141
0.009703 0.635720 0.114273
0.044375 0.635720 0.044375
0.156395 0.635720 0.044375
0.232981 0.635720 0.044375
0.303472 0.635720 0.044375
0.371549 0.635720 0.044375
0.438392 0.635720 0.044375
0.504560 0.635720 0.044375
0.570297 0.635720 0.044375
0.635720 0.635720 0.044375
0.705660 0.639958 0.044375
0.774283 0.642681 0.044375
0.841729 0.644024 0.044375
0.909146 0.645311 0.044375
0.999987 0.661875 0.044375
0.000000 0.705660 0.128297
0.009703 0.705660 0.115245
0.044375 0.705660 0.044375
0.157390 0.705660 0.044375
0.234504 0.705660 0.044375
0.305489 0.705660 0.044375
0.374035 0.705660 0.044375
0.441358 0.705660 0.044375
0.507976 0.705660 0.044375
0.574140 0.705660 0.044375
0.639958 0.705660 0.044375
0.705660 0.705660 0.044375
0.774283 0.708723 0.044375
0.841729 0.710077 0.044375
0.909146 0.711573 0.044375
0.999987 0.729805 0.044375
0.000000 0.774283 0.129061
0.009703 0.774283 0.115882
0.044375 0.774283 0.044375
0.158011 0.774283 0.044375
0.235480 0.774283 0.044375
0.306768 0.774283 0.044375
0.375655 0.774283 0.044375
0.443230 0.774283 0.044375
0.510114 0.774283 0.044375
0.576577 0.774283 0.044375
0.642681 0.774283 0.044375
0.708723 0.774283 0.044375
0.774283 0.774283 0.044375
0.841729 0.775930 0.044375
0.909146 0.777453 0.044375
0.999987 0.797440 0.044375
0.000000 0.841729 0.129499
0.009703 0.841729 0.116235
0.044375 0.841729 0.044375
0.158324 0.841729 0.044375
0.235958 0.841729 0.044375
0.307408 0.841729 0.044375
0.376378 0.841729 0.044375
0.444144 0.841729 0.044375
0.511193 0.841729 0.044375
0.577756 0.841729 0.044375
0.644024 0.841729 0.044375
0.710077 0.841729 0.044375
0.775930 0.841729 0.044375
0.841729 0.841729 0.044375
0.909146 0.843488 0.044375
0.999987 0.865101 0.044375
0.000000 0.909146 0.129894
0.009703 0.909146 0.116563
0.044375 0.909146 0.044375
0.158627 0.909146 0.044375
0.236427 0.909146 0.044375
0.308003 0.909146 0.044375
0.377151 0.909146 0.044375
0.445046 0.909146 0.044375
0.512204 0.909146 0.044375
0.578941 0.909146 0.044375
0.645311 0.909146 0.044375
0.711573 0.909146 0.044375
0.777453 0.909146 0.044375
0.843488 0.909146 0.044375
0.909146 0.909146 0.044375
0.999987 0.932449 0.044375
0.000000 0.999987 0.133329
0.009703 0.999987 0.119612
0.044375 0.999987 0.044375
0.162448 0.999987 0.044375
0.242339 0.999987 0.044375
0.315811 0.999987 0.044375
0.386769 0.999987 0.044375
0.456380 0.999987 0.044375
0.525308 0.999987 0.044375
0.593752 0.999987 0.044375
0.661875 0.999987 0.044375
0.729805 0.999987 0.044375
0.797440 0.999987 0.044375
0.865101 0.999987 0.044375
0.932449 0.999987 0.044375
0.999987 0.999987 0.044375
0.000000 0.000000 0.106045
0.035349 0.000000 0.106045
0.070699 0.000000 0.106045
0.106045 0.000000 0.106045
0.185680 0.000000 0.139245
0.264441 0.000000 0.158662
0.341688 0.000000 0.170846
0.417388 0.000000 0.178887
0.491630 0.000000 0.184350
0.564378 0.000000 0.188109
0.635720 0.000000 0.190711
0.705660 0.000000 0.192434
0.774283 0.000000 0.193569
0.841729 0.000000 0.194232
0.909146 0.000000 0.194826
0.999987 0.000000 0.199998
0.000000 0.035349 0.106045
0.009703 0.009703 0.106045
0.066266 0.009703 0.106045
0.106045 0.009703 0.106045
0.185680 0.009703 0.136529
0.264441 0.009703 0.154221
0.341688 0.009703 0.165323
0.417388 0.009703 0.172650
0.491630 0.009703 0.177638
0.564378 0.009703 0.181074
0.635720 0.009703 0.183418
0.705660 0.009703 0.184967
0.774283 0.009703 0.186004
0.841729 0.009703 0.186592
0.909146 0.009703 0.187109
0.999987 0.009703 0.191997
0.000000 0.070699 0.106045
0.009703 0.066266 0.106045
0.044375 0.044375 0.106045
0.106045 0.044375 0.106045
0.185680 0.044375 0.126011
0.264441 0.044375 0.137345
0.341688 0.044375 0.144541
0.417388 0.044375 0.149328
0.491630 0.044375 0.152611
0.564378 0.044375 0.154873
0.635720 0.044375 0.156395
0.705660 0.044375 0.157390
0.774283 0.044375 0.158011
0.841729 0.044375 0.158324
0.909146 0.044375 0.158627
0.999987 0.044375 0.162448
0.000000 0.106045 0.106045
0.009703 0.106045 0.106045
0.044375 0.106045 0.106045
0.106045 0.106045 0.106045
0.185680 0.106045 0.106045
0.264441 0.106045 0.106045
0.341688 0.106045 0.106045
0.417388 0.106045 0.106045
0.491630 0.106045 0.106045
0.564378 0.106045 0.106045
0.635720 0.106045 0.106045
0.705660 0.106045 0.106045
0.774283 0.106045 0.106045
0.841729 0.106045 0.106045
0.909146 0.106045 0.106045
0.999987 0.106045 0.106045
0.000000 0.185680 0.139245
0.009703 0.185680 0.136529
0.044375 0.185680 0.126011
0.106045 0.185680 0.106045
0.185680 0.185680 0.106045
0.264441 0.193390 0.106045
0.341688 0.198640 0.106045
0.417388 0.202288 0.106045
0.491630 0.204805 0.106045
0.564378 0.206575 0.106045
0.635720 0.207712 0.106045
0.705660 0.208421 0.106045
0.774283 0.208825 0.106045
0.841729 0.208953 0.106045
0.909146 0.209112 0.106045
0.999987 0.213166 0.106045
0.000000 0.264441 0.158662
0.009703 0.264441 0.154221
0.044375 0.264441 0.137345
0.106045 0.264441 0.106045
0.193390 0.264441 0.106045
0.264441 0.264441 0.106045
0.341688 0.272901 0.106045
0.417388 0.278733 0.106045
0.491630 0.282821 0.106045
0.564378 0.285609 0.106045
0.635720 0.287443 0.106045
0.705660 0.288565 0.106045
0.774283 0.289193 0.106045
0.841729 0.289386 0.106045
0.909146 0.289635 0.106045
0.999987 0.296081 0.106045
0.000000 0.341688 0.170846
0.009703 0.341688 0.165323
0.044375 0.341688 0.144541
0.106045 0.341688 0.106045
0.198640 0.341688 0.106045
0.272901 0.341688 0.106045
0.341688 0.341688 0.106045
0.417388 0.349405 0.106045
0.491630 0.354766 0.106045
0.564378 0.358446 0.106045
0.635720 0.360890 0.106045
0.705660 0.362332 0.106045
0.774283 0.363185 0.106045
0.841729 0.363448 0.106045
0.909146 0.363782 0.106045
0.999987 0.372249 0.106045
0.000000 0.417388 0.178887
0.009703 0.417388 0.172650
0.044375 0.417388 0.149328
0.106045 0.417388 0.106045
0.202288 0.417388 0.106045
