ZLog2_to_BT709.cube
TITLE "ZLog2_to_LinearBT709"
LUT_3D_SIZE 5
# ZLog2 to Linear BT709 SDR 100 nits by Francesco Bucciantini
0.00000000 0.00000000 0.00000000
0.11300828 0.00000000 0.00000000
0.45866203 0.00000000 0.00000000
0.86290740 0.00000000 0.00000000
0.99888475 0.00000000 0.00000000
0.00000000 0.09106907 0.00000000
0.09322178 0.08491146 0.00000000
0.45817411 0.03622795 0.00000000
0.90975972 0.00000000 0.00000000
0.99888475 0.00790500 0.00000000
0.00000000 0.37788247 0.00000000
0.02310284 0.40279021 0.00000000
0.43006199 0.39692450 0.00000000
0.91433896 0.37776790 0.00000000
0.99888475 0.41727560 0.00000000
0.00000000 0.80868293 0.00000000
0.00000000 0.83785568 0.00000000
0.39828039 0.83775568 0.00000000
0.87551227 0.81132382 0.00000000
0.99888475 0.83343702 0.00000000
0.00000000 0.99888475 0.00000000
0.09866191 0.99888475 0.00000000
0.47804129 0.99888475 0.00000000
0.91143729 0.99888475 0.00000000
0.99888475 0.99888475 0.00000000
0.00000000 0.00000000 0.11551189
0.09915887 0.00000000 0.11382288
0.44983348 0.00000000 0.06408170
0.85543596 0.00000000 0.00000000
0.99888475 0.00000000 0.00007381
0.00000000 0.09045709 0.08399843
0.08531260 0.08531260 0.08531260
0.45323122 0.03888913 0.05817051
0.90974624 0.00000000 0.03620036
0.99888475 0.01841415 0.07231637
0.00000000 0.38798948 0.00000000
0.02406597 0.41258335 0.00000000
0.43372819 0.40893086 0.01094424
0.91933076 0.39032777 0.01668630
0.99888475 0.42861813 0.06752330
0.00000000 0.82040365 0.00000000
0.00000000 0.85048308 0.00000000
0.40013704 0.84870338 0.00000000
0.87617131 0.82040338 0.00000000
0.99888475 0.84103631 0.00000000
0.00000000 0.99888475 0.00000000
0.09594205 0.99888475 0.01531667
0.47089951 0.99888475 0.00000000
0.90162583 0.99888475 0.00000000
0.99888475 0.99888475 0.00000000
0.00000000 0.00000000 0.49447363
0.05840794 0.00000000 0.49274613
0.40690004 0.00000000 0.44525375
0.81566898 0.00000000 0.37798301
0.99888475 0.00000000 0.39681075
0.00000000 0.07785656 0.47011363
0.04875305 0.07371196 0.47303391
0.42208504 0.03274613 0.45094051
0.88578382 0.00000000 0.43432665
0.99888475 0.02142183 0.47168369
0.00000000 0.38956271 0.36479133
0.00349318 0.41649773 0.39735896
0.41471367 0.41471367 0.41471367
0.90144863 0.39622349 0.41952552
0.99888475 0.43458534 0.46905024
0.00000000 0.82670086 0.29487917
0.00000000 0.85616698 0.32892482
0.37829953 0.85291826 0.34311583
0.85240860 0.82179924 0.33529415
0.99888475 0.83926449 0.36517192
0.00000000 0.99888475 0.38923636
0.06861172 0.99888475 0.40708920
0.43417925 0.99888475 0.38217478
0.86192073 0.99888475 0.32869965
0.99888475 0.99888475 0.31559916
0.00000000 0.00000000 0.95473616
0.00568412 0.00000000 0.95407083
0.35150161 0.00000000 0.90335135
0.77239513 0.00000000 0.83825459
0.99888475 0.00000000 0.85332849
0.00000000 0.05987101 0.93497579
0.00238243 0.05845744 0.94029232
0.38284641 0.02473540 0.92657515
0.85067626 0.00000000 0.91546641
0.99888475 0.02001014 0.95348891
0.00000000 0.38770317 0.84401675
0.00000000 0.41545237 0.88143740
0.38491728 0.41527197 0.90163668
0.87142516 0.39714801 0.90717302
0.99888475 0.43429641 0.95350017
0.00000000 0.82708225 0.77890584
0.00000000 0.85569616 0.81325302
0.34481987 0.84991068 0.82654007
0.81646755 0.81646755 0.81646755
0.99888475 0.83012841 0.84136564
0.00000000 0.99888475 0.87006132
0.02535208 0.99888475 0.88018728
0.38556410 0.99888475 0.84936830
0.81040041 0.99888475 0.79326312
0.99888475 0.99888515 0.77965249
0.00000000 0.00000000 0.99888475
0.00000000 0.00000000 0.99888475
0.32959347 0.00000000 0.99888475
0.76454917 0.00000000 0.99888475
0.99888475 0.00000000 0.99888475
0.00000000 0.05725267 0.99888475
0.00000000 0.06060921 0.99888475
0.37738445 0.03490039 0.99888475
0.84789698 0.00283077 0.99888475
0.99888475 0.03516385 0.99888475
0.00000000 0.40237592 0.99888475
0.00000000 0.43031242 0.99888475
0.38657253 0.43142820 0.99888475
0.87264642 0.41389432 0.99888475
0.99888475 0.44955446 0.99888475
0.00000000 0.84236539 0.99888475
0.00000000 0.87019338 0.99888475
0.34329561 0.86195171 0.99888475
0.81106314 0.82587514 0.99888475
0.99888475 0.83350925 0.99888475
0.00000000 0.99888475 0.99888475
0.01152944 0.99888475 0.99888475
0.36732793 0.99888475 0.99888475
0.79030924 0.99888475 0.99888475
0.99941247 0.99940880 0.99941286
