ZLog2_to_BT709.cube
TITLE "ZLog2_to_LinearBT709"
LUT_3D_SIZE 33
# ZLog2 to Linear BT709 SDR 100 nits by Francesco Bucciantini
0.00000000 0.00000000 0.00000000
0.00000000 0.00000000 0.00000000
0.00000000 0.00000000 0.00000000
0.00150847 0.00000000 0.00000000
0.01669615 0.00000000 0.00000000
0.03530727 0.00000000 0.00000000
0.05722383 0.00000000 0.00000000
0.08297988 0.00000000 0.00000000
0.11300828 0.00000000 0.00000000
0.13785190 0.00000000 0.00000000
0.16851158 0.00000000 0.00000000
0.20770472 0.00000000 0.00000000
0.25343250 0.00000000 0.00000000
0.30279153 0.00000000 0.00000000
0.35292483 0.00000000 0.00000000
0.40476854 0.00000000 0.00000000
0.45866203 0.00000000 0.00000000
0.51330205 0.00000000 0.00000000
0.56862992 0.00000000 0.00000000
0.62468084 0.00000000 0.00000000
0.67516243 0.00000000 0.00000000
0.72696823 0.00000000 0.00000000
0.77483445 0.00000000 0.00000000
0.82339086 0.00000000 0.00000000
0.86290740 0.00000000 0.00000000
0.90696001 0.00000000 0.00000000
0.95805467 0.00000000 0.00000000
0.99825856 0.00000000 0.00000000
0.99888475 0.00000000 0.00000000
0.99888475 0.00000000 0.00000000
0.99888475 0.00000000 0.00000000
0.99888475 0.00000000 0.00000000
0.99888475 0.00000000 0.00000000
0.00000000 0.00000000 0.00000000
0.00000000 0.00000000 0.00000000
0.00000000 0.00000000 0.00000000
0.00063670 0.00000000 0.00000000
0.01582438 0.00000000 0.00000000
0.03443550 0.00000000 0.00000000
0.05645575 0.00000000 0.00000000
0.08216523 0.00000000 0.00000000
0.11157486 0.00000000 0.00000000
0.13679964 0.00000000 0.00000000
0.16768421 0.00000000 0.00000000
0.20707873 0.00000000 0.00000000
0.25289087 0.00000000 0.00000000
0.30229123 0.00000000 0.00000000
0.35254931 0.00000000 0.00000000
0.40458216 0.00000000 0.00000000
0.45862582 0.00000000 0.00000000
0.51345757 0.00000000 0.00000000
0.56900763 0.00000000 0.00000000
0.62518300 0.00000000 0.00000000
0.67615955 0.00000000 0.00000000
0.72822745 0.00000000 0.00000000
0.77654373 0.00000000 0.00000000
0.82536393 0.00000000 0.00000000
0.86610802 0.00000000 0.00000000
0.91056870 0.00000000 0.00000000
0.95980747 0.00000000 0.00000000
0.99825856 0.00000000 0.00000000
0.99888475 0.00000000 0.00000000
0.99888475 0.00000000 0.00000000
0.99888475 0.00000000 0.00000000
0.99888475 0.00000000 0.00000000
0.99888475 0.00000000 0.00000000
0.00000000 0.00000000 0.00000000
0.00000000 0.00000000 0.00000000
0.00000000 0.00000000 0.00000000
0.00000000 0.00000000 0.00000000
0.01475610 0.00000000 0.00000000
0.03336722 0.00000000 0.00000000
0.05550567 0.00000000 0.00000000
0.08116236 0.00000000 0.00000000
0.10986925 0.00000000 0.00000000
0.13553244 0.00000000 0.00000000
0.16667687 0.00000000 0.00000000
0.20631379 0.00000000 0.00000000
0.25222828 0.00000000 0.00000000
0.30167887 0.00000000 0.00000000
0.35208947 0.00000000 0.00000000
0.40435383 0.00000000 0.00000000
0.45858145 0.00000000 0.00000000
0.51364817 0.00000000 0.00000000
0.56947046 0.00000000 0.00000000
0.62579822 0.00000000 0.00000000
0.67738120 0.00000000 0.00000000
0.72976908 0.00000000 0.00000000
0.77863276 0.00000000 0.00000000
0.82777243 0.00000000 0.00000000
0.86997713 0.00000000 0.00000000
0.91482094 0.00000000 0.00000000
0.96194447 0.00000000 0.00000000
0.99825856 0.00000000 0.00000000
0.99888475 0.00000000 0.00000000
0.99888475 0.00000000 0.00000000
0.99888475 0.00000000 0.00000000
0.99888475 0.00000000 0.00000000
0.99888475 0.00000000 0.00000000
0.00000000 0.00000000 0.00000000
0.00000000 0.00000000 0.00000000
0.00000000 0.00000000 0.00000000
0.00000000 0.00000000 0.00000000
0.01344702 0.00000000 0.00000000
0.03205814 0.00000000 0.00000000
0.05433026 0.00000000 0.00000000
0.07992690 0.00000000 0.00000000
0.10785481 0.00000000 0.00000000
0.13401114 0.00000000 0.00000000
0.16545249 0.00000000 0.00000000
0.20537971 0.00000000 0.00000000
0.25141805 0.00000000 0.00000000
0.30092958 0.00000000 0.00000000
0.35152647 0.00000000 0.00000000
0.40407409 0.00000000 0.00000000
0.45852708 0.00000000 0.00000000
0.51388175 0.00000000 0.00000000
0.57003759 0.00000000 0.00000000
0.62655193 0.00000000 0.00000000
0.67887776 0.00000000 0.00000000
0.73165616 0.00000000 0.00000000
0.78118466 0.00000000 0.00000000
0.83071500 0.00000000 0.00000000
0.87461140 0.00000000 0.00000000
0.91983032 0.00000000 0.00000000
0.96451337 0.00000000 0.00000000
0.99825856 0.00000000 0.00000000
0.99888475 0.00000000 0.00000000
0.99888475 0.00000000 0.00000000
0.99888475 0.00000000 0.00000000
0.99888475 0.00000000 0.00000000
0.99888475 0.00000000 0.00000000
0.00000000 0.01153616 0.00000000
0.00000000 0.01114486 0.00000000
0.00000000 0.01066536 0.00000000
0.00000000 0.01007777 0.00000000
0.01184287 0.00935774 0.00000000
0.03045398 0.00847540 0.00000000
0.05287247 0.00739418 0.00000000
0.07840276 0.00697962 0.00000000
0.10548816 0.00515639 0.00000000
0.13219091 0.00257710 0.00000000
0.16396764 0.00000000 0.00000000
0.20424003 0.00000000 0.00000000
0.25042774 0.00000000 0.00000000
0.30001304 0.00000000 0.00000000
0.35083730 0.00000000 0.00000000
0.40373140 0.00000000 0.00000000
0.45846045 0.00000000 0.00000000
0.51416801 0.00000000 0.00000000
0.57073253 0.00000000 0.00000000
0.62747524 0.00000000 0.00000000
0.68071081 0.00000000 0.00000000
0.73396573 0.00000000 0.00000000
0.78430032 0.00000000 0.00000000
0.83430665 0.00000000 0.00000000
0.88007930 0.00000000 0.00000000
0.92563862 0.00000000 0.00000000
0.96761293 0.00000000 0.00000000
0.99825856 0.00000000 0.00000000
0.99888475 0.00000000 0.00000000
0.99888475 0.00000000 0.00000000
0.99888475 0.00000000 0.00000000
0.99888475 0.00000000 0.00000000
0.99888475 0.00000000 0.00000000
0.00000000 0.02775727 0.00000000
0.00000000 0.02736597 0.00000000
0.00000000 0.02688647 0.00000000
0.00000000 0.02629888 0.00000000
0.00987712 0.02557885 0.00000000
0.02848824 0.02469652 0.00000000
0.05105607 0.02361530 0.00000000
0.07651851 0.02301399 0.00000000
0.10270969 0.02116213 0.00000000
0.13002017 0.01864648 0.00000000
0.16217232 0.01482284 0.00000000
0.20285025 0.00830758 0.00000000
0.24921805 0.00072403 0.00000000
0.29889238 0.00000000 0.00000000
0.34999392 0.00000000 0.00000000
0.40331161 0.00000000 0.00000000
0.45837881 0.00000000 0.00000000
0.51451887 0.00000000 0.00000000
0.57158406 0.00000000 0.00000000
0.62860620 0.00000000 0.00000000
0.68295547 0.00000000 0.00000000
0.73679194 0.00000000 0.00000000
0.78810210 0.00000000 0.00000000
0.83868148 0.00000000 0.00000000
0.88647235 0.00000000 0.00000000
0.93230088 0.00000000 0.00000000
0.97142514 0.00000000 0.00000000
0.99825856 0.00000000 0.00000000
0.99888475 0.00000000 0.00000000
0.99888475 0.00000000 0.00000000
0.99888475 0.00000000 0.00000000
0.99888475 0.00000000 0.00000000
0.99888475 0.00000000 0.00000000
0.00000000 0.04757666 0.00000000
0.00000000 0.04719738 0.00000000
0.00000000 0.04673070 0.00000000
0.00000000 0.04615599 0.00000000
0.00746828 0.04544746 0.00000000
0.02607939 0.04457280 0.00000000
0.04877977 0.04349279 0.00000000
0.07418391 0.04266265 0.00000000
0.09955601 0.04077570 0.00000000
0.12744986 0.03833805 0.00000000
0.16001037 0.03467328 0.00000000
0.20115698 0.02854950 0.00000000
0.24774148 0.02116227 0.00000000
0.29752283 0.01340789 0.00000000
0.34896209 0.00463409 0.00000000
0.40279743 0.00000000 0.00000000
0.45827878 0.00000000 0.00000000
0.51494889 0.00000000 0.00000000
0.57262743 0.00000000 0.00000000
0.62999135 0.00000000 0.00000000
0.68570318 0.00000000 0.00000000
0.74025094 0.00000000 0.00000000
0.79273845 0.00000000 0.00000000
0.84399350 0.00000000 0.00000000
0.89391212 0.00000000 0.00000000
0.94002017 0.00000000 0.00000000
0.97629531 0.00000000 0.00000000
0.99825856 0.00000000 0.00000000
0.99888475 0.00000000 0.00000000
0.99888475 0.00000000 0.00000000
0.99888475 0.00000000 0.00000000
0.99888475 0.00000000 0.00000000
0.99888475 0.00000000 0.00000000
0.00000000 0.07032078 0.00000000
0.00000000 0.06991680 0.00000000
0.00000000 0.06942068 0.00000000
0.00000000 0.06881070 0.00000000
0.00591524 0.06805947 0.00000000
0.02419951 0.06713197 0.00000000
0.04657574 0.06598291 0.00000000
0.07102434 0.06423217 0.00000000
0.09614786 0.06265873 0.00000000
0.12415297 0.06035695 0.00000000
0.15718218 0.05687675 0.00000000
0.19915626 0.05162710 0.00000000
0.24586683 0.04464105 0.00000000
0.29516179 0.03622640 0.00000000
0.34695355 0.02735723 0.00000000
0.40126058 0.01838894 0.00000000
0.45741612 0.00969279 0.00000000
0.51488498 0.00174588 0.00000000
0.57249239 0.00000000 0.00000000
0.62983181 0.00000000 0.00000000
0.68674465 0.00000000 0.00000000
0.74270789 0.00000000 0.00000000
0.79682788 0.00000000 0.00000000
0.84890995 0.00000000 0.00000000
0.89987556 0.00000000 0.00000000
0.94619987 0.00000000 0.00000000
0.98381886 0.00000000 0.00000000
0.99856975 0.00000000 0.00000000
0.99888475 0.00000000 0.00000000
0.99888475 0.00000000 0.00000000
0.99888475 0.00000000 0.00000000
0.99888475 0.00000000 0.00000000
0.99888475 0.00000000 0.00000000
0.00000000 0.09106907 0.00000000
0.00000000 0.09073251 0.00000000
0.00000000 0.09031790 0.00000000
0.00000000 0.08980507 0.00000000
0.00217044 0.08917305 0.00000000
0.02045477 0.08839676 0.00000000
0.04286056 0.08744196 0.00000000
0.06785350 0.08604463 0.00000000
0.09322178 0.08491146 0.00000000
0.12161307 0.08300850 0.00000000
0.15524487 0.07999463 0.00000000
0.19687974 0.07452777 0.00000000
0.24355408 0.06753937 0.00000000
0.29360288 0.06038213 0.00000000
0.34607736 0.05233911 0.00000000
0.40094128 0.04417611 0.00000000
0.45817411 0.03622795 0.00000000
0.51626609 0.02771303 0.00000000
0.57453077 0.01878669 0.00000000
0.63324545 0.01078270 0.00000000
0.69061696 0.00283331 0.00000000
0.74779037 0.00000000 0.00000000
0.80423840 0.00000000 0.00000000
0.85848993 0.00000000 0.00000000
0.90975972 0.00000000 0.00000000
0.95686225 0.00000000 0.00000000
0.99776370 0.00000000 0.00000000
0.99888639 0.00000000 0.00000000
0.99888475 0.00000000 0.00000000
0.99888475 0.00000000 0.00000000
0.99888475 0.00000000 0.00000000
0.99888475 0.00240544 0.00000000
0.99888475 0.00790500 0.00000000
0.00000000 0.11323022 0.00000000
0.00000000 0.11300382 0.00000000
0.00000000 0.11272734 0.00000000
0.00000000 0.11238994 0.00000000
0.00000000 0.11197851 0.00000000
0.01521149 0.11147856 0.00000000
0.03780601 0.11087267 0.00000000
0.06301001 0.10990548 0.00000000
0.08905591 0.10901249 0.00000000
0.11843950 0.10810273 0.00000000
0.15213985 0.10534462 0.00000000
0.19330329 0.09964443 0.00000000
0.24077062 0.09371552 0.00000000
0.29161236 0.08717485 0.00000000
0.34548874 0.08055718 0.00000000
0.40199922 0.07401281 0.00000000
0.45949392 0.06653106 0.00000000
0.51784531 0.05841352 0.00000000
0.57777430 0.05137981 0.00000000
0.63822682 0.04529364 0.00000000
0.69837956 0.03999430 0.00000000
0.75692341 0.03511894 0.00000000
0.81339511 0.03107587 0.00000000
0.86773071 0.02721770 0.00000000
0.92035714 0.02501696 0.00000000
0.96681942 0.02351054 0.00000000
0.99797146 0.02403580 0.00000000
0.99888475 0.02656876 0.00000000
0.99888475 0.03082049 0.00000000
0.99888475 0.03499163 0.00000000
0.99888475 0.03967450 0.00000000
0.99888475 0.04514655 0.00000000
0.99888475 0.05082416 0.00000000
0.00000000 0.13791304 0.00000000
0.00000000 0.13787608 0.00000000
0.00000000 0.13783081 0.00000000
0.00000000 0.13777539 0.00000000
0.00000000 0.13770753 0.00000000
0.00679536 0.13762448 0.00000000
0.02985461 0.13752284 0.00000000
0.05589299 0.13724088 0.00000000
0.08287768 0.13724530 0.00000000
0.11170694 0.13548676 0.00000000
0.14567579 0.13333592 0.00000000
0.18872109 0.12970350 0.00000000
0.23755556 0.12492901 0.00000000
0.28945607 0.11913710 0.00000000
0.34461468 0.11395744 0.00000000
0.40143946 0.10782466 0.00000000
0.46041090 0.10134683 0.00000000
0.52123721 0.09617152 0.00000000
0.58239268 0.09085688 0.00000000
0.64360784 0.08507826 0.00000000
0.70520105 0.08117553 0.00000000
0.76419553 0.07688589 0.00000000
0.82024024 0.07238097 0.00000000
0.87530497 0.06906080 0.00000000
0.92792269 0.06698481 0.00000000
0.97465721 0.06594912 0.00000000
0.99824164 0.06716593 0.00000000
0.99888475 0.07011686 0.00000000
0.99888475 0.07317436 0.00000000
0.99888475 0.07820864 0.00000000
0.99888475 0.08424974 0.00000000
0.99888475 0.09093960 0.00000000
0.99888475 0.09588811 0.00000000
0.00000000 0.16410916 0.00000000
0.00000000 0.16452392 0.00000000
0.00000000 0.16503405 0.00000000
0.00000000 0.16566193 0.00000000
0.00000000 0.16643544 0.00000000
0.00000000 0.16738932 0.00000000
0.01692765 0.16856708 0.00000000
0.04421131 0.16928079 0.00000000
0.07155867 0.16966838 0.00000000
0.10145498 0.16932955 0.00000000
0.13688781 0.16814799 0.00000000
0.18092391 0.16565550 0.00000000
0.23135845 0.16246842 0.00000000
0.28574318 0.15942509 0.00000000
0.34144755 0.15458964 0.00000000
0.39902140 0.14889593 0.00000000
0.45897311 0.14408028 0.00000000
0.52043443 0.13895779 0.00000000
0.58280369 0.13431230 0.00000000
0.64465803 0.12921235 0.00000000
0.70534212 0.12501834 0.00000000
0.76420215 0.12016754 0.00000000
0.82157029 0.11700617 0.00000000
0.87752783 0.11468059 0.00000000
0.93090276 0.11333835 0.00000000
0.97855763 0.11284824 0.00000000
0.99836261 0.11366299 0.00000000
0.99888475 0.11594807 0.00000000
0.99888475 0.12014269 0.00000000
0.99888475 0.12551657 0.00000000
0.99888475 0.13183750 0.00000000
0.99888475 0.13821908 0.00000000
0.99888475 0.14546259 0.00000000
0.00000000 0.19804703 0.00000000
0.00000000 0.19874651 0.00000000
0.00000000 0.19960644 0.00000000
0.00000000 0.20066433 0.00000000
0.00000000 0.20196674 0.00000000
0.00000000 0.20357157 0.00000000
0.00370082 0.20555154 0.00000000
0.03032935 0.20614804 0.00000000
0.05938685 0.20781565 0.00000000
0.09171295 0.20971187 0.00000000
0.12875790 0.21054794 0.00000000
0.17420302 0.20935624 0.00000000
0.22574018 0.20735672 0.00000000
0.27946551 0.20365540 0.00000000
0.33576471 0.19951779 0.00000000
0.39449140 0.19527416 0.00000000
0.45483107 0.19042922 0.00000000
0.51677502 0.18575830 0.00000000
0.58017477 0.18216750 0.00000000
0.64211181 0.17749234 0.00000000
0.70252954 0.17264103 0.00000000
0.76204873 0.16837411 0.00000000
0.81991649 0.16574046 0.00000000
0.87649148 0.16373989 0.00000000
0.93027452 0.16298879 0.00000000
0.97797186 0.16253039 0.00000000
0.99839293 0.16278401 0.00000000
0.99888475 0.16562156 0.00000000
0.99888475 0.17070278 0.00000000
0.99888475 0.17680539 0.00000000
0.99888475 0.18347580 0.00000000
0.99888475 0.19084431 0.00000000
0.99888475 0.19637907 0.00000000
0.00000000 0.23615747 0.00000000
0.00000000 0.23716921 0.00000000
0.00000000 0.23841336 0.00000000
0.00000000 0.23994450 0.00000000
0.00000000 0.24183061 0.00000000
0.00000000 0.24415665 0.00000000
0.00000000 0.24702926 0.00000000
0.02005745 0.24968211 0.00000000
0.05022646 0.25251787 0.00000000
0.08320447 0.25507491 0.00000000
0.12092045 0.25679785 0.00000000
0.16737747 0.25672724 0.00000000
0.21894771 0.25435601 0.00000000
0.27240878 0.25056095 0.00000000
0.32940638 0.24718725 0.00000000
0.38884784 0.24357048 0.00000000
0.45004177 0.23977068 0.00000000
0.51256667 0.23591087 0.00000000
0.57483958 0.23078110 0.00000000
0.63692699 0.22616629 0.00000000
0.69852167 0.22253882 0.00000000
0.75863828 0.21927097 0.00000000
0.81719611 0.21726772 0.00000000
0.87464402 0.21609123 0.00000000
0.92774380 0.21455960 0.00000000
0.97516162 0.21376512 0.00000000
0.99836797 0.21502758 0.00000000
0.99888475 0.21822129 0.00000000
0.99888475 0.22364975 0.00000000
0.99888475 0.23004197 0.00000000
0.99888475 0.23722016 0.00000000
0.99888475 0.24357270 0.00000000
0.99888475 0.24912094 0.00000000
0.00000000 0.28011176 0.00000000
0.00000000 0.28130840 0.00000000
0.00000000 0.28277946 0.00000000
0.00000000 0.28458908 0.00000000
0.00000000 0.28681699 0.00000000
0.00000000 0.28956250 0.00000000
0.00000000 0.29294970 0.00000000
0.01055840 0.29663666 0.00000000
0.04118283 0.30033705 0.00000000
0.07490272 0.30353880 0.00000000
0.11345432 0.30615053 0.00000000
0.15867515 0.30486409 0.00000000
0.21044849 0.30282492 0.00000000
0.26545066 0.30030367 0.00000000
0.32297588 0.29746424 0.00000000
0.38288540 0.29439774 0.00000000
0.44466674 0.29109877 0.00000000
0.50693272 0.28699095 0.00000000
0.56913205 0.28219087 0.00000000
0.63188109 0.27818294 0.00000000
0.69396917 0.27469687 0.00000000
0.75470569 0.27188283 0.00000000
0.81344038 0.27013577 0.00000000
0.87017538 0.26843663 0.00000000
0.92333223 0.26685843 0.00000000
0.97191256 0.26678699 0.00000000
0.99832542 0.26862483 0.00000000
0.99888475 0.27219747 0.00000000
0.99888475 0.27826178 0.00000000
0.99888475 0.28516209 0.00000000
0.99888475 0.29056553 0.00000000
0.99888475 0.29719809 0.00000000
0.99888475 0.30406665 0.00000000
0.00000000 0.32776368 0.00000000
0.00000000 0.32907658 0.00000000
0.00000000 0.33068985 0.00000000
0.00000000 0.33267335 0.00000000
0.00000000 0.33511371 0.00000000
0.00000000 0.33811862 0.00000000
0.00000000 0.34182222 0.00000000
0.00214390 0.34589806 0.00000000
0.03221349 0.35067555 0.00000000
0.06650548 0.35424549 0.00000000
0.10416526 0.35624142 0.00000000
0.14988589 0.35564772 0.00000000
0.20232914 0.35402315 0.00000000
0.25795587 0.35212813 0.00000000
0.31616014 0.34984035 0.00000000
0.37615574 0.34687817 0.00000000
0.43722084 0.34285483 0.00000000
0.49973367 0.33885611 0.00000000
0.56308319 0.33527165 0.00000000
0.62619328 0.33168498 0.00000000
0.68911209 0.32931334 0.00000000
0.75054126 0.32707781 0.00000000
0.80826126 0.32415463 0.00000000
0.86471749 0.32212614 0.00000000
0.91931207 0.32151448 0.00000000
0.96807004 0.32162578 0.00000000
0.99823694 0.32414132 0.00000000
0.99888475 0.32852118 0.00000000
0.99888475 0.33382200 0.00000000
0.99888475 0.33978704 0.00000000
0.99888475 0.34593810 0.00000000
0.99888475 0.35295958 0.00000000
0.99888475 0.36025774 0.00000000
0.00000000 0.37788247 0.00000000
0.00000000 0.37928252 0.00000000
0.00000000 0.38100245 0.00000000
0.00000000 0.38311649 0.00000000
0.00000000 0.38571638 0.00000000
0.00000000 0.38891570 0.00000000
0.00000000 0.39285512 0.00000000
0.00005885 0.39738282 0.00000000
0.02310284 0.40279021 0.00000000
0.05682414 0.40548441 0.00000000
0.09515015 0.40800396 0.00000000
0.14143180 0.40829001 0.00000000
0.19424748 0.40722174 0.00000000
0.25049710 0.40594574 0.00000000
0.30909588 0.40397144 0.00000000
0.36873244 0.40062907 0.00000000
0.43006199 0.39692450 0.00000000
0.49296792 0.39331720 0.00000000
0.55663593 0.38992142 0.00000000
0.62025140 0.38675863 0.00000000
0.68368491 0.38492546 0.00000000
0.74455011 0.38231872 0.00000000
0.80237554 0.37945103 0.00000000
0.85907664 0.37813975 0.00000000
0.91433896 0.37776790 0.00000000
0.96379264 0.37818413 0.00000000
0.99807756 0.38078613 0.00000000
0.99888475 0.38492376 0.00000000
0.99888475 0.38933324 0.00000000
0.99888475 0.39550733 0.00000000
0.99888475 0.40227463 0.00000000
0.99888475 0.40937139 0.00000000
0.99888475 0.41727560 0.00000000
0.00000000 0.42932997 0.00000000
0.00000000 0.43089764 0.00000000
0.00000000 0.43282181 0.00000000
0.00000000 0.43518432 0.00000000
0.00000000 0.43808619 0.00000000
0.00000000 0.44165241 0.00000000
0.00000000 0.44604178 0.00000000
0.00000000 0.45121876 0.00000000
0.01314151 0.45537712 0.00000000
0.04761408 0.45875786 0.00000000
0.08658928 0.46161416 0.00000000
0.13300779 0.46237850 0.00000000
0.18633989 0.46185383 0.00000000
0.24333066 0.46131790 0.00000000
0.30059287 0.45809089 0.00000000
0.36082321 0.45515362 0.00000000
0.42284891 0.45218266 0.00000000
0.48637837 0.44922309 0.00000000
0.55068515 0.44645902 0.00000000
0.61516225 0.44413214 0.00000000
0.67684639 0.44054760 0.00000000
0.73736558 0.43754252 0.00000000
0.79636009 0.43575502 0.00000000
0.85328765 0.43458959 0.00000000
0.90882569 0.43469463 0.00000000
0.95943193 0.43581538 0.00000000
0.99795741 0.43753158 0.00000000
0.99888475 0.44080123 0.00000000
0.99888475 0.44591743 0.00000000
0.99888475 0.45201468 0.00000000
0.99888475 0.45920067 0.00000000
0.99888475 0.46612142 0.00000000
0.99888475 0.47390619 0.00000000
0.00000000 0.48227562 0.00000000
0.00000000 0.48393204 0.00000000
0.00000000 0.48596398 0.00000000
0.00000000 0.48845705 0.00000000
0.00000000 0.49151651 0.00000000
0.00000000 0.49527182 0.00000000
0.00000000 0.49988214 0.00000000
0.00000000 0.50404007 0.00000000
0.00391360 0.50896199 0.00000000
0.03919830 0.51336849 0.00000000
0.07883306 0.51664336 0.00000000
0.12645530 0.51848623 0.00000000
0.17943529 0.51774710 0.00000000
0.23523146 0.51610741 0.00000000
0.29337048 0.51387012 0.00000000
0.35387383 0.51133557 0.00000000
0.41625715 0.50858673 0.00000000
0.48032450 0.50617221 0.00000000
0.54469256 0.50350564 0.00000000
0.60811207 0.50015875 0.00000000
0.66999910 0.49669906 0.00000000
0.73116389 0.49428591 0.00000000
0.79045467 0.49284526 0.00000000
0.84781656 0.49208828 0.00000000
0.90324640 0.49193452 0.00000000
0.95339345 0.49212136 0.00000000
0.99686021 0.49339365 0.00000000
0.99888475 0.49699133 0.00000000
0.99888475 0.50264176 0.00000000
0.99888475 0.50891676 0.00000000
0.99888475 0.51640807 0.00000000
0.99888475 0.52265198 0.00000000
0.99888475 0.52843764 0.00000000
0.00000000 0.53605031 0.00000000
0.00000000 0.53775230 0.00000000
0.00000000 0.53983778 0.00000000
0.00000000 0.54239456 0.00000000
0.00000000 0.54553018 0.00000000
0.00000000 0.54937582 0.00000000
0.00000000 0.55409210 0.00000000
0.00000000 0.55886708 0.00000000
0.00000000 0.56402913 0.00000000
0.03189770 0.56879114 0.00000000
0.07216647 0.57246968 0.00000000
0.11951911 0.57435368 0.00000000
0.17185519 0.57304736 0.00000000
0.22818239 0.57186168 0.00000000
0.28694896 0.57018518 0.00000000
0.34757165 0.56789431 0.00000000
0.41022116 0.56542072 0.00000000
0.47502116 0.56371231 0.00000000
0.53809838 0.55972795 0.00000000
0.60134682 0.55617465 0.00000000
0.66395894 0.55346622 0.00000000
0.72510912 0.55100547 0.00000000
0.78477282 0.54988776 0.00000000
0.84270762 0.54966470 0.00000000
0.89720858 0.54855874 0.00000000
0.94673482 0.54802174 0.00000000
0.98868306 0.54976468 0.00000000
0.99889343 0.55319393 0.00000000
0.99888475 0.55887414 0.00000000
0.99888475 0.56527179 0.00000000
0.99888475 0.57166348 0.00000000
0.99888475 0.57732539 0.00000000
0.99888475 0.58349374 0.00000000
0.00000000 0.58965229 0.00000000
0.00000000 0.59145585 0.00000000
0.00000000 0.59366533 0.00000000
0.00000000 0.59637159 0.00000000
0.00000000 0.59968533 0.00000000
0.00000000 0.60374106 0.00000000
0.00000000 0.60870220 0.00000000
0.00000000 0.61437928 0.00000000
0.00000000 0.61988375 0.00000000
0.02764053 0.62581560 0.00000000
0.06737113 0.62892771 0.00000000
0.11361116 0.62976522 0.00000000
0.16673482 0.62930870 0.00000000
0.22325089 0.62817689 0.00000000
0.28231065 0.62683435 0.00000000
0.34349956 0.62516017 0.00000000
0.40622046 0.62278407 0.00000000
0.46947593 0.61951463 0.00000000
0.53268549 0.61575607 0.00000000
0.59632222 0.61259221 0.00000000
0.65925967 0.61019173 0.00000000
0.72062140 0.60790879 0.00000000
0.77973485 0.60625397 0.00000000
0.83619111 0.60461308 0.00000000
0.89030353 0.60352919 0.00000000
0.94084856 0.60348802 0.00000000
0.98374994 0.60543144 0.00000000
0.99888708 0.60897606 0.00000000
0.99888475 0.61462964 0.00000000
0.99888475 0.61992740 0.00000000
0.99888475 0.62519540 0.00000000
0.99888475 0.63126207 0.00000000
0.99888475 0.63720730 0.00000000
0.00000000 0.64436102 0.00000000
0.00000000 0.64621415 0.00000000
0.00000000 0.64848296 0.00000000
0.00000000 0.65126012 0.00000000
0.00000000 0.65465865 0.00000000
0.00000000 0.65881621 0.00000000
0.00000000 0.66390028 0.00000000
0.00000000 0.66986619 0.00000000
0.00000000 0.67599374 0.00000000
0.02403384 0.68141017 0.00000000
0.06277828 0.68392222 0.00000000
0.10921859 0.68523651 0.00000000
0.16261370 0.68505366 0.00000000
0.21944956 0.68413887 0.00000000
0.27853023 0.68293419 0.00000000
0.33988603 0.68130065 0.00000000
0.40156850 0.67794593 0.00000000
0.46458480 0.67442631 0.00000000
0.52837383 0.67113348 0.00000000
0.59197984 0.66798519 0.00000000
0.65528123 0.66598840 0.00000000
0.71670343 0.66376356 0.00000000
0.77484273 0.66108807 0.00000000
0.83051815 0.65881033 0.00000000
0.88540567 0.65802068 0.00000000
0.93547106 0.65776488 0.00000000
0.97749662 0.65975988 0.00000000
0.99881329 0.66341384 0.00000000
0.99888475 0.66755238 0.00000000
0.99888475 0.67216563 0.00000000
0.99888475 0.67805030 0.00000000
