ZLog2_to_BT709.cube
TITLE "ZLog2_to_LinearBT709"
LUT_3D_SIZE 9
# ZLog2 to Linear BT709 SDR 100 nits by Francesco Bucciantini
0.00000000 0.00000000 0.00000000
0.01669615 0.00000000 0.00000000
0.11300828 0.00000000 0.00000000
0.25343250 0.00000000 0.00000000
0.45866203 0.00000000 0.00000000
0.67516243 0.00000000 0.00000000
0.86290740 0.00000000 0.00000000
0.99888475 0.00000000 0.00000000
0.99888475 0.00000000 0.00000000
0.00000000 0.01153616 0.00000000
0.01184287 0.00935774 0.00000000
0.10548816 0.00515639 0.00000000
0.25042774 0.00000000 0.00000000
0.45846045 0.00000000 0.00000000
0.68071081 0.00000000 0.00000000
0.88007930 0.00000000 0.00000000
0.99888475 0.00000000 0.00000000
0.99888475 0.00000000 0.00000000
0.00000000 0.09106907 0.00000000
0.00217044 0.08917305 0.00000000
0.09322178 0.08491146 0.00000000
0.24355408 0.06753937 0.00000000
0.45817411 0.03622795 0.00000000
0.69061696 0.00283331 0.00000000
0.90975972 0.00000000 0.00000000
0.99888475 0.00000000 0.00000000
0.99888475 0.00790500 0.00000000
0.00000000 0.19804703 0.00000000
0.00000000 0.20196674 0.00000000
0.05938685 0.20781565 0.00000000
0.22574018 0.20735672 0.00000000
0.45483107 0.19042922 0.00000000
0.70252954 0.17264103 0.00000000
0.93027452 0.16298879 0.00000000
0.99888475 0.17070278 0.00000000
0.99888475 0.19637907 0.00000000
0.00000000 0.37788247 0.00000000
0.00000000 0.38571638 0.00000000
0.02310284 0.40279021 0.00000000
0.19424748 0.40722174 0.00000000
0.43006199 0.39692450 0.00000000
0.68368491 0.38492546 0.00000000
0.91433896 0.37776790 0.00000000
0.99888475 0.38933324 0.00000000
0.99888475 0.41727560 0.00000000
0.00000000 0.58965229 0.00000000
0.00000000 0.59968533 0.00000000
0.00000000 0.61988375 0.00000000
0.16673482 0.62930870 0.00000000
0.40622046 0.62278407 0.00000000
0.65925967 0.61019173 0.00000000
0.89030353 0.60352919 0.00000000
0.99888475 0.61462964 0.00000000
0.99888475 0.63720730 0.00000000
0.00000000 0.80868293 0.00000000
0.00000000 0.81873854 0.00000000
0.00000000 0.83785568 0.00000000
0.16218328 0.84758701 0.00000000
0.39828039 0.83775568 0.00000000
0.64806282 0.82190205 0.00000000
0.87551227 0.81132382 0.00000000
0.99888475 0.81619327 0.00000000
0.99888475 0.83343702 0.00000000
0.00000000 0.99821547 0.00000000
0.00000000 0.99821547 0.00000000
0.02928095 0.99851186 0.00000000
0.19837707 0.99888858 0.00000000
0.42804458 0.99827013 0.00000000
0.67220806 0.99716982 0.00000000
0.89348437 0.97625265 0.00000000
0.99888475 0.97045756 0.00000000
0.99888475 0.97438140 0.00000000
0.00000000 0.99888475 0.00000000
0.00000000 0.99888475 0.00000000
0.09866191 0.99888475 0.00000000
0.26039972 0.99888475 0.00000000
0.47804129 0.99888475 0.00000000
0.70667999 0.99888475 0.00000000
0.91143729 0.99888475 0.00000000
0.99888475 0.99888475 0.00000000
0.99888475 0.99888475 0.00000000
0.00000000 0.00000000 0.01700822
0.01374551 0.00000000 0.01703587
0.10847574 0.00000000 0.01735152
0.25079748 0.00000000 0.00253627
0.45629852 0.00000000 0.00000000
0.67313770 0.00000000 0.00000000
0.86107216 0.00000000 0.00000000
0.99888475 0.00000000 0.00000000
0.99888475 0.00000000 0.00000000
0.00000000 0.01142592 0.00884573
0.00889222 0.00924750 0.00887338
0.10152339 0.00501850 0.00913374
0.24781535 0.00000000 0.00000000
0.45609728 0.00000000 0.00000000
0.67868838 0.00000000 0.00000000
0.87841571 0.00000000 0.00000000
0.99888475 0.00000000 0.00000000
0.99888475 0.00000000 0.00000000
0.00000000 0.09114702 0.00000000
0.00000000 0.08925284 0.00000000
0.09072054 0.08507369 0.00000000
0.24159900 0.06805133 0.00000000
0.45649493 0.03703505 0.00000000
0.69030802 0.00510426 0.00000000
0.90985572 0.00000000 0.00000000
0.99888475 0.00000000 0.00000000
0.99888475 0.01143932 0.00000000
0.00000000 0.19966056 0.00000000
0.00000000 0.20360548 0.00000000
0.05919833 0.21059212 0.00000000
0.22566094 0.20997777 0.00000000
0.45566076 0.19368966 0.00000000
0.70359313 0.17603083 0.00000000
0.93112888 0.16622428 0.00000000
0.99888475 0.17463679 0.00000000
0.99888475 0.20030197 0.00000000
0.00000000 0.38128330 0.00000000
0.00000000 0.38915791 0.00000000
0.02334817 0.40591378 0.00000000
0.19519269 0.41106628 0.00000000
0.43143086 0.40100225 0.00000000
0.68473648 0.38847600 0.00000000
0.91605380 0.38190908 0.00000000
0.99888475 0.39358022 0.00000000
0.99888475 0.42088345 0.00000000
0.00000000 0.59396065 0.00000000
0.00000000 0.60398251 0.00000000
0.00000000 0.62409492 0.00000000
0.16816446 0.63370339 0.00000000
0.40716349 0.62662436 0.00000000
0.66049359 0.61413406 0.00000000
0.89175225 0.60750381 0.00000000
0.99888475 0.61786021 0.00000000
0.99888475 0.64076441 0.00000000
0.00000000 0.81262351 0.00000000
0.00000000 0.82262093 0.00000000
0.00000000 0.84217312 0.00000000
0.16289913 0.85133501 0.00000000
0.39880000 0.84125842 0.00000000
0.64868815 0.82538505 0.00000000
0.87572948 0.81429407 0.00000000
0.99888475 0.81869895 0.00000000
0.99888475 0.83599219 0.00000000
0.00000000 0.99821547 0.00000000
0.00000000 0.99821547 0.00000000
0.02972278 0.99851186 0.00000000
0.19820915 0.99888858 0.00000000
0.42786599 0.99827013 0.00000000
0.67167270 0.99737109 0.00000000
0.89198793 0.97706897 0.00000000
0.99888475 0.97088954 0.00000000
0.99888475 0.97441172 0.00000000
0.00000000 0.99888475 0.00000000
0.00000000 0.99888475 0.00000000
0.09759555 0.99888475 0.00000000
0.25857262 0.99888475 0.00000000
0.47568879 0.99888475 0.00000000
0.70389465 0.99888475 0.00000000
0.90828509 0.99888475 0.00000000
0.99888475 0.99888475 0.00000000
0.99888475 0.99888475 0.00000000
0.00000000 0.00000000 0.11551189
0.00885101 0.00000000 0.11541752
0.09915887 0.00000000 0.11382288
0.24532102 0.00000000 0.09372098
0.44983348 0.00000000 0.06408170
0.66554112 0.00000000 0.02692268
0.85543596 0.00000000 0.00000000
0.99888475 0.00000000 0.00000000
0.99888475 0.00000000 0.00007381
0.00000000 0.01194386 0.10298607
0.00388731 0.00957225 0.10291036
0.09438556 0.00464493 0.10197326
0.24242880 0.00000000 0.08802571
0.45042343 0.00000000 0.06167191
0.67277546 0.00000000 0.03113455
0.87424570 0.00000000 0.00809915
0.99888475 0.00000000 0.00543948
0.99888475 0.00000000 0.02394230
0.00000000 0.09045709 0.08399843
0.00000000 0.08886773 0.08450448
0.08531260 0.08531260 0.08531260
0.23729133 0.06881198 0.07657338
0.45323122 0.03888913 0.05817051
0.68939239 0.00950445 0.04164137
0.90974624 0.00000000 0.03620036
0.99888475 0.00000000 0.04768598
0.99888475 0.01841415 0.07231637
0.00000000 0.20164796 0.02593727
0.00000000 0.20631834 0.03280921
0.05823272 0.21581594 0.04656008
0.22551931 0.21550935 0.05433047
0.45717330 0.20028029 0.05117045
0.70529885 0.18271970 0.04629052
0.93294908 0.17324002 0.04815243
0.99888475 0.18267694 0.06496474
0.99888475 0.20816351 0.09425060
0.00000000 0.38798948 0.00000000
0.00000000 0.39606606 0.00000000
0.02406597 0.41258335 0.00000000
0.19700690 0.41889999 0.00914812
0.43372819 0.40893086 0.01094424
0.68714163 0.39607220 0.01098284
0.91933076 0.39032777 0.01668630
0.99888475 0.40187698 0.03630800
0.99888475 0.42861813 0.06752330
0.00000000 0.60148901 0.00000000
0.00000000 0.61189338 0.00000000
0.00000000 0.63271859 0.00000000
0.17058812 0.64221461 0.00000000
0.40924025 0.63464669 0.00000000
0.66311189 0.62231321 0.00000000
0.89428573 0.61528421 0.00000000
0.99888475 0.62473704 0.00000000
0.99888475 0.64799311 0.01860810
0.00000000 0.82040365 0.00000000
0.00000000 0.83039735 0.00000000
0.00000000 0.85048308 0.00000000
0.16444006 0.85898173 0.00000000
0.40013704 0.84870338 0.00000000
0.64969077 0.83221943 0.00000000
0.87617131 0.82040338 0.00000000
0.99888475 0.82423635 0.00000000
0.99888475 0.84103631 0.00000000
0.00000000 0.99832151 0.00000000
0.00000000 0.99832151 0.00000000
0.03045124 0.99878301 0.00000000
0.19813893 0.99888475 0.00000000
0.42749779 0.99834877 0.00000000
0.67042213 0.99785033 0.00000000
0.88915911 0.97978760 0.00000000
0.99888475 0.97234366 0.00000000
0.99888475 0.97461493 0.00000000
0.00000000 0.99888475 0.00000000
0.00000000 0.99888475 0.00003182
0.09594205 0.99888475 0.01531667
0.25503894 0.99888475 0.01705726
0.47089951 0.99888475 0.00000000
0.69804660 0.99888475 0.00000000
0.90162583 0.99888475 0.00000000
0.99888475 0.99888475 0.00000000
0.99888475 0.99888475 0.00000000
0.00000000 0.00000000 0.26730306
0.00000000 0.00000000 0.26735890
0.08336489 0.00000000 0.26601353
0.22894238 0.00000000 0.25046636
0.43340037 0.00000000 0.21973754
0.64858366 0.00000000 0.18185081
0.83640235 0.00000000 0.15223956
0.99888475 0.00000000 0.15061495
0.99888475 0.00000000 0.16722381
0.00000000 0.00772435 0.25925056
0.00000000 0.00543584 0.25930522
0.07943424 0.00005677 0.25858400
0.22711788 0.00000000 0.24544734
0.43559648 0.00000000 0.21855696
0.65837298 0.00000000 0.18800124
0.85955396 0.00000000 0.16604922
0.99888475 0.00000000 0.16808063
0.99888475 0.00000000 0.18767557
0.00000000 0.08678664 0.24197151
0.00000000 0.08511478 0.24265795
0.07139875 0.08158327 0.24402238
0.22430821 0.06616767 0.23607813
0.44250311 0.03795852 0.21845944
0.68100129 0.01088446 0.20362242
0.90253160 0.00000000 0.19921343
0.99888475 0.00096794 0.21080627
0.99888475 0.02210433 0.23580336
0.00000000 0.20084342 0.18717803
0.00000000 0.20649157 0.19464124
0.05011661 0.21773544 0.20982948
0.21848106 0.21848106 0.21848106
0.45141811 0.20348610 0.21498290
0.69986547 0.18655694 0.21026860
0.92785600 0.17787057 0.21245932
0.99888475 0.18741417 0.22924821
0.99888475 0.21356365 0.25934702
0.00000000 0.39096797 0.13029609
0.00000000 0.39956943 0.13902729
0.01808498 0.41694701 0.15972539
0.19108589 0.42390851 0.17372436
0.42905603 0.41426928 0.17557820
0.68313917 0.40144664 0.17613513
0.91503247 0.39555337 0.18168476
0.99888475 0.40746045 0.20114561
0.99888475 0.43399621 0.23198833
0.00000000 0.60653731 0.08166450
0.00000000 0.61712439 0.09069467
0.00000000 0.63834077 0.11321618
0.16578071 0.64796441 0.12979925
0.40446094 0.64044639 0.13351982
0.65847243 0.62759124 0.13345367
0.88946492 0.62023408 0.13761673
0.99888475 0.62921395 0.15440446
0.99888475 0.65182075 0.18182723
0.00000000 0.82567103 0.05641868
0.00000000 0.83579354 0.06925534
0.00000000 0.85581092 0.09233669
0.15912171 0.86401532 0.10607922
0.39420203 0.85336227 0.10669240
0.64331419 0.83606279 0.10171712
0.86887458 0.82355337 0.10056986
0.99888475 0.82671488 0.11188816
0.99888475 0.84268415 0.13272163
0.00000000 0.99844420 0.09123512
0.00000000 0.99844420 0.09757236
0.02381820 0.99888987 0.11635795
0.19099815 0.99888475 0.12673055
0.41939982 0.99844814 0.12084844
0.66140648 0.99793880 0.10898306
0.87846467 0.97973704 0.09861177
0.99890274 0.97029266 0.09671335
0.99888475 0.97111379 0.10146472
0.00000000 0.99888475 0.15594572
0.00000000 0.99888475 0.16198492
0.08771146 0.99888475 0.17512198
0.24364146 0.99888475 0.17426746
0.45744747 0.99888475 0.15407957
0.68384203 0.99888475 0.12704118
0.88686423 0.99888475 0.10198451
0.99888475 0.99888475 0.09130441
0.99888475 0.99888475 0.09085924
0.00000000 0.00000000 0.49447363
0.00000000 0.00000000 0.49450251
0.05840794 0.00000000 0.49274613
0.20289454 0.00000000 0.47664311
0.40690004 0.00000000 0.44525375
0.62273673 0.00000000 0.40805521
0.81566898 0.00000000 0.37798301
0.99837324 0.00000000 0.37929335
0.99888475 0.00000000 0.39681075
0.00000000 0.00000000 0.48701790
0.00000000 0.00000000 0.48704667
0.05519459 0.00000000 0.48614701
0.20228355 0.00000000 0.47304460
0.41107541 0.00000000 0.44633902
0.63506116 0.00000000 0.41681903
0.83919759 0.00000000 0.39609374
0.99837324 0.00000000 0.40079324
0.99888475 0.00000000 0.42092851
0.00000000 0.07785656 0.47011363
0.00000000 0.07649119 0.47104922
0.04875305 0.07371196 0.47303391
0.20192325 0.05948583 0.46659962
0.42208504 0.03274613 0.45094051
0.66321260 0.00799173 0.43809799
0.88578382 0.00000000 0.43432665
0.99888475 0.00000000 0.44641437
0.99888475 0.02142183 0.47168369
0.00000000 0.19734538 0.42018046
0.00000000 0.20315518 0.42845858
0.03273709 0.21488963 0.44508373
0.20148755 0.21649967 0.45526617
0.43502436 0.20213082 0.45230552
0.68474194 0.18596779 0.44747948
0.91352106 0.17776308 0.44954035
0.99888475 0.18777508 0.46645229
0.99888475 0.21423344 0.49649116
0.00000000 0.38956271 0.36479133
0.00000000 0.39849110 0.37547736
0.00349318 0.41649773 0.39735896
0.17590729 0.42367551 0.41234058
0.41471367 0.41471367 0.41471367
0.66986641 0.40197399 0.41444164
0.90144863 0.39622349 0.41952552
0.99888475 0.40818651 0.43860503
0.99888475 0.43458534 0.46905024
0.00000000 0.60743828 0.31459868
0.00000000 0.61793390 0.32647844
0.00000000 0.63887610 0.35116510
0.15122261 0.64888152 0.36811483
0.38965156 0.64142762 0.37093117
0.64420459 0.62801808 0.36991735
0.87502350 0.62028119 0.37416444
0.99888475 0.62878003 0.39050712
0.99888475 0.65061262 0.41668875
0.00000000 0.82670086 0.29487917
0.00000000 0.83657835 0.30586751
0.00000000 0.85616698 0.32892482
0.14379437 0.86399568 0.34359360
0.37829953 0.85291826 0.34311583
0.62704858 0.83513758 0.33725376
0.85240860 0.82179924 0.33529415
0.99837434 0.82414447 0.34548164
0.99888475 0.83926449 0.36517192
0.00000000 0.99842736 0.32570926
0.00000000 0.99842736 0.33456426
0.00822651 0.99889990 0.35300387
0.17369066 0.99888475 0.36213854
0.40141956 0.99838326 0.35539234
0.64256934 0.99781765 0.34228783
0.85706498 0.97424611 0.32941035
0.99803306 0.96300292 0.32520662
0.99888475 0.96279662 0.32943050
0.00000000 0.99888475 0.38923636
0.00000000 0.99888475 0.39523840
0.06861172 0.99888475 0.40708920
0.22229454 0.99888475 0.40392878
0.43417925 0.99888475 0.38217478
0.65974308 0.99888475 0.35387990
0.86192073 0.99888475 0.32869965
0.99780318 0.99888475 0.31614321
0.99888475 0.99888475 0.31559916
0.00000000 0.00000000 0.73777581
0.00000000 0.00000000 0.73794114
0.03131725 0.00000000 0.73674814
0.17412637 0.00000000 0.71956296
0.37689372 0.00000000 0.68682019
0.59186421 0.00000000 0.64874533
0.79221807 0.00000000 0.62483057
0.98731724 0.00000000 0.62826124
0.99888475 0.00000000 0.64570158
0.00000000 0.00000000 0.73113682
0.00000000 0.00000000 0.73130272
0.02848427 0.00000000 0.73084761
0.17504671 0.00000000 0.71756493
0.38366614 0.00000000 0.69084380
0.60829230 0.00000000 0.66205133
0.81705403 0.00000000 0.64556522
0.99161555 0.00000000 0.65196620
0.99888475 0.00000000 0.67240566
0.00000000 0.06753177 0.71517539
0.00000000 0.06677016 0.71664593
0.02362632 0.06513586 0.71961158
0.17842540 0.05245202 0.71484512
0.40010087 0.02735975 0.70139481
0.64326718 0.00437127 0.69049237
0.86611955 0.00000000 0.68747237
0.99889691 0.00000000 0.69988569
0.99888475 0.01977700 0.72583633
0.00000000 0.19266493 0.67096932
0.00000000 0.19887699 0.67988249
0.01330399 0.21152377 0.69757282
0.18292055 0.21385595 0.70829623
0.41618326 0.20029895 0.70643125
0.66681526 0.18454969 0.70261276
0.89608400 0.17652096 0.70481996
0.99888475 0.18709740 0.72200630
0.99888475 0.21379894 0.75208403
0.00000000 0.38801592 0.61844527
0.00000000 0.39680854 0.62962062
0.00000000 0.41499176 0.65230719
0.15945645 0.42248247 0.66810945
0.39775896 0.41400880 0.67193061
0.65314301 0.40138195 0.67178153
0.88502460 0.39571900 0.67604277
0.99888475 0.40763257 0.69459140
0.99888475 0.43369461 0.72433234
0.00000000 0.60744472 0.56981475
0.00000000 0.61770263 0.58213771
0.00000000 0.63833876 0.60706958
0.13518668 0.64837000 0.62468532
0.37275000 0.64073238 0.62833905
0.62687689 0.62687689 0.62687689
0.85785346 0.61870403 0.62971244
0.99889745 0.62685692 0.64513093
0.99888475 0.64812309 0.67031655
0.00000000 0.82598142 0.54971380
0.00000000 0.83576268 0.56102036
0.00000000 0.85515492 0.58402090
0.12613996 0.86247163 0.59859559
0.35953426 0.85059045 0.59750632
0.60756800 0.83263468 0.59087668
0.83306684 0.81852059 0.58788469
0.99034348 0.81986305 0.59728053
0.99888475 0.83412374 0.61597652
0.00000000 0.99837434 0.57925266
0.00000000 0.99837434 0.58810152
0.00000000 0.99884111 0.60612978
0.15350285 0.99888514 0.61469695
0.38069510 0.99830796 0.60722749
0.62033168 0.99094515 0.59271190
0.83294989 0.96704411 0.57758343
0.97728895 0.95366451 0.57144279
0.99888475 0.95257372 0.57477873
0.00000000 0.99888475 0.64247884
0.00000000 0.99888475 0.64710993
0.04581047 0.99888475 0.65613456
0.19779276 0.99888475 0.65145704
0.40835089 0.99888475 0.62850245
0.63302628 0.99888475 0.59938156
0.83447665 0.99888475 0.57358370
0.97257423 0.99888475 0.56077197
0.99888475 0.99888475 0.56036573
0.00000000 0.00000000 0.95473616
0.00000000 0.00000000 0.95512905
0.00568412 0.00000000 0.95407083
0.14973853 0.00000000 0.93708474
0.35150161 0.00000000 0.90335135
0.56579546 0.00000000 0.85965914
0.77239513 0.00000000 0.83825459
0.95373972 0.00000000 0.84390254
0.99888475 0.00000000 0.85332849
0.00000000 0.00000000 0.94909028
0.00000000 0.00000000 0.94950039
0.00448342 0.00000000 0.94934197
0.15192762 0.00000000 0.93646902
0.36061120 0.00000000 0.91037830
0.58587272 0.00000000 0.88090835
0.79882351 0.00000000 0.86690201
0.96720743 0.00000000 0.87613162
0.99888475 0.00000000 0.89576661
0.00000000 0.05987101 0.93497579
0.00000000 0.05946472 0.93679702
0.00238243 0.05845744 0.94029232
0.15884296 0.04762172 0.93738574
0.38284641 0.02473540 0.92657515
0.62707705 0.00299619 0.91751649
0.85067626 0.00000000 0.91546641
0.99827282 0.00000000 0.92841433
0.99888475 0.02001014 0.95348891
0.00000000 0.19039151 0.89474035
0.00000000 0.19687541 0.90551713
0.00000000 0.21022763 0.92418718
0.16777544 0.21306299 0.93518395
0.40142523 0.20039514 0.93425680
0.65244711 0.18509348 0.93147571
0.88214138 0.17725058 0.93434527
0.99888475 0.18824270 0.95093209
0.99888475 0.21512604 0.97623778
0.00000000 0.38770317 0.84401675
0.00000000 0.39675276 0.85671450
0.00000000 0.41545237 0.88143740
0.14651863 0.42336030 0.89782842
0.38491728 0.41527197 0.90163668
0.63926097 0.40276275 0.90199994
0.87142516 0.39714801 0.90717302
0.99888475 0.40875736 0.92566875
0.99888475 0.43429641 0.95350017
0.00000000 0.60868246 0.79869696
0.00000000 0.61897132 0.81151131
0.00000000 0.63961692 0.83678807
0.12259032 0.64951286 0.85474255
0.36006575 0.64126756 0.85829957
0.61319629 0.62755605 0.85778370
0.84341126 0.61881755 0.86030302
0.99833039 0.62614465 0.87452476
0.99888475 0.64709518 0.89924568
0.00000000 0.82708225 0.77890584
0.00000000 0.83667283 0.79036492
0.00000000 0.85569616 0.81325302
0.11196636 0.86239224 0.82762927
0.34481987 0.84991068 0.82654007
0.59177278 0.83132160 0.82018601
0.81646755 0.81646755 0.81646755
0.97481175 0.81693801 0.82434765
0.99888475 0.83012841 0.84136564
0.00000000 0.99834142 0.80660288
0.00000000 0.99834142 0.81552524
0.00000000 0.99878638 0.83366682
0.13675181 0.99889887 0.84154227
0.36313878 0.99824230 0.83358450
0.60073526 0.98681263 0.81733491
0.81137425 0.96082557 0.80034562
0.95544855 0.94596774 0.79237757
0.99888475 0.94383429 0.79492257
0.00000000 0.99888475 0.87006132
0.00000000 0.99888475 0.87338800
0.02535208 0.99888475 0.88018728
0.17570219 0.99888475 0.87335207
0.38556410 0.99888475 0.84936830
0.60954463 0.99888475 0.81954056
0.81040041 0.99888475 0.79326312
0.94913818 0.99888475 0.77996554
0.99888475 0.99888515 0.77965249
0.00000000 0.00000000 0.99888475
0.00000000 0.00000000 0.99888475
0.00000000 0.00000000 0.99888475
0.13396239 0.00000000 0.99888475
0.33706710 0.00000000 0.99888475
0.55313724 0.00000000 0.99888475
0.76405343 0.00000000 0.99888475
0.94653238 0.00000000 0.99888475
0.99888475 0.00000000 0.99888475
0.00000000 0.00000000 0.99888475
0.00000000 0.00000000 0.99888475
0.00000000 0.00000000 0.99888475
0.13818858 0.00000000 0.99888475
0.34836064 0.00000000 0.99888475
0.57536214 0.00000000 0.99888475
0.79133930 0.00000000 0.99888475
0.96123600 0.00000000 0.99888475
0.99888475 0.00000000 0.99888475
0.00000000 0.05728440 0.99888475
0.00000000 0.05719286 0.99888475
0.00000000 0.05706332 0.99888475
0.14940898 0.04798267 0.99888475
0.37578918 0.02761921 0.99888475
0.62090968 0.00675375 0.99888475
0.84505919 0.00000000 0.99888475
0.99806934 0.00200402 0.99888475
0.99888475 0.02535984 0.99888475
0.00000000 0.19302081 0.99888475
0.00000000 0.19978426 0.99888475
0.00000000 0.21392586 0.99888475
0.16253637 0.21745991 0.99888475
0.39676847 0.20534277 0.99888475
0.64806336 0.19062103 0.99888475
0.87823871 0.18312055 0.99888475
0.99888475 0.19436607 0.99888475
0.99888475 0.22099666 0.99888475
0.00000000 0.39253618 0.99885455
0.00000000 0.40185489 0.99885455
0.00000000 0.42069949 0.99888475
0.14319560 0.42920804 0.99888475
0.38164171 0.42133795 0.99888475
0.63562166 0.40913099 0.99888475
0.86764482 0.40343078 0.99888475
0.99888475 0.41463049 0.99888475
0.99888475 0.43985237 0.99888475
0.00000000 0.61465131 0.96558559
0.00000000 0.62503436 0.97259620
0.00000000 0.64573366 0.99175096
0.11943411 0.65538892 0.99851717
0.35689927 0.64688621 0.99885577
0.60926547 0.63305441 0.99886455
0.83844379 0.62391431 0.99889846
0.99813719 0.63037722 0.99889162
0.99888475 0.65067648 0.99888475
0.00000000 0.83229958 0.93390978
0.00000000 0.84191843 0.94630717
0.00000000 0.86086844 0.96910390
0.10683226 0.86684150 0.98229752
0.34000335 0.85396067 0.98142121
0.58645958 0.83460512 0.97483682
0.80957985 0.81905711 0.97105337
0.96726332 0.81854404 0.97792417
0.99888475 0.82996974 0.99353665
0.00000000 0.99840087 0.96683213
0.00000000 0.99840087 0.97088121
0.00000000 0.99888477 0.98402606
0.12967096 0.99888613 0.99199337
0.35530002 0.99826393 0.98422000
0.59053895 0.98615739 0.96852698
0.79908980 0.95818361 0.95096989
0.94234617 0.94234617 0.94234617
0.99888475 0.93974058 0.94366422
0.00000000 0.99888475 0.99905168
0.00000000 0.99888475 0.99889014
0.01447295 0.99888475 0.99890203
0.16317402 0.99888475 0.99889426
0.37207413 0.99888475 0.99654635
0.59553951 0.99888475 0.96749125
0.79593624 0.99888475 0.94170318
0.93477276 0.99889371 0.92853983
0.99907929 0.99942306 0.92817454
0.00000000 0.00000000 0.99888475
0.00000000 0.00000000 0.99888475
0.00000000 0.00000000 0.99888475
0.12691312 0.00000000 0.99888475
0.32959347 0.00000000 0.99888475
0.55104863 0.00000000 0.99888475
0.76454917 0.00000000 0.99888475
0.94832468 0.00000000 0.99888475
0.99888475 0.00000000 0.99888475
0.00000000 0.00000000 0.99888475
0.00000000 0.00000000 0.99888475
0.00000000 0.00000000 0.99888475
0.13299025 0.00000000 0.99888475
0.34399445 0.00000000 0.99888475
0.57469945 0.00000000 0.99888475
0.79263954 0.00000000 0.99888475
0.96318917 0.00000000 0.99888475
0.99888475 0.00000000 0.99888475
0.00000000 0.05725267 0.99888475
0.00000000 0.05836990 0.99888475
0.00000000 0.06060921 0.99888475
0.14937648 0.05336483 0.99888475
0.37738445 0.03490039 0.99888475
0.62319346 0.01486167 0.99888475
0.84789698 0.00283077 0.99888475
0.99815744 0.01056029 0.99888475
0.99888475 0.03516385 0.99888475
0.00000000 0.20017987 0.99888475
0.00000000 0.20724676 0.99888475
0.00000000 0.22205882 0.99888475
0.16589298 0.22590753 0.99888475
0.40056105 0.21465641 0.99888475
0.65190388 0.20027815 0.99888475
0.88286782 0.19333225 0.99888475
0.99888475 0.20477022 0.99888475
0.99888475 0.23126376 0.99888475
0.00000000 0.40237592 0.99888475
0.00000000 0.41156323 0.99888475
0.00000000 0.43031242 0.99888475
0.14821483 0.43932711 0.99888475
0.38657253 0.43142820 0.99888475
0.64049973 0.41956211 0.99888475
0.87264642 0.41389432 0.99888475
0.99888475 0.42454415 0.99888475
0.99888475 0.44955446 0.99888475
0.00000000 0.62540141 0.99888475
0.00000000 0.63557862 0.99888475
0.00000000 0.65601877 0.99888475
0.12462082 0.66540716 0.99888475
0.36171625 0.65659671 0.99888475
0.61346299 0.64249068 0.99888475
0.84175345 0.63297552 0.99888475
0.99829456 0.63889153 0.99888475
0.99888475 0.65839330 0.99888475
0.00000000 0.84236539 0.99888475
0.00000000 0.85167958 0.99888475
0.00000000 0.87019338 0.99888475
0.11085962 0.87570236 0.99888475
0.34329561 0.86195171 0.99888475
0.58913214 0.84188105 0.99888475
0.81106314 0.82587514 0.99888475
0.96742183 0.82450854 0.99888475
0.99888475 0.83350925 0.99888475
0.00000000 0.99897214 0.99888475
0.00000000 0.99886884 0.99888475
0.00000000 0.99888475 0.99888475
0.13116000 0.99888475 0.99888475
0.35553121 0.99843968 0.99888475
0.58887428 0.98910553 0.99888475
0.79576811 0.95944083 0.99888475
0.93769329 0.94274998 0.99888475
0.99886922 0.93964409 0.99888475
0.00000000 0.99888475 0.99888475
0.00000000 0.99888475 0.99888475
0.01152944 0.99888475 0.99888475
0.15920100 0.99888475 0.99888475
0.36732793 0.99888475 0.99888475
0.59024758 0.99888475 0.99888475
0.79030924 0.99888475 0.99888475
0.92903417 0.99892755 0.99944800
0.99941247 0.99940880 0.99941286
